(G-CODE GENERATED BY FLATCAM v8.994 - www.flatcam.org - Version Date: 2020/11/7)

(Name: Modulo LIFI-Edge_Cuts.gbr_cutout_cnc)
(Type: G-code from Geometry)
(Units: MM)

(Created on Monday, 12 January 2026 at 11:44)

(This preprocessor is the default preprocessor used by FlatCAM.)
(It is made to work with MACH3 compatible motion controllers.)

(TOOL DIAMETER: 0.2 mm)
(Feedrate_XY: 100.0 mm/min)
(Feedrate_Z: 40.0 mm/min)
(Feedrate rapids 1500.0 mm/min)

(Z_Cut: -1.8 mm)
(DepthPerCut: 0.3 mm <=>6 passes)
(Z_Move: 2.0 mm)
(Z Start: None mm)
(Z End: 25.0 mm)
(X,Y End: None mm)
(Steps per circle: 64)
(Preprocessor Geometry: default)

(X range:    1.2150 ...   24.9650  mm)
(Y range:  -16.1250 ...   -1.3750  mm)

(Spindle Speed: 1000.0 RPM)
G21
G90
G94

G01 F100.00

M5
G00 Z15.0000
G00 X0.0000 Y0.0000
T1
M6    
(MSG, Change to Tool Dia = 0.2000)
M0
G00 Z15.0000

M03 S1000.0
G01 F100.00
G00 X1.2150 Y-1.7500
G01 F40.00
G01 Z-0.3000
G01 F100.00
G01 X1.2155 Y-1.7304
G01 X1.2189 Y-1.6962
G01 X1.2260 Y-1.6601
G01 X1.2365 Y-1.6248
G01 X1.2505 Y-1.5908
G01 X1.2677 Y-1.5583
G01 X1.2881 Y-1.5276
G01 X1.3113 Y-1.4991
G01 X1.3373 Y-1.4730
G01 X1.3656 Y-1.4495
G01 X1.3962 Y-1.4290
G01 X1.4286 Y-1.4115
G01 X1.4625 Y-1.3974
G01 X1.4977 Y-1.3866
G01 X1.5338 Y-1.3793
G01 X1.5704 Y-1.3755
G01 X1.5900 Y-1.3750
G01 X24.5900 Y-1.3750
G01 X24.6096 Y-1.3755
G01 X24.6438 Y-1.3789
G01 X24.6823 Y-1.3866
G01 X24.7175 Y-1.3974
G01 X24.7492 Y-1.4105
G01 X24.7817 Y-1.4277
G01 X24.8144 Y-1.4495
G01 X24.8427 Y-1.4730
G01 X24.8670 Y-1.4973
G01 X24.8905 Y-1.5256
G01 X24.9123 Y-1.5583
G01 X24.9295 Y-1.5908
G01 X24.9435 Y-1.6248
G01 X24.9534 Y-1.6577
G01 X24.9611 Y-1.6962
G01 X24.9645 Y-1.7304
G01 X24.9650 Y-1.7500
G01 X24.9650 Y-15.7500
G01 X24.9645 Y-15.7696
G01 X24.9611 Y-15.8038
G01 X24.9534 Y-15.8423
G01 X24.9435 Y-15.8752
G01 X24.9295 Y-15.9092
G01 X24.9123 Y-15.9417
G01 X24.8905 Y-15.9744
G01 X24.8670 Y-16.0027
G01 X24.8409 Y-16.0287
G01 X24.8144 Y-16.0505
G01 X24.7817 Y-16.0723
G01 X24.7514 Y-16.0885
G01 X24.7175 Y-16.1026
G01 X24.6823 Y-16.1134
G01 X24.6438 Y-16.1211
G01 X24.6096 Y-16.1245
G01 X24.5900 Y-16.1250
G01 X1.5900 Y-16.1250
G01 X1.5704 Y-16.1245
G01 X1.5362 Y-16.1211
G01 X1.4977 Y-16.1134
G01 X1.4625 Y-16.1026
G01 X1.4308 Y-16.0895
G01 X1.3983 Y-16.0723
G01 X1.3656 Y-16.0505
G01 X1.3373 Y-16.0270
G01 X1.3130 Y-16.0027
G01 X1.2895 Y-15.9744
G01 X1.2677 Y-15.9417
G01 X1.2505 Y-15.9092
G01 X1.2374 Y-15.8775
G01 X1.2266 Y-15.8423
G01 X1.2189 Y-15.8038
G01 X1.2155 Y-15.7696
G01 X1.2150 Y-15.7500
G01 X1.2150 Y-1.7500
G00 X1.2150 Y-1.7500
G01 F40.00
G01 Z-0.6000
G01 F100.00
G01 X1.2155 Y-1.7304
G01 X1.2189 Y-1.6962
G01 X1.2260 Y-1.6601
G01 X1.2365 Y-1.6248
G01 X1.2505 Y-1.5908
G01 X1.2677 Y-1.5583
G01 X1.2881 Y-1.5276
G01 X1.3113 Y-1.4991
G01 X1.3373 Y-1.4730
G01 X1.3656 Y-1.4495
G01 X1.3962 Y-1.4290
G01 X1.4286 Y-1.4115
G01 X1.4625 Y-1.3974
G01 X1.4977 Y-1.3866
G01 X1.5338 Y-1.3793
G01 X1.5704 Y-1.3755
G01 X1.5900 Y-1.3750
G01 X24.5900 Y-1.3750
G01 X24.6096 Y-1.3755
G01 X24.6438 Y-1.3789
G01 X24.6823 Y-1.3866
G01 X24.7175 Y-1.3974
G01 X24.7492 Y-1.4105
G01 X24.7817 Y-1.4277
G01 X24.8144 Y-1.4495
G01 X24.8427 Y-1.4730
G01 X24.8670 Y-1.4973
G01 X24.8905 Y-1.5256
G01 X24.9123 Y-1.5583
G01 X24.9295 Y-1.5908
G01 X24.9435 Y-1.6248
G01 X24.9534 Y-1.6577
G01 X24.9611 Y-1.6962
G01 X24.9645 Y-1.7304
G01 X24.9650 Y-1.7500
G01 X24.9650 Y-15.7500
G01 X24.9645 Y-15.7696
G01 X24.9611 Y-15.8038
G01 X24.9534 Y-15.8423
G01 X24.9435 Y-15.8752
G01 X24.9295 Y-15.9092
G01 X24.9123 Y-15.9417
G01 X24.8905 Y-15.9744
G01 X24.8670 Y-16.0027
G01 X24.8409 Y-16.0287
G01 X24.8144 Y-16.0505
G01 X24.7817 Y-16.0723
G01 X24.7514 Y-16.0885
G01 X24.7175 Y-16.1026
G01 X24.6823 Y-16.1134
G01 X24.6438 Y-16.1211
G01 X24.6096 Y-16.1245
G01 X24.5900 Y-16.1250
G01 X1.5900 Y-16.1250
G01 X1.5704 Y-16.1245
G01 X1.5362 Y-16.1211
G01 X1.4977 Y-16.1134
G01 X1.4625 Y-16.1026
G01 X1.4308 Y-16.0895
G01 X1.3983 Y-16.0723
G01 X1.3656 Y-16.0505
G01 X1.3373 Y-16.0270
G01 X1.3130 Y-16.0027
G01 X1.2895 Y-15.9744
G01 X1.2677 Y-15.9417
G01 X1.2505 Y-15.9092
G01 X1.2374 Y-15.8775
G01 X1.2266 Y-15.8423
G01 X1.2189 Y-15.8038
G01 X1.2155 Y-15.7696
G01 X1.2150 Y-15.7500
G01 X1.2150 Y-1.7500
G00 X1.2150 Y-1.7500
G01 F40.00
G01 Z-0.9000
G01 F100.00
G01 X1.2155 Y-1.7304
G01 X1.2189 Y-1.6962
G01 X1.2260 Y-1.6601
G01 X1.2365 Y-1.6248
G01 X1.2505 Y-1.5908
G01 X1.2677 Y-1.5583
G01 X1.2881 Y-1.5276
G01 X1.3113 Y-1.4991
G01 X1.3373 Y-1.4730
G01 X1.3656 Y-1.4495
G01 X1.3962 Y-1.4290
G01 X1.4286 Y-1.4115
G01 X1.4625 Y-1.3974
G01 X1.4977 Y-1.3866
G01 X1.5338 Y-1.3793
G01 X1.5704 Y-1.3755
G01 X1.5900 Y-1.3750
G01 X24.5900 Y-1.3750
G01 X24.6096 Y-1.3755
G01 X24.6438 Y-1.3789
G01 X24.6823 Y-1.3866
G01 X24.7175 Y-1.3974
G01 X24.7492 Y-1.4105
G01 X24.7817 Y-1.4277
G01 X24.8144 Y-1.4495
G01 X24.8427 Y-1.4730
G01 X24.8670 Y-1.4973
G01 X24.8905 Y-1.5256
G01 X24.9123 Y-1.5583
G01 X24.9295 Y-1.5908
G01 X24.9435 Y-1.6248
G01 X24.9534 Y-1.6577
G01 X24.9611 Y-1.6962
G01 X24.9645 Y-1.7304
G01 X24.9650 Y-1.7500
G01 X24.9650 Y-15.7500
G01 X24.9645 Y-15.7696
G01 X24.9611 Y-15.8038
G01 X24.9534 Y-15.8423
G01 X24.9435 Y-15.8752
G01 X24.9295 Y-15.9092
G01 X24.9123 Y-15.9417
G01 X24.8905 Y-15.9744
G01 X24.8670 Y-16.0027
G01 X24.8409 Y-16.0287
G01 X24.8144 Y-16.0505
G01 X24.7817 Y-16.0723
G01 X24.7514 Y-16.0885
G01 X24.7175 Y-16.1026
G01 X24.6823 Y-16.1134
G01 X24.6438 Y-16.1211
G01 X24.6096 Y-16.1245
G01 X24.5900 Y-16.1250
G01 X1.5900 Y-16.1250
G01 X1.5704 Y-16.1245
G01 X1.5362 Y-16.1211
G01 X1.4977 Y-16.1134
G01 X1.4625 Y-16.1026
G01 X1.4308 Y-16.0895
G01 X1.3983 Y-16.0723
G01 X1.3656 Y-16.0505
G01 X1.3373 Y-16.0270
G01 X1.3130 Y-16.0027
G01 X1.2895 Y-15.9744
G01 X1.2677 Y-15.9417
G01 X1.2505 Y-15.9092
G01 X1.2374 Y-15.8775
G01 X1.2266 Y-15.8423
G01 X1.2189 Y-15.8038
G01 X1.2155 Y-15.7696
G01 X1.2150 Y-15.7500
G01 X1.2150 Y-1.7500
G00 X1.2150 Y-1.7500
G01 F40.00
G01 Z-1.2000
G01 F100.00
G01 X1.2155 Y-1.7304
G01 X1.2189 Y-1.6962
G01 X1.2260 Y-1.6601
G01 X1.2365 Y-1.6248
G01 X1.2505 Y-1.5908
G01 X1.2677 Y-1.5583
G01 X1.2881 Y-1.5276
G01 X1.3113 Y-1.4991
G01 X1.3373 Y-1.4730
G01 X1.3656 Y-1.4495
G01 X1.3962 Y-1.4290
G01 X1.4286 Y-1.4115
G01 X1.4625 Y-1.3974
G01 X1.4977 Y-1.3866
G01 X1.5338 Y-1.3793
G01 X1.5704 Y-1.3755
G01 X1.5900 Y-1.3750
G01 X24.5900 Y-1.3750
G01 X24.6096 Y-1.3755
G01 X24.6438 Y-1.3789
G01 X24.6823 Y-1.3866
G01 X24.7175 Y-1.3974
G01 X24.7492 Y-1.4105
G01 X24.7817 Y-1.4277
G01 X24.8144 Y-1.4495
G01 X24.8427 Y-1.4730
G01 X24.8670 Y-1.4973
G01 X24.8905 Y-1.5256
G01 X24.9123 Y-1.5583
G01 X24.9295 Y-1.5908
G01 X24.9435 Y-1.6248
G01 X24.9534 Y-1.6577
G01 X24.9611 Y-1.6962
G01 X24.9645 Y-1.7304
G01 X24.9650 Y-1.7500
G01 X24.9650 Y-15.7500
G01 X24.9645 Y-15.7696
G01 X24.9611 Y-15.8038
G01 X24.9534 Y-15.8423
G01 X24.9435 Y-15.8752
G01 X24.9295 Y-15.9092
G01 X24.9123 Y-15.9417
G01 X24.8905 Y-15.9744
G01 X24.8670 Y-16.0027
G01 X24.8409 Y-16.0287
G01 X24.8144 Y-16.0505
G01 X24.7817 Y-16.0723
G01 X24.7514 Y-16.0885
G01 X24.7175 Y-16.1026
G01 X24.6823 Y-16.1134
G01 X24.6438 Y-16.1211
G01 X24.6096 Y-16.1245
G01 X24.5900 Y-16.1250
G01 X1.5900 Y-16.1250
G01 X1.5704 Y-16.1245
G01 X1.5362 Y-16.1211
G01 X1.4977 Y-16.1134
G01 X1.4625 Y-16.1026
G01 X1.4308 Y-16.0895
G01 X1.3983 Y-16.0723
G01 X1.3656 Y-16.0505
G01 X1.3373 Y-16.0270
G01 X1.3130 Y-16.0027
G01 X1.2895 Y-15.9744
G01 X1.2677 Y-15.9417
G01 X1.2505 Y-15.9092
G01 X1.2374 Y-15.8775
G01 X1.2266 Y-15.8423
G01 X1.2189 Y-15.8038
G01 X1.2155 Y-15.7696
G01 X1.2150 Y-15.7500
G01 X1.2150 Y-1.7500
G00 X1.2150 Y-1.7500
G01 F40.00
G01 Z-1.5000
G01 F100.00
G01 X1.2155 Y-1.7304
G01 X1.2189 Y-1.6962
G01 X1.2260 Y-1.6601
G01 X1.2365 Y-1.6248
G01 X1.2505 Y-1.5908
G01 X1.2677 Y-1.5583
G01 X1.2881 Y-1.5276
G01 X1.3113 Y-1.4991
G01 X1.3373 Y-1.4730
G01 X1.3656 Y-1.4495
G01 X1.3962 Y-1.4290
G01 X1.4286 Y-1.4115
G01 X1.4625 Y-1.3974
G01 X1.4977 Y-1.3866
G01 X1.5338 Y-1.3793
G01 X1.5704 Y-1.3755
G01 X1.5900 Y-1.3750
G01 X24.5900 Y-1.3750
G01 X24.6096 Y-1.3755
G01 X24.6438 Y-1.3789
G01 X24.6823 Y-1.3866
G01 X24.7175 Y-1.3974
G01 X24.7492 Y-1.4105
G01 X24.7817 Y-1.4277
G01 X24.8144 Y-1.4495
G01 X24.8427 Y-1.4730
G01 X24.8670 Y-1.4973
G01 X24.8905 Y-1.5256
G01 X24.9123 Y-1.5583
G01 X24.9295 Y-1.5908
G01 X24.9435 Y-1.6248
G01 X24.9534 Y-1.6577
G01 X24.9611 Y-1.6962
G01 X24.9645 Y-1.7304
G01 X24.9650 Y-1.7500
G01 X24.9650 Y-15.7500
G01 X24.9645 Y-15.7696
G01 X24.9611 Y-15.8038
G01 X24.9534 Y-15.8423
G01 X24.9435 Y-15.8752
G01 X24.9295 Y-15.9092
G01 X24.9123 Y-15.9417
G01 X24.8905 Y-15.9744
G01 X24.8670 Y-16.0027
G01 X24.8409 Y-16.0287
G01 X24.8144 Y-16.0505
G01 X24.7817 Y-16.0723
G01 X24.7514 Y-16.0885
G01 X24.7175 Y-16.1026
G01 X24.6823 Y-16.1134
G01 X24.6438 Y-16.1211
G01 X24.6096 Y-16.1245
G01 X24.5900 Y-16.1250
G01 X1.5900 Y-16.1250
G01 X1.5704 Y-16.1245
G01 X1.5362 Y-16.1211
G01 X1.4977 Y-16.1134
G01 X1.4625 Y-16.1026
G01 X1.4308 Y-16.0895
G01 X1.3983 Y-16.0723
G01 X1.3656 Y-16.0505
G01 X1.3373 Y-16.0270
G01 X1.3130 Y-16.0027
G01 X1.2895 Y-15.9744
G01 X1.2677 Y-15.9417
G01 X1.2505 Y-15.9092
G01 X1.2374 Y-15.8775
G01 X1.2266 Y-15.8423
G01 X1.2189 Y-15.8038
G01 X1.2155 Y-15.7696
G01 X1.2150 Y-15.7500
G01 X1.2150 Y-1.7500
G00 X1.2150 Y-1.7500
G01 F40.00
G01 Z-1.8000
G01 F100.00
G01 X1.2155 Y-1.7304
G01 X1.2189 Y-1.6962
G01 X1.2260 Y-1.6601
G01 X1.2365 Y-1.6248
G01 X1.2505 Y-1.5908
G01 X1.2677 Y-1.5583
G01 X1.2881 Y-1.5276
G01 X1.3113 Y-1.4991
G01 X1.3373 Y-1.4730
G01 X1.3656 Y-1.4495
G01 X1.3962 Y-1.4290
G01 X1.4286 Y-1.4115
G01 X1.4625 Y-1.3974
G01 X1.4977 Y-1.3866
G01 X1.5338 Y-1.3793
G01 X1.5704 Y-1.3755
G01 X1.5900 Y-1.3750
G01 X24.5900 Y-1.3750
G01 X24.6096 Y-1.3755
G01 X24.6438 Y-1.3789
G01 X24.6823 Y-1.3866
G01 X24.7175 Y-1.3974
G01 X24.7492 Y-1.4105
G01 X24.7817 Y-1.4277
G01 X24.8144 Y-1.4495
G01 X24.8427 Y-1.4730
G01 X24.8670 Y-1.4973
G01 X24.8905 Y-1.5256
G01 X24.9123 Y-1.5583
G01 X24.9295 Y-1.5908
G01 X24.9435 Y-1.6248
G01 X24.9534 Y-1.6577
G01 X24.9611 Y-1.6962
G01 X24.9645 Y-1.7304
G01 X24.9650 Y-1.7500
G01 X24.9650 Y-15.7500
G01 X24.9645 Y-15.7696
G01 X24.9611 Y-15.8038
G01 X24.9534 Y-15.8423
G01 X24.9435 Y-15.8752
G01 X24.9295 Y-15.9092
G01 X24.9123 Y-15.9417
G01 X24.8905 Y-15.9744
G01 X24.8670 Y-16.0027
G01 X24.8409 Y-16.0287
G01 X24.8144 Y-16.0505
G01 X24.7817 Y-16.0723
G01 X24.7514 Y-16.0885
G01 X24.7175 Y-16.1026
G01 X24.6823 Y-16.1134
G01 X24.6438 Y-16.1211
G01 X24.6096 Y-16.1245
G01 X24.5900 Y-16.1250
G01 X1.5900 Y-16.1250
G01 X1.5704 Y-16.1245
G01 X1.5362 Y-16.1211
G01 X1.4977 Y-16.1134
G01 X1.4625 Y-16.1026
G01 X1.4308 Y-16.0895
G01 X1.3983 Y-16.0723
G01 X1.3656 Y-16.0505
G01 X1.3373 Y-16.0270
G01 X1.3130 Y-16.0027
G01 X1.2895 Y-15.9744
G01 X1.2677 Y-15.9417
G01 X1.2505 Y-15.9092
G01 X1.2374 Y-15.8775
G01 X1.2266 Y-15.8423
G01 X1.2189 Y-15.8038
G01 X1.2155 Y-15.7696
G01 X1.2150 Y-15.7500
G01 X1.2150 Y-1.7500
G00 Z2.0000
M05
G00 Z2.0000
G00 Z25.00


