(G-CODE GENERATED BY FLATCAM v8.994 - www.flatcam.org - Version Date: 2020/11/7)

(Name: Modulo LIFI-PTH.drl_cnc)
(Type: G-code from Geometry)
(Units: MM)

(Created on Monday, 12 January 2026 at 11:40)

(This preprocessor is used with a ISEL CNC router.)


(TOOLS DIAMETER: )
(Tool: 1 -> Dia: 0.8)
(Tool: 2 -> Dia: 1.0)

(FEEDRATE Z: )
(Tool: 1 -> Feedrate: 60.0)
(Tool: 2 -> Feedrate: 60.0)

(FEEDRATE RAPIDS: )
(Tool: 1 -> Feedrate Rapids: 1500)
(Tool: 2 -> Feedrate Rapids: 1500)

(Z_CUT: )
(Tool: 1 -> Z_Cut: -1.9)
(Tool: 2 -> Z_Cut: -1.9)

(Tools Offset: )
(Tool: 2 -> Offset Z: 0.0)
(Tool: 1 -> Offset Z: 0.0)

(Z_MOVE: )
(Tool: 1 -> Z_Move: 2)
(Tool: 2 -> Z_Move: 2)

(Z Toolchange: 25.0 mm)
(X,Y Toolchange: 0.0000, 0.0000 mm)
(Z Start: None mm)
(Z End: 2.5 mm)
(X,Y End: None mm)
(Steps per circle: 64)
(Steps per circle: 64)
(Preprocessor Excellon: ISEL_CNC)

(X range:   10.1600 ...   21.2000  mm)
(Y range:   -5.1000 ...   -4.1000  mm)

(Spindle Speed: 1000 RPM)
G71
G90
G94


G01 F60.00

M05       
T1
M06
(MSG, Change to Tool Dia = 0.8000 ||| Total drills for tool T1 = 5)
M01
G01 F60.00
M03 S1000
G00 X18.3000 Y-4.6000
G01 Z-1.9000
G01 Z0
G00 Z2.0000
G00 X18.3000 Y-4.6000
G01 Z-1.9000
G01 Z0
G00 Z2.0000
G00 X20.8000 Y-4.6000
G01 Z-1.9000
G01 Z0
G00 Z2.0000
G00 X15.7400 Y-4.6000
G01 Z-1.9000
G01 Z0
G00 Z2.0000
G00 X13.2000 Y-4.6000
G01 Z-1.9000
G01 Z0
G00 Z2.0000
G00 X10.6600 Y-4.6000
G01 Z-1.9000
G01 Z0
G00 Z2.0000
M05
G00 Z2.50


