(G-CODE GENERATED BY FLATCAM v8.994 - www.flatcam.org - Version Date: 2020/11/7)

(Name: Modulo LIFI-F_Cu.gbr_ncc_cnc)
(Type: G-code from Geometry)
(Units: MM)

(Created on Monday, 12 January 2026 at 11:37)

(This preprocessor is the default preprocessor used by FlatCAM.)
(It is made to work with MACH3 compatible motion controllers.)

(TOOL DIAMETER: 0.2212 mm)
(Feedrate_XY: 100.0 mm/min)
(Feedrate_Z: 40.0 mm/min)
(Feedrate rapids 1500.0 mm/min)

(Z_Cut: -0.0601 mm)
(Z_Move: 2.0 mm)
(Z Start: None mm)
(Z End: 25.0 mm)
(X,Y End: None mm)
(Steps per circle: 64)
(Preprocessor Geometry: default)

(X range:    1.2011 ...   24.9789  mm)
(Y range:  -16.1389 ...   -1.3611  mm)

(Spindle Speed: 1000.0 RPM)
G21
G90
G94

G01 F100.00

M5
G00 Z15.0000
G00 X0.0000 Y0.0000
T3
M6    
(MSG, Change to Tool Dia = 0.2212)
M0
G00 Z15.0000

M03 S1000.0
G01 F100.00
G00 X1.6872 Y-2.2561
G01 F40.00
G01 Z-0.0601
G01 F100.00
G01 X1.6802 Y-2.2834
G01 X1.6771 Y-2.2986
G01 X1.6748 Y-2.3129
G01 X1.6728 Y-2.3283
G01 X1.6714 Y-2.3427
G01 X1.6705 Y-2.3582
G01 X1.6702 Y-2.3745
G01 X1.6703 Y-15.1337
G01 X1.6709 Y-15.1492
G01 X1.6720 Y-15.1636
G01 X1.6737 Y-15.1791
G01 X1.6757 Y-15.1934
G01 X1.6798 Y-15.2148
G01 X1.6912 Y-15.2673
G01 X1.6955 Y-15.2849
G01 X1.6994 Y-15.2987
G01 X1.7041 Y-15.3132
G01 X1.7136 Y-15.3382
G01 X1.7250 Y-15.3634
G01 X1.7377 Y-15.3870
G01 X1.7455 Y-15.4001
G01 X1.7544 Y-15.4137
G01 X1.7632 Y-15.4261
G01 X1.7731 Y-15.4391
G01 X1.7834 Y-15.4515
G01 X1.8298 Y-15.5050
G01 X1.8452 Y-15.5219
G01 X1.8649 Y-15.5410
G01 X1.8772 Y-15.5516
G01 X1.8889 Y-15.5611
G01 X1.9003 Y-15.5697
G01 X1.9127 Y-15.5784
G01 X1.9369 Y-15.5935
G01 X1.9535 Y-15.6027
G01 X1.9688 Y-15.6102
G01 X1.9861 Y-15.6179
G01 X2.0030 Y-15.6245
G01 X2.0263 Y-15.6322
G01 X2.1022 Y-15.6545
G01 X2.1288 Y-15.6609
G01 X2.1430 Y-15.6636
G01 X2.1583 Y-15.6660
G01 X2.1864 Y-15.6688
G01 X2.2136 Y-15.6698
G01 X23.9683 Y-15.6698
G01 X23.9837 Y-15.6694
G01 X23.9992 Y-15.6684
G01 X24.0172 Y-15.6666
G01 X24.0316 Y-15.6645
G01 X24.0539 Y-15.6604
G01 X24.1073 Y-15.6488
G01 X24.1230 Y-15.6450
G01 X24.1506 Y-15.6368
G01 X24.1649 Y-15.6317
G01 X24.1782 Y-15.6264
G01 X24.2034 Y-15.6150
G01 X24.2270 Y-15.6023
G01 X24.2401 Y-15.5945
G01 X24.2537 Y-15.5856
G01 X24.2661 Y-15.5768
G01 X24.2791 Y-15.5669
G01 X24.2915 Y-15.5566
G01 X24.3450 Y-15.5102
G01 X24.3619 Y-15.4948
G01 X24.3725 Y-15.4841
G01 X24.3835 Y-15.4722
G01 X24.4011 Y-15.4511
G01 X24.4097 Y-15.4397
G01 X24.4184 Y-15.4273
G01 X24.4335 Y-15.4031
G01 X24.4448 Y-15.3823
G01 X24.4545 Y-15.3617
G01 X24.4638 Y-15.3388
G01 X24.4712 Y-15.3173
G01 X24.4930 Y-15.2430
G01 X24.4984 Y-15.2228
G01 X24.5018 Y-15.2068
G01 X24.5046 Y-15.1916
G01 X24.5066 Y-15.1772
G01 X24.5082 Y-15.1618
G01 X24.5094 Y-15.1437
G01 X24.5098 Y-15.1255
G01 X24.5098 Y-14.6041
G01 X24.5090 Y-14.5792
G01 X24.5067 Y-14.5536
G01 X24.5037 Y-14.5328
G01 X24.4988 Y-14.5085
G01 X24.4813 Y-14.4398
G01 X24.4755 Y-14.4192
G01 X24.4682 Y-14.3981
G01 X24.4596 Y-14.3766
G01 X24.4501 Y-14.3564
G01 X24.4386 Y-14.3350
G01 X24.4270 Y-14.3160
G01 X24.4154 Y-14.2991
G01 X24.4014 Y-14.2807
G01 X24.3869 Y-14.2637
G01 X24.3722 Y-14.2481
G01 X24.3174 Y-14.1934
G01 X24.3006 Y-14.1780
G01 X24.2834 Y-14.1638
G01 X24.3073 Y-14.1433
G01 X24.3379 Y-14.1191
G01 X24.3520 Y-14.1065
G01 X24.3651 Y-14.0939
G01 X24.3812 Y-14.0766
G01 X24.3946 Y-14.0606
G01 X24.4072 Y-14.0439
G01 X24.4215 Y-14.0230
G01 X24.4325 Y-14.0052
G01 X24.4426 Y-13.9870
G01 X24.4518 Y-13.9682
G01 X24.4600 Y-13.9490
G01 X24.4694 Y-13.9232
G01 X24.4787 Y-13.8922
G01 X24.4899 Y-13.8598
G01 X24.4957 Y-13.8398
G01 X24.5015 Y-13.8149
G01 X24.5059 Y-13.7886
G01 X24.5085 Y-13.7632
G01 X24.5096 Y-13.7378
G01 X24.5098 Y-13.3341
G01 X24.5090 Y-13.3092
G01 X24.5079 Y-13.2941
G01 X24.5063 Y-13.2798
G01 X24.5018 Y-13.2525
G01 X24.4970 Y-13.2311
G01 X24.4794 Y-13.1626
G01 X24.4723 Y-13.1395
G01 X24.4635 Y-13.1160
G01 X24.4545 Y-13.0956
G01 X24.4436 Y-13.0740
G01 X24.4324 Y-13.0546
G01 X24.4187 Y-13.0337
G01 X24.4042 Y-13.0143
G01 X24.3881 Y-12.9951
G01 X24.3735 Y-12.9795
G01 X24.3174 Y-12.9234
G01 X24.3006 Y-12.9080
G01 X24.2834 Y-12.8938
G01 X24.3073 Y-12.8733
G01 X24.3379 Y-12.8491
G01 X24.3520 Y-12.8365
G01 X24.3651 Y-12.8239
G01 X24.3812 Y-12.8066
G01 X24.3946 Y-12.7906
G01 X24.4072 Y-12.7739
G01 X24.4215 Y-12.7530
G01 X24.4325 Y-12.7352
G01 X24.4426 Y-12.7170
G01 X24.4502 Y-12.7017
G01 X24.4586 Y-12.6826
G01 X24.4638 Y-12.6693
G01 X24.4688 Y-12.6550
G01 X24.4787 Y-12.6222
G01 X24.4881 Y-12.5953
G01 X24.4952 Y-12.5716
G01 X24.5011 Y-12.5468
G01 X24.5056 Y-12.5205
G01 X24.5083 Y-12.4951
G01 X24.5096 Y-12.4678
G01 X24.5098 Y-12.0641
G01 X24.5094 Y-12.0469
G01 X24.5084 Y-12.0307
G01 X24.5070 Y-12.0155
G01 X24.5048 Y-11.9994
G01 X24.5022 Y-11.9844
G01 X24.4974 Y-11.9630
G01 X24.4806 Y-11.8971
G01 X24.4735 Y-11.8731
G01 X24.4652 Y-11.8503
G01 X24.4565 Y-11.8297
G01 X24.4454 Y-11.8073
G01 X24.4334 Y-11.7862
G01 X24.4198 Y-11.7652
G01 X24.4065 Y-11.7472
G01 X24.3899 Y-11.7271
G01 X24.3735 Y-11.7095
G01 X24.3174 Y-11.6534
G01 X24.3006 Y-11.6380
G01 X24.2834 Y-11.6238
G01 X24.3073 Y-11.6033
G01 X24.3379 Y-11.5791
G01 X24.3520 Y-11.5665
G01 X24.3651 Y-11.5539
G01 X24.3812 Y-11.5366
G01 X24.3946 Y-11.5206
G01 X24.4072 Y-11.5039
G01 X24.4215 Y-11.4830
G01 X24.4325 Y-11.4652
G01 X24.4426 Y-11.4470
G01 X24.4502 Y-11.4317
G01 X24.4586 Y-11.4126
G01 X24.4638 Y-11.3993
G01 X24.4688 Y-11.3850
G01 X24.4787 Y-11.3522
G01 X24.4881 Y-11.3253
G01 X24.4952 Y-11.3016
G01 X24.5011 Y-11.2768
G01 X24.5051 Y-11.2543
G01 X24.5080 Y-11.2298
G01 X24.5094 Y-11.2043
G01 X24.5098 Y-11.1859
G01 X24.5096 Y-10.7816
G01 X24.5087 Y-10.7645
G01 X24.5073 Y-10.7483
G01 X24.5053 Y-10.7332
G01 X24.5027 Y-10.7171
G01 X24.4977 Y-10.6939
G01 X24.4813 Y-10.6298
G01 X24.4749 Y-10.6074
G01 X24.4666 Y-10.5838
G01 X24.4573 Y-10.5614
G01 X24.4463 Y-10.5390
G01 X24.4334 Y-10.5162
G01 X24.4198 Y-10.4952
G01 X24.4065 Y-10.4772
G01 X24.3899 Y-10.4571
G01 X24.3735 Y-10.4395
G01 X24.3174 Y-10.3834
G01 X24.3006 Y-10.3680
G01 X24.2839 Y-10.3543
G01 X24.3001 Y-10.3405
G01 X24.3567 Y-10.2890
G01 X24.3717 Y-10.2745
G01 X24.3847 Y-10.2606
G01 X24.4011 Y-10.2411
G01 X24.4169 Y-10.2197
G01 X24.4308 Y-10.1982
G01 X24.4439 Y-10.1750
G01 X24.4515 Y-10.1598
G01 X24.4581 Y-10.1450
G01 X24.4638 Y-10.1310
G01 X24.4701 Y-10.1131
G01 X24.4765 Y-10.0923
G01 X24.4956 Y-10.0211
G01 X24.5009 Y-9.9989
G01 X24.5052 Y-9.9749
G01 X24.5082 Y-9.9495
G01 X24.5096 Y-9.9251
G01 X24.5096 Y-9.9032
G01 X24.3429 Y-2.7658
G01 X24.3531 Y-2.7561
G01 X24.3637 Y-2.7454
G01 X24.3815 Y-2.7255
G01 X24.3984 Y-2.7039
G01 X24.4134 Y-2.6819
G01 X24.4256 Y-2.6616
G01 X24.4362 Y-2.6415
G01 X24.4732 Y-2.5607
G01 X24.4811 Y-2.5414
G01 X24.4886 Y-2.5199
G01 X24.4945 Y-2.4998
G01 X24.5001 Y-2.4758
G01 X24.5040 Y-2.4533
G01 X24.5068 Y-2.4299
G01 X24.5082 Y-2.4090
G01 X24.5085 Y-2.3862
G01 X24.5074 Y-2.3615
G01 X24.5048 Y-2.3361
G01 X24.4933 Y-2.2567
G01 X24.4904 Y-2.2407
G01 X24.4872 Y-2.2260
G01 X24.4797 Y-2.1984
G01 X24.4749 Y-2.1841
G01 X24.4700 Y-2.1707
G01 X24.4592 Y-2.1454
G01 X24.4530 Y-2.1326
G01 X24.4459 Y-2.1192
G01 X24.4377 Y-2.1052
G01 X24.4286 Y-2.0908
G01 X24.4178 Y-2.0753
G01 X24.4080 Y-2.0624
G01 X24.3959 Y-2.0478
G01 X24.3495 Y-1.9942
G01 X24.3374 Y-1.9809
G01 X24.3274 Y-1.9707
G01 X24.3165 Y-1.9603
G01 X24.3043 Y-1.9496
G01 X24.2926 Y-1.9401
G01 X24.2696 Y-1.9232
G01 X24.2570 Y-1.9149
G01 X24.2431 Y-1.9065
G01 X24.2265 Y-1.8973
G01 X24.2112 Y-1.8898
G01 X24.1939 Y-1.8821
G01 X24.1770 Y-1.8755
G01 X24.1537 Y-1.8678
G01 X24.0778 Y-1.8455
G01 X24.0512 Y-1.8391
G01 X24.0370 Y-1.8364
G01 X24.0217 Y-1.8340
G01 X23.9936 Y-1.8312
G01 X23.9664 Y-1.8302
G01 X23.7894 Y-1.8302
G01 X23.7746 Y-1.8305
G01 X23.7468 Y-1.8320
G01 X23.7309 Y-1.8334
G01 X23.7122 Y-1.8358
G01 X23.6918 Y-1.8393
G01 X23.6716 Y-1.8439
G01 X23.6517 Y-1.8495
G01 X23.6320 Y-1.8560
G01 X23.6118 Y-1.8639
G01 X23.5441 Y-1.8929
G01 X23.5277 Y-1.9004
G01 X23.5150 Y-1.9068
G01 X23.5017 Y-1.9141
G01 X23.4771 Y-1.9293
G01 X23.4615 Y-1.9206
G01 X23.4482 Y-1.9139
G01 X23.4103 Y-1.8959
G01 X23.3931 Y-1.8885
G01 X23.3783 Y-1.8827
G01 X23.3371 Y-1.8680
G01 X23.3218 Y-1.8632
G01 X23.3075 Y-1.8592
G01 X23.2677 Y-1.8492
G01 X23.2522 Y-1.8457
G01 X23.2337 Y-1.8424
G01 X23.1922 Y-1.8362
G01 X23.1774 Y-1.8345
G01 X23.1614 Y-1.8331
G01 X23.1178 Y-1.8309
G01 X23.1010 Y-1.8305
G01 X5.7980 Y-1.8305
G01 X5.7784 Y-1.8311
G01 X5.7273 Y-1.8339
G01 X5.7068 Y-1.8362
G01 X5.6681 Y-1.8420
G01 X5.6524 Y-1.8446
G01 X5.6349 Y-1.8483
G01 X5.5915 Y-1.8592
G01 X5.5717 Y-1.8648
G01 X5.5234 Y-1.8818
G01 X5.5077 Y-1.8878
G01 X5.4887 Y-1.8959
G01 X5.4508 Y-1.9139
G01 X5.4341 Y-1.9224
G01 X5.4179 Y-1.9317
G01 X5.3812 Y-1.9538
G01 X5.3600 Y-1.9680
G01 X5.3462 Y-1.9552
G01 X5.3302 Y-1.9418
G01 X5.3135 Y-1.9291
G01 X5.2963 Y-1.9174
G01 X5.2785 Y-1.9065
G01 X5.2602 Y-1.8965
G01 X5.2414 Y-1.8874
G01 X5.2240 Y-1.8800
G01 X5.2080 Y-1.8740
G01 X5.1900 Y-1.8680
G01 X5.1184 Y-1.8470
G01 X5.0982 Y-1.8416
G01 X5.0786 Y-1.8375
G01 X5.0589 Y-1.8342
G01 X5.0390 Y-1.8320
G01 X5.0191 Y-1.8306
G01 X5.0009 Y-1.8302
G01 X2.2082 Y-1.8303
G01 X2.1908 Y-1.8309
G01 X2.1727 Y-1.8323
G01 X2.1565 Y-1.8342
G01 X2.1386 Y-1.8371
G01 X2.0653 Y-1.8529
G01 X2.0469 Y-1.8578
G01 X2.0268 Y-1.8641
G01 X2.0097 Y-1.8704
G01 X1.9921 Y-1.8777
G01 X1.9766 Y-1.8850
G01 X1.9597 Y-1.8939
G01 X1.9439 Y-1.9030
G01 X1.9279 Y-1.9133
G01 X1.9139 Y-1.9232
G01 X1.8973 Y-1.9361
G01 X1.8321 Y-1.9924
G01 X1.8209 Y-2.0026
G01 X1.8107 Y-2.0126
G01 X1.7965 Y-2.0278
G01 X1.7830 Y-2.0437
G01 X1.7703 Y-2.0603
G01 X1.7584 Y-2.0775
G01 X1.7474 Y-2.0952
G01 X1.7373 Y-2.1135
G01 X1.7282 Y-2.1322
G01 X1.7200 Y-2.1514
G01 X1.7140 Y-2.1674
G01 X1.7088 Y-2.1827
G01 X1.6872 Y-2.2561
G01 X1.8358 Y-2.2997
G01 X1.8315 Y-2.3163
G01 X1.8280 Y-2.3349
G01 X1.8259 Y-2.3537
G01 X1.8251 Y-2.3745
G01 X1.8252 Y-15.1337
G01 X1.8264 Y-15.1526
G01 X1.8291 Y-15.1713
G01 X1.8450 Y-15.2445
G01 X1.8508 Y-15.2635
G01 X1.8569 Y-15.2795
G01 X1.8635 Y-15.2941
G01 X1.8715 Y-15.3092
G01 X1.8821 Y-15.3261
G01 X1.8956 Y-15.3443
G01 X1.9544 Y-15.4120
G01 X1.9665 Y-15.4240
G01 X1.9814 Y-15.4369
G01 X1.9942 Y-15.4465
G01 X2.0107 Y-15.4573
G01 X2.0222 Y-15.4638
G01 X2.0340 Y-15.4698
G01 X2.0460 Y-15.4751
G01 X2.0583 Y-15.4798
G01 X2.0727 Y-15.4845
G01 X2.1415 Y-15.5047
G01 X2.1599 Y-15.5093
G01 X2.1785 Y-15.5125
G01 X2.1974 Y-15.5144
G01 X2.2145 Y-15.5149
G01 X23.9700 Y-15.5149
G01 X23.9889 Y-15.5139
G01 X24.0077 Y-15.5116
G01 X24.0219 Y-15.5089
G01 X24.0753 Y-15.4972
G01 X24.0882 Y-15.4940
G01 X24.1009 Y-15.4901
G01 X24.1134 Y-15.4856
G01 X24.1281 Y-15.4794
G01 X24.1434 Y-15.4717
G01 X24.1549 Y-15.4651
G01 X24.1684 Y-15.4563
G01 X24.1791 Y-15.4485
G01 X24.1908 Y-15.4389
G01 X24.2436 Y-15.3931
G01 X24.2567 Y-15.3810
G01 X24.2659 Y-15.3715
G01 X24.2745 Y-15.3615
G01 X24.2826 Y-15.3512
G01 X24.2902 Y-15.3404
G01 X24.2973 Y-15.3293
G01 X24.3038 Y-15.3178
G01 X24.3114 Y-15.3026
G01 X24.3165 Y-15.2904
G01 X24.3239 Y-15.2692
G01 X24.3442 Y-15.2003
G01 X24.3479 Y-15.1863
G01 X24.3509 Y-15.1713
G01 X24.3528 Y-15.1588
G01 X24.3541 Y-15.1463
G01 X24.3549 Y-15.1300
G01 X24.3549 Y-14.6041
G01 X24.3543 Y-14.5861
G01 X24.3522 Y-14.5663
G01 X24.3493 Y-14.5495
G01 X24.3304 Y-14.4746
G01 X24.3266 Y-14.4622
G01 X24.3223 Y-14.4500
G01 X24.3174 Y-14.4381
G01 X24.3103 Y-14.4230
G01 X24.3027 Y-14.4093
G01 X24.2937 Y-14.3953
G01 X24.2846 Y-14.3826
G01 X24.2764 Y-14.3726
G01 X24.2634 Y-14.3583
G01 X24.2113 Y-14.3062
G01 X24.1946 Y-14.2911
G01 X24.1842 Y-14.2829
G01 X24.1757 Y-14.2768
G01 X24.1591 Y-14.2662
G01 X24.1392 Y-14.2557
G01 X24.1297 Y-14.2513
G01 X24.1174 Y-14.2464
G01 X24.1050 Y-14.2422
G01 X24.0923 Y-14.2385
G01 X24.0112 Y-14.2206
G01 X23.9917 Y-14.2173
G01 X23.9786 Y-14.2159
G01 X23.9654 Y-14.2151
G01 X23.9523 Y-14.2150
G01 X23.9391 Y-14.2155
G01 X23.9260 Y-14.2167
G01 X23.9129 Y-14.2186
G01 X23.8904 Y-14.2233
G01 X23.8904 Y-14.1081
G01 X23.9114 Y-14.1116
G01 X23.9311 Y-14.1136
G01 X23.9509 Y-14.1141
G01 X23.9679 Y-14.1133
G01 X23.9810 Y-14.1120
G01 X24.0097 Y-14.1079
G01 X24.0385 Y-14.1054
G01 X24.0516 Y-14.1037
G01 X24.0645 Y-14.1013
G01 X24.0747 Y-14.0990
G01 X24.0963 Y-14.0926
G01 X24.1123 Y-14.0866
G01 X24.1345 Y-14.0768
G01 X24.1519 Y-14.0673
G01 X24.1685 Y-14.0567
G01 X24.1843 Y-14.0448
G01 X24.2092 Y-14.0234
G01 X24.2371 Y-14.0015
G01 X24.2498 Y-13.9901
G01 X24.2591 Y-13.9807
G01 X24.2679 Y-13.9709
G01 X24.2762 Y-13.9606
G01 X24.2840 Y-13.9500
G01 X24.2938 Y-13.9353
G01 X24.3006 Y-13.9240
G01 X24.3069 Y-13.9124
G01 X24.3125 Y-13.9005
G01 X24.3175 Y-13.8883
G01 X24.3231 Y-13.8722
G01 X24.3313 Y-13.8445
G01 X24.3422 Y-13.8135
G01 X24.3475 Y-13.7945
G01 X24.3507 Y-13.7789
G01 X24.3531 Y-13.7620
G01 X24.3543 Y-13.7489
G01 X24.3549 Y-13.7304
G01 X24.3549 Y-13.3341
G01 X24.3547 Y-13.3227
G01 X24.3538 Y-13.3095
G01 X24.3517 Y-13.2925
G01 X24.3487 Y-13.2768
G01 X24.3286 Y-13.1984
G01 X24.3233 Y-13.1825
G01 X24.3174 Y-13.1681
G01 X24.3103 Y-13.1530
G01 X24.3027 Y-13.1393
G01 X24.2958 Y-13.1284
G01 X24.2885 Y-13.1178
G01 X24.2806 Y-13.1076
G01 X24.2722 Y-13.0977
G01 X24.2620 Y-13.0870
G01 X24.2045 Y-13.0298
G01 X24.1967 Y-13.0229
G01 X24.1864 Y-13.0146
G01 X24.1703 Y-13.0031
G01 X24.1509 Y-12.9916
G01 X24.1332 Y-12.9829
G01 X24.1210 Y-12.9778
G01 X24.1112 Y-12.9742
G01 X24.0896 Y-12.9678
G01 X24.0112 Y-12.9506
G01 X23.9890 Y-12.9469
G01 X23.9786 Y-12.9459
G01 X23.9654 Y-12.9451
G01 X23.9523 Y-12.9450
G01 X23.9391 Y-12.9455
G01 X23.9260 Y-12.9467
G01 X23.9129 Y-12.9486
G01 X23.8904 Y-12.9533
G01 X23.8904 Y-12.8381
G01 X23.9114 Y-12.8416
G01 X23.9311 Y-12.8436
G01 X23.9481 Y-12.8441
G01 X23.9679 Y-12.8433
G01 X23.9810 Y-12.8420
G01 X24.0097 Y-12.8379
G01 X24.0385 Y-12.8354
G01 X24.0516 Y-12.8337
G01 X24.0619 Y-12.8319
G01 X24.0747 Y-12.8290
G01 X24.0963 Y-12.8226
G01 X24.1123 Y-12.8166
G01 X24.1345 Y-12.8068
G01 X24.1519 Y-12.7973
G01 X24.1685 Y-12.7867
G01 X24.1843 Y-12.7748
G01 X24.2092 Y-12.7534
G01 X24.2371 Y-12.7315
G01 X24.2498 Y-12.7201
G01 X24.2591 Y-12.7107
G01 X24.2679 Y-12.7009
G01 X24.2762 Y-12.6906
G01 X24.2840 Y-12.6800
G01 X24.2938 Y-12.6653
G01 X24.3006 Y-12.6540
G01 X24.3069 Y-12.6424
G01 X24.3125 Y-12.6305
G01 X24.3175 Y-12.6183
G01 X24.3231 Y-12.6022
G01 X24.3313 Y-12.5745
G01 X24.3422 Y-12.5435
G01 X24.3475 Y-12.5245
G01 X24.3502 Y-12.5116
G01 X24.3527 Y-12.4958
G01 X24.3543 Y-12.4789
G01 X24.3548 Y-12.4641
G01 X24.3549 Y-12.0641
G01 X24.3540 Y-12.0423
G01 X24.3522 Y-12.0263
G01 X24.3487 Y-12.0068
G01 X24.3286 Y-11.9284
G01 X24.3233 Y-11.9125
G01 X24.3174 Y-11.8981
G01 X24.3103 Y-11.8830
G01 X24.3027 Y-11.8693
G01 X24.2958 Y-11.8584
G01 X24.2885 Y-11.8478
G01 X24.2806 Y-11.8376
G01 X24.2722 Y-11.8277
G01 X24.2620 Y-11.8170
G01 X24.2045 Y-11.7598
G01 X24.1967 Y-11.7529
G01 X24.1864 Y-11.7446
G01 X24.1703 Y-11.7331
G01 X24.1509 Y-11.7216
G01 X24.1332 Y-11.7129
G01 X24.1210 Y-11.7078
G01 X24.1112 Y-11.7042
G01 X24.0896 Y-11.6978
G01 X24.0112 Y-11.6806
G01 X23.9890 Y-11.6769
G01 X23.9786 Y-11.6759
G01 X23.9654 Y-11.6751
G01 X23.9523 Y-11.6750
G01 X23.9391 Y-11.6755
G01 X23.9260 Y-11.6767
G01 X23.9129 Y-11.6786
G01 X23.8904 Y-11.6833
G01 X23.8904 Y-11.5681
G01 X23.9114 Y-11.5716
G01 X23.9311 Y-11.5736
G01 X23.9481 Y-11.5741
G01 X23.9679 Y-11.5733
G01 X23.9810 Y-11.5720
G01 X24.0097 Y-11.5679
G01 X24.0385 Y-11.5654
G01 X24.0516 Y-11.5637
G01 X24.0645 Y-11.5613
G01 X24.0747 Y-11.5590
G01 X24.0963 Y-11.5526
G01 X24.1123 Y-11.5466
G01 X24.1345 Y-11.5368
G01 X24.1495 Y-11.5287
G01 X24.1662 Y-11.5182
G01 X24.1822 Y-11.5065
G01 X24.2092 Y-11.4834
G01 X24.2350 Y-11.4632
G01 X24.2450 Y-11.4546
G01 X24.2564 Y-11.4435
G01 X24.2654 Y-11.4338
G01 X24.2738 Y-11.4237
G01 X24.2818 Y-11.4131
G01 X24.2923 Y-11.3977
G01 X24.2993 Y-11.3864
G01 X24.3056 Y-11.3749
G01 X24.3114 Y-11.3630
G01 X24.3165 Y-11.3509
G01 X24.3220 Y-11.3359
G01 X24.3313 Y-11.3045
G01 X24.3410 Y-11.2772
G01 X24.3466 Y-11.2582
G01 X24.3495 Y-11.2453
G01 X24.3523 Y-11.2286
G01 X24.3538 Y-11.2154
G01 X24.3547 Y-11.1995
G01 X24.3549 Y-11.1859
G01 X24.3549 Y-10.7941
G01 X24.3540 Y-10.7723
G01 X24.3522 Y-10.7563
G01 X24.3487 Y-10.7368
G01 X24.3286 Y-10.6584
G01 X24.3233 Y-10.6425
G01 X24.3174 Y-10.6281
G01 X24.3103 Y-10.6130
G01 X24.3027 Y-10.5993
G01 X24.2958 Y-10.5884
G01 X24.2885 Y-10.5778
G01 X24.2806 Y-10.5676
G01 X24.2722 Y-10.5577
G01 X24.2620 Y-10.5470
G01 X24.2045 Y-10.4898
G01 X24.1967 Y-10.4829
G01 X24.1864 Y-10.4746
G01 X24.1703 Y-10.4631
G01 X24.1509 Y-10.4516
G01 X24.1332 Y-10.4429
G01 X24.1210 Y-10.4378
G01 X24.1112 Y-10.4342
G01 X24.0896 Y-10.4278
G01 X24.0112 Y-10.4106
G01 X23.9890 Y-10.4069
G01 X23.9786 Y-10.4059
G01 X23.9654 Y-10.4051
G01 X23.9523 Y-10.4050
G01 X23.9391 Y-10.4055
G01 X23.9260 Y-10.4067
G01 X23.9129 Y-10.4086
G01 X23.8904 Y-10.4133
G01 X23.8904 Y-10.2975
G01 X23.9112 Y-10.3015
G01 X23.9336 Y-10.3039
G01 X23.9534 Y-10.3045
G01 X23.9638 Y-10.3042
G01 X23.9769 Y-10.3032
G01 X23.9946 Y-10.3008
G01 X24.0719 Y-10.2877
G01 X24.0911 Y-10.2831
G01 X24.1100 Y-10.2771
G01 X24.1283 Y-10.2697
G01 X24.1460 Y-10.2609
G01 X24.1630 Y-10.2508
G01 X24.1793 Y-10.2396
G01 X24.1896 Y-10.2314
G01 X24.1981 Y-10.2240
G01 X24.2512 Y-10.1757
G01 X24.2653 Y-10.1618
G01 X24.2740 Y-10.1519
G01 X24.2823 Y-10.1416
G01 X24.2900 Y-10.1310
G01 X24.2972 Y-10.1199
G01 X24.3039 Y-10.1085
G01 X24.3099 Y-10.0968
G01 X24.3154 Y-10.0849
G01 X24.3203 Y-10.0726
G01 X24.3272 Y-10.0512
G01 X24.3484 Y-9.9714
G01 X24.3509 Y-9.9590
G01 X24.3528 Y-9.9465
G01 X24.3541 Y-9.9339
G01 X24.3548 Y-9.9213
G01 X24.3548 Y-9.9068
G01 X24.1863 Y-2.6896
G01 X24.2066 Y-2.6764
G01 X24.2205 Y-2.6665
G01 X24.2328 Y-2.6565
G01 X24.2473 Y-2.6430
G01 X24.2607 Y-2.6285
G01 X24.2730 Y-2.6130
G01 X24.2841 Y-2.5967
G01 X24.2927 Y-2.5819
G01 X24.3007 Y-2.5660
G01 X24.3316 Y-2.4981
G01 X24.3379 Y-2.4823
G01 X24.3421 Y-2.4698
G01 X24.3477 Y-2.4480
G01 X24.3512 Y-2.4286
G01 X24.3526 Y-2.4155
G01 X24.3534 Y-2.4050
G01 X24.3536 Y-2.3853
G01 X24.3529 Y-2.3721
G01 X24.3512 Y-2.3563
G01 X24.3407 Y-2.2833
G01 X24.3371 Y-2.2639
G01 X24.3319 Y-2.2448
G01 X24.3268 Y-2.2297
G01 X24.3192 Y-2.2115
G01 X24.3115 Y-2.1963
G01 X24.2999 Y-2.1770
G01 X24.2924 Y-2.1661
G01 X24.2861 Y-2.1578
G01 X24.2275 Y-2.0900
G01 X24.2135 Y-2.0760
G01 X24.1986 Y-2.0631
G01 X24.1827 Y-2.0513
G01 X24.1693 Y-2.0427
G01 X24.1578 Y-2.0362
G01 X24.1426 Y-2.0286
G01 X24.1279 Y-2.0225
G01 X24.1155 Y-2.0180
G01 X24.0324 Y-1.9936
G01 X24.0139 Y-1.9895
G01 X23.9988 Y-1.9872
G01 X23.9826 Y-1.9856
G01 X23.9673 Y-1.9851
G01 X23.7894 Y-1.9851
G01 X23.7589 Y-1.9864
G01 X23.7412 Y-1.9881
G01 X23.7245 Y-1.9907
G01 X23.7117 Y-1.9935
G01 X23.6991 Y-1.9969
G01 X23.6841 Y-2.0019
G01 X23.6702 Y-2.0074
G01 X23.6042 Y-2.0356
G01 X23.5922 Y-2.0412
G01 X23.5806 Y-2.0474
G01 X23.5669 Y-2.0556
G01 X23.5560 Y-2.0630
G01 X23.5455 Y-2.0709
G01 X23.5325 Y-2.0819
G01 X23.5229 Y-2.0910
G01 X23.5120 Y-2.1026
G01 X23.5011 Y-2.1157
G01 X23.4928 Y-2.1270
G01 X23.4803 Y-2.1171
G01 X23.4436 Y-2.0902
G01 X23.4326 Y-2.0832
G01 X23.3999 Y-2.0635
G01 X23.3827 Y-2.0542
G01 X23.3475 Y-2.0375
G01 X23.3338 Y-2.0315
G01 X23.3234 Y-2.0276
G01 X23.2893 Y-2.0154
G01 X23.2769 Y-2.0114
G01 X23.2328 Y-2.0001
G01 X23.2182 Y-1.9969
G01 X23.1733 Y-1.9899
G01 X23.1584 Y-1.9882
G01 X23.1019 Y-1.9854
G01 X5.7971 Y-1.9854
G01 X5.7517 Y-1.9874
G01 X5.7368 Y-1.9885
G01 X5.6917 Y-1.9950
G01 X5.6770 Y-1.9976
G01 X5.6329 Y-2.0084
G01 X5.6185 Y-2.0125
G01 X5.5738 Y-2.0282
G01 X5.5557 Y-2.0356
G01 X5.5187 Y-2.0530
G01 X5.5048 Y-2.0603
G01 X5.4664 Y-2.0832
G01 X5.4501 Y-2.0939
G01 X5.4150 Y-2.1199
G01 X5.4020 Y-2.1306
G01 X5.3697 Y-2.1598
G01 X5.3419 Y-2.1875
G01 X5.3317 Y-2.1715
G01 X5.3198 Y-2.1557
G01 X5.2610 Y-2.0880
G01 X5.2469 Y-2.0741
G01 X5.2340 Y-2.0631
G01 X5.2212 Y-2.0535
G01 X5.2070 Y-2.0441
G01 X5.1932 Y-2.0362
G01 X5.1780 Y-2.0286
G01 X5.1633 Y-2.0225
G01 X5.1472 Y-2.0169
G01 X5.0757 Y-1.9958
G01 X5.0617 Y-1.9921
G01 X5.0405 Y-1.9880
G01 X5.0180 Y-1.9856
G01 X5.0009 Y-1.9851
G01 X2.2127 Y-1.9851
G01 X2.2000 Y-1.9855
G01 X2.1874 Y-1.9864
G01 X2.1661 Y-1.9895
G01 X2.1020 Y-2.0034
G01 X2.0918 Y-2.0060
G01 X2.0791 Y-2.0099
G01 X2.0580 Y-2.0179
G01 X2.0459 Y-2.0235
G01 X2.0342 Y-2.0296
G01 X2.0251 Y-2.0349
G01 X2.0139 Y-2.0421
G01 X2.0031 Y-2.0498
G01 X1.9927 Y-2.0581
G01 X1.9364 Y-2.1069
G01 X1.9233 Y-2.1190
G01 X1.9141 Y-2.1285
G01 X1.9031 Y-2.1414
G01 X1.8951 Y-2.1519
G01 X1.8876 Y-2.1628
G01 X1.8794 Y-2.1764
G01 X1.8731 Y-2.1880
G01 X1.8675 Y-2.1999
G01 X1.8625 Y-2.2121
G01 X1.8561 Y-2.2308
G01 X1.8358 Y-2.2997
G01 X1.9844 Y-2.3433
G01 X1.9824 Y-2.3510
G01 X1.9810 Y-2.3588
G01 X1.9802 Y-2.3666
G01 X1.9799 Y-2.3745
G01 X1.9799 Y-15.1255
G01 X1.9804 Y-15.1360
G01 X1.9819 Y-15.1464
G01 X1.9943 Y-15.2032
G01 X1.9965 Y-15.2112
G01 X1.9994 Y-15.2190
G01 X2.0054 Y-15.2314
G01 X2.0113 Y-15.2407
G01 X2.0163 Y-15.2473
G01 X2.0657 Y-15.3043
G01 X2.0715 Y-15.3102
G01 X2.0777 Y-15.3156
G01 X2.0842 Y-15.3206
G01 X2.0912 Y-15.3250
G01 X2.1009 Y-15.3301
G01 X2.1137 Y-15.3351
G01 X2.1833 Y-15.3556
G01 X2.1910 Y-15.3576
G01 X2.1988 Y-15.3590
G01 X2.2066 Y-15.3598
G01 X2.2145 Y-15.3601
G01 X23.9681 Y-15.3601
G01 X23.9786 Y-15.3593
G01 X23.9864 Y-15.3581
G01 X24.0432 Y-15.3457
G01 X24.0538 Y-15.3426
G01 X24.0665 Y-15.3372
G01 X24.0761 Y-15.3318
G01 X24.0873 Y-15.3237
G01 X24.1463 Y-15.2724
G01 X24.1538 Y-15.2644
G01 X24.1621 Y-15.2535
G01 X24.1677 Y-15.2440
G01 X24.1733 Y-15.2315
G01 X24.1759 Y-15.2237
G01 X24.1963 Y-15.1541
G01 X24.1986 Y-15.1438
G01 X24.1996 Y-15.1360
G01 X24.2001 Y-15.1255
G01 X24.2001 Y-14.6041
G01 X24.1995 Y-14.5930
G01 X24.1979 Y-14.5821
G01 X24.1815 Y-14.5173
G01 X24.1792 Y-14.5095
G01 X24.1764 Y-14.5020
G01 X24.1730 Y-14.4947
G01 X24.1691 Y-14.4876
G01 X24.1631 Y-14.4787
G01 X24.1580 Y-14.4724
G01 X24.1525 Y-14.4664
G01 X24.1031 Y-14.4170
G01 X24.0950 Y-14.4097
G01 X24.0862 Y-14.4031
G01 X24.0767 Y-14.3975
G01 X24.0668 Y-14.3929
G01 X24.0538 Y-14.3885
G01 X23.9748 Y-14.3713
G01 X23.9611 Y-14.3699
G01 X23.9529 Y-14.3699
G01 X23.9447 Y-14.3704
G01 X23.9311 Y-14.3728
G01 X23.9180 Y-14.3768
G01 X23.8500 Y-14.4022
G01 X23.8400 Y-14.4068
G01 X23.8328 Y-14.4108
G01 X23.8260 Y-14.4155
G01 X23.8195 Y-14.4205
G01 X23.8135 Y-14.4261
G01 X23.8078 Y-14.4321
G01 X23.8027 Y-14.4385
G01 X23.7577 Y-14.4987
G01 X23.7510 Y-14.5101
G01 X23.7466 Y-14.5196
G01 X23.7221 Y-14.5852
G01 X23.6571 Y-14.6721
G01 X23.5702 Y-14.7371
G01 X23.4667 Y-14.7758
G01 X23.4283 Y-14.7799
G01 X21.5218 Y-14.7799
G01 X21.4833 Y-14.7758
G01 X21.3798 Y-14.7371
G01 X21.2929 Y-14.6721
G01 X21.2279 Y-14.5852
G01 X21.1892 Y-14.4817
G01 X21.1851 Y-14.4433
G01 X21.1851 Y-13.8867
G01 X21.1892 Y-13.8483
G01 X21.2279 Y-13.7448
G01 X21.2864 Y-13.6663
G01 X21.3002 Y-13.6447
G01 X21.3039 Y-13.6378
G01 X21.3071 Y-13.6305
G01 X21.3098 Y-13.6231
G01 X21.3119 Y-13.6155
G01 X21.3273 Y-13.5447
G01 X21.3291 Y-13.5338
G01 X21.3299 Y-13.5201
G01 X21.3295 Y-13.5119
G01 X21.3285 Y-13.5037
G01 X21.3269 Y-13.4956
G01 X21.3247 Y-13.4877
G01 X21.2985 Y-13.4170
G01 X21.2955 Y-13.4097
G01 X21.2906 Y-13.4004
G01 X21.2849 Y-13.3915
G01 X21.2279 Y-13.3152
G01 X21.1892 Y-13.2117
G01 X21.1851 Y-13.1733
G01 X21.1851 Y-12.6167
G01 X21.1892 Y-12.5783
G01 X21.2279 Y-12.4748
G01 X21.2864 Y-12.3963
G01 X21.3002 Y-12.3747
G01 X21.3039 Y-12.3678
G01 X21.3071 Y-12.3605
G01 X21.3098 Y-12.3531
G01 X21.3119 Y-12.3455
G01 X21.3279 Y-12.2720
G01 X21.3296 Y-12.2584
G01 X21.3297 Y-12.2446
G01 X21.3280 Y-12.2310
G01 X21.3247 Y-12.2177
G01 X21.2985 Y-12.1470
G01 X21.2955 Y-12.1397
G01 X21.2906 Y-12.1304
G01 X21.2849 Y-12.1215
G01 X21.2279 Y-12.0452
G01 X21.1892 Y-11.9417
G01 X21.1851 Y-11.9033
G01 X21.1851 Y-11.5197
G01 X21.1840 Y-11.5066
G01 X21.1767 Y-11.4634
G01 X21.1751 Y-11.4552
G01 X21.1719 Y-11.4446
G01 X21.1688 Y-11.4369
G01 X21.1651 Y-11.4294
G01 X21.1578 Y-11.4176
G01 X21.1156 Y-11.3585
G01 X21.1086 Y-11.3500
G01 X21.0987 Y-11.3405
G01 X21.0877 Y-11.3323
G01 X21.0807 Y-11.3280
G01 X21.0733 Y-11.3243
G01 X20.9982 Y-11.2943
G01 X20.9850 Y-11.2906
G01 X20.9714 Y-11.2886
G01 X20.9632 Y-11.2883
G01 X20.9550 Y-11.2885
G01 X20.9414 Y-11.2903
G01 X20.8727 Y-11.3035
G01 X20.8595 Y-11.3069
G01 X20.8492 Y-11.3108
G01 X20.8394 Y-11.3157
G01 X20.8301 Y-11.3216
G01 X20.8214 Y-11.3283
G01 X20.7649 Y-11.3821
G01 X20.7595 Y-11.3879
G01 X20.7546 Y-11.3940
G01 X20.7473 Y-11.4050
G01 X20.6920 Y-11.5008
G01 X20.1758 Y-12.0170
G01 X20.0641 Y-12.0815
G01 X19.9395 Y-12.1149
G01 X18.8082 Y-12.1149
G01 X18.7872 Y-12.1159
G01 X18.7764 Y-12.1176
G01 X18.7632 Y-12.1213
G01 X18.6952 Y-12.1466
G01 X18.6855 Y-12.1507
G01 X18.6763 Y-12.1558
G01 X18.6697 Y-12.1601
G01 X18.6202 Y-12.1971
G01 X18.5167 Y-12.2358
G01 X18.4783 Y-12.2399
G01 X16.5718 Y-12.2399
G01 X16.5333 Y-12.2358
G01 X16.4298 Y-12.1971
G01 X16.3824 Y-12.1617
G01 X16.3719 Y-12.1543
G01 X16.3603 Y-12.1472
G01 X16.3478 Y-12.1417
G01 X16.3400 Y-12.1391
G01 X16.2705 Y-12.1187
G01 X16.2576 Y-12.1160
G01 X16.2445 Y-12.1149
G01 X13.4605 Y-12.1149
G01 X13.3359 Y-12.0815
G01 X13.2242 Y-12.0170
G01 X12.6980 Y-11.4908
G01 X12.6335 Y-11.3791
G01 X12.6001 Y-11.2545
G01 X12.6001 Y-8.8245
G01 X12.5998 Y-8.8166
G01 X12.5990 Y-8.8088
G01 X12.5976 Y-8.8010
G01 X12.5851 Y-8.7441
G01 X12.5806 Y-8.7310
G01 X12.5746 Y-8.7186
G01 X12.5687 Y-8.7093
G01 X12.5637 Y-8.7027
G01 X12.5161 Y-8.6478
G01 X12.5065 Y-8.6380
G01 X12.4958 Y-8.6294
G01 X12.4888 Y-8.6250
G01 X12.4816 Y-8.6211
G01 X12.4689 Y-8.6157
G01 X12.3967 Y-8.5944
G01 X12.3890 Y-8.5924
G01 X12.3812 Y-8.5910
G01 X12.3734 Y-8.5902
G01 X12.3655 Y-8.5899
G01 X12.2402 Y-8.5899
G01 X12.1665 Y-8.5782
G01 X12.0776 Y-8.5329
G01 X12.0071 Y-8.4624
G01 X11.9618 Y-8.3735
G01 X11.9501 Y-8.2998
G01 X11.9501 Y-7.2002
G01 X11.9618 Y-7.1265
G01 X12.0071 Y-7.0376
G01 X12.0776 Y-6.9671
G01 X12.1665 Y-6.9218
G01 X12.2402 Y-6.9101
G01 X13.9398 Y-6.9101
G01 X14.0135 Y-6.9218
G01 X14.1024 Y-6.9671
G01 X14.1729 Y-7.0376
G01 X14.2182 Y-7.1265
G01 X14.2299 Y-7.2002
G01 X14.2299 Y-8.2998
G01 X14.2182 Y-8.3735
G01 X14.1729 Y-8.4624
G01 X14.1024 Y-8.5329
G01 X14.0135 Y-8.5782
G01 X13.9398 Y-8.5899
G01 X13.8145 Y-8.5899
G01 X13.8066 Y-8.5902
G01 X13.7988 Y-8.5910
G01 X13.7395 Y-8.6036
G01 X13.7314 Y-8.6057
G01 X13.7236 Y-8.6084
G01 X13.7160 Y-8.6116
G01 X13.7086 Y-8.6154
G01 X13.7015 Y-8.6197
G01 X13.6906 Y-8.6281
G01 X13.6357 Y-8.6757
G01 X13.6262 Y-8.6856
G01 X13.6210 Y-8.6920
G01 X13.6164 Y-8.6988
G01 X13.6099 Y-8.7109
G01 X13.6049 Y-8.7237
G01 X13.5837 Y-8.7959
G01 X13.5810 Y-8.8088
G01 X13.5802 Y-8.8166
G01 X13.5799 Y-8.8245
G01 X13.5799 Y-10.8929
G01 X13.5805 Y-10.9017
G01 X13.5845 Y-10.9361
G01 X13.5878 Y-10.9493
G01 X13.5926 Y-10.9620
G01 X13.5963 Y-10.9693
G01 X13.6297 Y-11.0306
G01 X13.6338 Y-11.0374
G01 X13.6383 Y-11.0439
G01 X13.6432 Y-11.0500
G01 X13.6592 Y-11.0664
G01 X13.6680 Y-11.0743
G01 X13.6952 Y-11.0958
G01 X13.7110 Y-11.1055
G01 X13.7236 Y-11.1116
G01 X13.7367 Y-11.1161
G01 X13.7683 Y-11.1231
G01 X13.7990 Y-11.1320
G01 X13.8120 Y-11.1343
G01 X13.8225 Y-11.1351
G01 X16.0786 Y-11.1351
G01 X16.0896 Y-11.1345
G01 X16.1032 Y-11.1323
G01 X16.1654 Y-11.1165
G01 X16.1757 Y-11.1133
G01 X16.1856 Y-11.1092
G01 X16.1951 Y-11.1041
G01 X16.2040 Y-11.0981
G01 X16.2123 Y-11.0912
G01 X16.2675 Y-11.0362
G01 X16.2747 Y-11.0278
G01 X16.2795 Y-11.0212
G01 X16.2838 Y-11.0141
G01 X16.2876 Y-11.0068
G01 X16.2908 Y-10.9992
G01 X16.2942 Y-10.9888
G01 X16.3103 Y-10.9152
G01 X16.3118 Y-10.9071
G01 X16.3128 Y-10.8961
G01 X16.3127 Y-10.8851
G01 X16.3115 Y-10.8742
G01 X16.3085 Y-10.8608
G01 X16.2932 Y-10.8191
G01 X16.2911 Y-10.8087
G01 X16.2878 Y-10.7984
G01 X16.2848 Y-10.7909
G01 X16.2807 Y-10.7827
G01 X16.2392 Y-10.6717
G01 X16.2351 Y-10.6333
G01 X16.2351 Y-10.0767
G01 X16.2392 Y-10.0383
G01 X16.2779 Y-9.9348
G01 X16.3429 Y-9.8479
G01 X16.4298 Y-9.7829
G01 X16.5333 Y-9.7442
G01 X16.5717 Y-9.7401
G01 X17.3529 Y-9.7401
G01 X17.3617 Y-9.7395
G01 X17.3935 Y-9.7359
G01 X17.4041 Y-9.7337
G01 X17.4144 Y-9.7305
G01 X17.4269 Y-9.7250
G01 X17.4929 Y-9.6890
G01 X17.5017 Y-9.6833
G01 X17.5100 Y-9.6768
G01 X17.5158 Y-9.6714
G01 X17.7455 Y-9.4415
G01 X17.7692 Y-9.4120
G01 X17.7752 Y-9.4030
G01 X17.7802 Y-9.3933
G01 X17.7834 Y-9.3858
G01 X17.7859 Y-9.3781
G01 X17.8056 Y-9.3111
G01 X17.8076 Y-9.3034
G01 X17.8093 Y-9.2930
G01 X17.8101 Y-9.2799
G01 X17.8101 Y-8.5997
G01 X17.8098 Y-8.5913
G01 X17.8088 Y-8.5829
G01 X17.8000 Y-8.5341
G01 X17.7973 Y-8.5237
G01 X17.7946 Y-8.5160
G01 X17.7902 Y-8.5062
G01 X17.7863 Y-8.4991
G01 X17.7802 Y-8.4901
G01 X17.7367 Y-8.4321
G01 X17.7299 Y-8.4242
G01 X17.7202 Y-8.4152
G01 X17.6715 Y-8.3785
G01 X17.6043 Y-8.2888
G01 X17.5644 Y-8.1818
G01 X17.5601 Y-8.1419
G01 X17.5601 Y-7.1581
G01 X17.5644 Y-7.1182
G01 X17.6043 Y-7.0112
G01 X17.6715 Y-6.9215
G01 X17.7705 Y-6.8471
G01 X17.7808 Y-6.8374
G01 X17.8108 Y-6.8052
G01 X17.8177 Y-6.7970
G01 X17.8224 Y-6.7903
G01 X17.8266 Y-6.7834
G01 X17.8302 Y-6.7762
G01 X17.8343 Y-6.7662
G01 X17.8556 Y-6.6940
G01 X17.8581 Y-6.6838
G01 X17.8596 Y-6.6733
G01 X17.8601 Y-6.6628
G01 X17.8601 Y-5.5619
G01 X17.8598 Y-5.5534
G01 X17.8583 Y-5.5421
G01 X17.8469 Y-5.4872
G01 X17.8430 Y-5.4742
G01 X17.8387 Y-5.4642
G01 X17.8321 Y-5.4524
G01 X17.8258 Y-5.4436
G01 X17.7793 Y-5.3878
G01 X17.7702 Y-5.3783
G01 X17.7601 Y-5.3698
G01 X17.7008 Y-5.3301
G01 X17.5699 Y-5.1992
G01 X17.5616 Y-5.1873
G01 X17.5521 Y-5.1767
G01 X17.5121 Y-5.1376
G01 X17.5037 Y-5.1308
G01 X17.4946 Y-5.1248
G01 X17.4825 Y-5.1187
G01 X17.4697 Y-5.1141
G01 X17.4002 Y-5.0937
G01 X17.3925 Y-5.0919
G01 X17.3820 Y-5.0904
G01 X17.3715 Y-5.0899
G01 X17.1145 Y-5.0899
G01 X17.1040 Y-5.0904
G01 X17.0936 Y-5.0919
G01 X17.0395 Y-5.1036
G01 X17.0314 Y-5.1057
G01 X17.0210 Y-5.1094
G01 X17.0110 Y-5.1141
G01 X17.0015 Y-5.1197
G01 X16.9927 Y-5.1263
G01 X16.9337 Y-5.1776
G01 X16.9244 Y-5.1877
G01 X16.9164 Y-5.1988
G01 X16.9099 Y-5.2109
G01 X16.9049 Y-5.2237
G01 X16.8844 Y-5.2933
G01 X16.8824 Y-5.3010
G01 X16.8807 Y-5.3114
G01 X16.8799 Y-5.3245
G01 X16.8799 Y-5.6138
G01 X16.8718 Y-5.6546
G01 X16.8409 Y-5.7009
G01 X16.7946 Y-5.7318
G01 X16.7538 Y-5.7399
G01 X14.7262 Y-5.7399
G01 X14.6854 Y-5.7318
G01 X14.6391 Y-5.7009
G01 X14.6082 Y-5.6546
G01 X14.6001 Y-5.6138
G01 X14.6000 Y-5.3292
G01 X14.5962 Y-5.2936
G01 X14.5949 Y-5.2854
G01 X14.5915 Y-5.2720
G01 X14.5864 Y-5.2592
G01 X14.5826 Y-5.2518
G01 X14.5454 Y-5.1862
G01 X14.5391 Y-5.1773
G01 X14.5338 Y-5.1710
G01 X14.5280 Y-5.1651
G01 X14.5218 Y-5.1596
G01 X14.5130 Y-5.1531
G01 X14.5059 Y-5.1488
G01 X14.4417 Y-5.1149
G01 X14.4343 Y-5.1113
G01 X14.4240 Y-5.1075
G01 X14.4134 Y-5.1046
G01 X14.4026 Y-5.1028
G01 X14.3916 Y-5.1021
G01 X14.3807 Y-5.1025
G01 X14.3110 Y-5.1085
G01 X14.2975 Y-5.1105
G01 X14.2869 Y-5.1134
G01 X14.2766 Y-5.1172
G01 X14.2643 Y-5.1234
G01 X14.2552 Y-5.1295
G01 X14.1956 Y-5.1754
G01 X14.1896 Y-5.1806
G01 X14.1841 Y-5.1862
G01 X14.1757 Y-5.1964
G01 X14.0695 Y-5.3426
G01 X13.9426 Y-5.4695
G01 X13.7974 Y-5.5749
G01 X13.6376 Y-5.6564
G01 X13.4669 Y-5.7118
G01 X13.2897 Y-5.7399
G01 X13.1103 Y-5.7399
G01 X12.9331 Y-5.7118
G01 X12.7624 Y-5.6564
G01 X12.6026 Y-5.5749
G01 X12.4574 Y-5.4695
G01 X12.3305 Y-5.3426
G01 X12.2251 Y-5.1974
G01 X12.1436 Y-5.0376
G01 X12.0882 Y-4.8669
G01 X12.0601 Y-4.6897
G01 X12.0601 Y-4.5103
G01 X12.0882 Y-4.3331
G01 X12.1436 Y-4.1624
G01 X12.2251 Y-4.0026
G01 X12.3305 Y-3.8574
G01 X12.4574 Y-3.7305
G01 X12.6134 Y-3.6172
G01 X12.6233 Y-3.6091
G01 X12.6602 Y-3.5704
G01 X12.6673 Y-3.5620
G01 X12.6736 Y-3.5530
G01 X12.6777 Y-3.5459
G01 X12.6813 Y-3.5385
G01 X12.6851 Y-3.5282
G01 X12.7063 Y-3.4560
G01 X12.7086 Y-3.4457
G01 X12.7098 Y-3.4353
G01 X12.7101 Y-3.4274
G01 X12.7100 Y-3.3202
G01 X12.7090 Y-3.3098
G01 X12.7040 Y-3.2748
G01 X12.7018 Y-3.2639
G01 X12.6986 Y-3.2532
G01 X12.6947 Y-3.2437
G01 X12.6906 Y-3.2320
G01 X12.6872 Y-3.2245
G01 X12.6832 Y-3.2172
G01 X12.6754 Y-3.2058
G01 X12.6598 Y-3.1876
G01 X12.6482 Y-3.1697
G01 X12.6416 Y-3.1609
G01 X12.6361 Y-3.1548
G01 X12.6281 Y-3.1473
G01 X12.6216 Y-3.1422
G01 X12.6157 Y-3.1382
G01 X12.6080 Y-3.1320
G01 X12.6012 Y-3.1274
G01 X12.5940 Y-3.1233
G01 X12.5815 Y-3.1177
G01 X12.5559 Y-3.1098
G01 X12.5340 Y-3.1000
G01 X12.5210 Y-3.0957
G01 X12.5130 Y-3.0940
G01 X12.5048 Y-3.0928
G01 X12.4755 Y-3.0909
G01 X6.1245 Y-3.0909
G01 X6.1140 Y-3.0914
G01 X6.1036 Y-3.0929
G01 X6.0495 Y-3.1046
G01 X6.0388 Y-3.1075
G01 X6.0285 Y-3.1115
G01 X6.0186 Y-3.1164
G01 X6.0070 Y-3.1239
G01 X6.0006 Y-3.1291
G01 X5.9457 Y-3.1767
G01 X5.9380 Y-3.1845
G01 X5.9310 Y-3.1930
G01 X5.9264 Y-3.1998
G01 X5.9223 Y-3.2070
G01 X5.9177 Y-3.2169
G01 X5.9149 Y-3.2247
G01 X5.8930 Y-3.2994
G01 X5.8907 Y-3.3124
G01 X5.8899 Y-3.3255
G01 X5.8900 Y-6.1207
G01 X5.8904 Y-6.1323
G01 X5.8912 Y-6.1405
G01 X5.8926 Y-6.1485
G01 X5.8946 Y-6.1565
G01 X5.8972 Y-6.1643
G01 X5.9216 Y-6.2297
G01 X5.9257 Y-6.2394
G01 X5.9295 Y-6.2464
G01 X5.9351 Y-6.2552
G01 X5.9957 Y-6.3362
G01 X6.0356 Y-6.4432
G01 X6.0399 Y-6.4831
G01 X6.0399 Y-7.5169
G01 X6.0356 Y-7.5568
G01 X5.9957 Y-7.6638
G01 X5.9285 Y-7.7535
G01 X5.8388 Y-7.8207
G01 X5.7318 Y-7.8606
G01 X5.6919 Y-7.8649
G01 X5.1081 Y-7.8649
G01 X5.0682 Y-7.8606
G01 X4.9612 Y-7.8207
G01 X4.8715 Y-7.7535
G01 X4.8043 Y-7.6638
G01 X4.7644 Y-7.5568
G01 X4.7601 Y-7.5169
G01 X4.7601 Y-6.4831
G01 X4.7644 Y-6.4432
G01 X4.8043 Y-6.3362
G01 X4.8633 Y-6.2574
G01 X4.8737 Y-6.2423
G01 X4.8790 Y-6.2328
G01 X4.8823 Y-6.2253
G01 X4.8851 Y-6.2176
G01 X4.9063 Y-6.1454
G01 X4.9086 Y-6.1351
G01 X4.9100 Y-6.1220
G01 X4.9101 Y-2.9355
G01 X4.9435 Y-2.8109
G01 X5.0080 Y-2.6992
G01 X5.1668 Y-2.5404
G01 X5.1792 Y-2.5270
G01 X5.1873 Y-2.5160
G01 X5.1928 Y-2.5066
G01 X5.2242 Y-2.4381
G01 X5.2292 Y-2.4253
G01 X5.2325 Y-2.4120
G01 X5.2336 Y-2.4038
G01 X5.2342 Y-2.3956
G01 X5.2338 Y-2.3819
G01 X5.2232 Y-2.3072
G01 X5.2217 Y-2.2991
G01 X5.2196 Y-2.2912
G01 X5.2170 Y-2.2834
G01 X5.2137 Y-2.2758
G01 X5.2099 Y-2.2685
G01 X5.2056 Y-2.2615
G01 X5.1991 Y-2.2527
G01 X5.1497 Y-2.1957
G01 X5.1439 Y-2.1898
G01 X5.1377 Y-2.1844
G01 X5.1266 Y-2.1764
G01 X5.1145 Y-2.1699
G01 X5.1069 Y-2.1667
G01 X5.0991 Y-2.1641
G01 X5.0295 Y-2.1437
G01 X5.0166 Y-2.1410
G01 X5.0062 Y-2.1400
G01 X2.2119 Y-2.1399
G01 X2.2014 Y-2.1407
G01 X2.1936 Y-2.1419
G01 X2.1368 Y-2.1543
G01 X2.1262 Y-2.1574
G01 X2.1135 Y-2.1628
G01 X2.1015 Y-2.1697
G01 X2.0927 Y-2.1763
G01 X2.0357 Y-2.2257
G01 X2.0280 Y-2.2335
G01 X2.0194 Y-2.2442
G01 X2.0136 Y-2.2536
G01 X2.0087 Y-2.2634
G01 X2.0041 Y-2.2763
G01 X1.9844 Y-2.3433
G00 Z2.0000
G00 X4.9392 Y-6.2327
G01 F40.00
G01 Z-0.0601
G01 F100.00
G01 X4.9212 Y-6.2463
G01 X4.8989 Y-6.2663
G01 X4.8931 Y-6.2720
G01 X4.8730 Y-6.2942
G01 X4.8679 Y-6.3005
G01 X4.8502 Y-6.3247
G01 X4.8333 Y-6.3526
G01 X4.8295 Y-6.3599
G01 X4.8168 Y-6.3870
G01 X4.8049 Y-6.4203
G01 X4.7963 Y-6.4547
G01 X4.7918 Y-6.4843
G01 X4.7909 Y-6.4924
G01 X4.7894 Y-6.5250
G01 X4.7894 Y-7.4777
G01 X4.7909 Y-7.5076
G01 X4.7918 Y-7.5157
G01 X4.7963 Y-7.5453
G01 X4.8035 Y-7.5744
G01 X4.8066 Y-7.5848
G01 X4.8168 Y-7.6130
G01 X4.8295 Y-7.6401
G01 X4.8333 Y-7.6474
G01 X4.8487 Y-7.6731
G01 X4.8533 Y-7.6798
G01 X4.8713 Y-7.7038
G01 X4.8913 Y-7.7261
G01 X4.8989 Y-7.7337
G01 X4.9212 Y-7.7537
G01 X4.9497 Y-7.7748
G01 X4.9800 Y-7.7930
G01 X5.0070 Y-7.8060
G01 X5.0171 Y-7.8101
G01 X5.0453 Y-7.8201
G01 X5.0744 Y-7.8275
G01 X5.0823 Y-7.8292
G01 X5.1093 Y-7.8332
G01 X5.1201 Y-7.8343
G01 X5.1500 Y-7.8356
G01 X5.6500 Y-7.8356
G01 X5.6799 Y-7.8343
G01 X5.6907 Y-7.8332
G01 X5.7203 Y-7.8287
G01 X5.7547 Y-7.8201
G01 X5.7880 Y-7.8082
G01 X5.8151 Y-7.7955
G01 X5.8224 Y-7.7917
G01 X5.8503 Y-7.7748
G01 X5.8745 Y-7.7571
G01 X5.8829 Y-7.7502
G01 X5.9050 Y-7.7300
G01 X5.9252 Y-7.7079
G01 X5.9321 Y-7.6995
G01 X5.9498 Y-7.6753
G01 X5.9653 Y-7.6497
G01 X5.9705 Y-7.6401
G01 X5.9832 Y-7.6130
G01 X5.9934 Y-7.5848
G01 X5.9965 Y-7.5744
G01 X6.0037 Y-7.5453
G01 X6.0082 Y-7.5157
G01 X6.0091 Y-7.5076
G01 X6.0106 Y-7.4777
G01 X6.0106 Y-6.5250
G01 X6.0093 Y-6.4951
G01 X6.0086 Y-6.4870
G01 X6.0037 Y-6.4547
G01 X5.9951 Y-6.4203
G01 X5.9832 Y-6.3870
G01 X5.9705 Y-6.3599
G01 X5.9667 Y-6.3526
G01 X5.9498 Y-6.3247
G01 X5.9321 Y-6.3005
G01 X5.9270 Y-6.2942
G01 X5.9069 Y-6.2720
G01 X5.9011 Y-6.2663
G01 X5.8788 Y-6.2463
G01 X5.8608 Y-6.2327
G01 X5.8608 Y-3.1909
G01 X5.9899 Y-3.0618
G01 X12.7392 Y-3.0618
G01 X12.7392 Y-3.5907
G01 X12.6813 Y-3.6181
G01 X12.6741 Y-3.6218
G01 X12.5876 Y-3.6737
G01 X12.5807 Y-3.6781
G01 X12.4954 Y-3.7415
G01 X12.4166 Y-3.8128
G01 X12.4109 Y-3.8186
G01 X12.3415 Y-3.8954
G01 X12.2797 Y-3.9785
G01 X12.2737 Y-3.9876
G01 X12.2232 Y-4.0717
G01 X12.2193 Y-4.0789
G01 X12.1739 Y-4.1750
G01 X12.1372 Y-4.2776
G01 X12.1107 Y-4.3833
G01 X12.0954 Y-4.4858
G01 X12.0943 Y-4.4966
G01 X12.0895 Y-4.5946
G01 X12.0895 Y-4.6054
G01 X12.0947 Y-4.7089
G01 X12.1102 Y-4.8140
G01 X12.1119 Y-4.8220
G01 X12.1372 Y-4.9224
G01 X12.1720 Y-5.0199
G01 X12.1761 Y-5.0300
G01 X12.2181 Y-5.1187
G01 X12.2232 Y-5.1283
G01 X12.2766 Y-5.2170
G01 X12.3415 Y-5.3046
G01 X12.4147 Y-5.3853
G01 X12.4954 Y-5.4585
G01 X12.5830 Y-5.5234
G01 X12.6717 Y-5.5768
G01 X12.6813 Y-5.5819
G01 X12.7700 Y-5.6239
G01 X12.7801 Y-5.6280
G01 X12.8776 Y-5.6628
G01 X12.9833 Y-5.6893
G01 X13.0911 Y-5.7053
G01 X13.2000 Y-5.7106
G01 X13.3089 Y-5.7053
G01 X13.4167 Y-5.6893
G01 X13.5224 Y-5.6628
G01 X13.6199 Y-5.6280
G01 X13.6300 Y-5.6239
G01 X13.7187 Y-5.5819
G01 X13.7283 Y-5.5768
G01 X13.8170 Y-5.5234
G01 X13.9046 Y-5.4585
G01 X13.9853 Y-5.3853
G01 X14.0585 Y-5.3046
G01 X14.1234 Y-5.2170
G01 X14.1768 Y-5.1283
G01 X14.1819 Y-5.1187
G01 X14.2239 Y-5.0300
G01 X14.2280 Y-5.0199
G01 X14.2628 Y-4.9224
G01 X14.2881 Y-4.8220
G01 X14.2898 Y-4.8140
G01 X14.3053 Y-4.7089
G01 X14.3105 Y-4.6054
G01 X14.3105 Y-4.5946
G01 X14.3057 Y-4.4966
G01 X14.3046 Y-4.4858
G01 X14.2893 Y-4.3833
G01 X14.2628 Y-4.2776
G01 X14.2261 Y-4.1750
G01 X14.1807 Y-4.0789
G01 X14.1768 Y-4.0717
G01 X14.1263 Y-3.9876
G01 X14.1203 Y-3.9785
G01 X14.0585 Y-3.8954
G01 X13.9891 Y-3.8186
G01 X13.9834 Y-3.8128
G01 X13.9046 Y-3.7415
G01 X13.8193 Y-3.6781
G01 X13.8124 Y-3.6737
G01 X13.7259 Y-3.6218
G01 X13.7187 Y-3.6181
G01 X13.6608 Y-3.5907
G01 X13.6608 Y-3.0618
G01 X22.6392 Y-3.0618
G01 X22.6392 Y-9.5391
G01 X22.4090 Y-9.7694
G01 X21.5625 Y-9.7694
G01 X21.5311 Y-9.7708
G01 X21.4999 Y-9.7752
G01 X21.4893 Y-9.7773
G01 X21.4615 Y-9.7844
G01 X21.4293 Y-9.7959
G01 X21.4033 Y-9.8081
G01 X21.3937 Y-9.8132
G01 X21.3691 Y-9.8281
G01 X21.3438 Y-9.8467
G01 X21.3376 Y-9.8520
G01 X21.3164 Y-9.8714
G01 X21.2970 Y-9.8926
G01 X21.2901 Y-9.9009
G01 X21.2746 Y-9.9219
G01 X21.2702 Y-9.9287
G01 X21.2555 Y-9.9534
G01 X21.2409 Y-9.9843
G01 X21.2294 Y-10.0165
G01 X21.2223 Y-10.0443
G01 X21.2206 Y-10.0523
G01 X21.2161 Y-10.0834
G01 X21.2144 Y-10.1175
G01 X21.2144 Y-10.5925
G01 X21.2157 Y-10.6212
G01 X21.2167 Y-10.6320
G01 X21.2211 Y-10.6604
G01 X21.2294 Y-10.6935
G01 X21.2409 Y-10.7257
G01 X21.2555 Y-10.7566
G01 X21.2731 Y-10.7859
G01 X21.2934 Y-10.8133
G01 X21.3164 Y-10.8386
G01 X21.3376 Y-10.8580
G01 X21.3438 Y-10.8633
G01 X21.3669 Y-10.8804
G01 X21.3937 Y-10.8968
G01 X21.4033 Y-10.9019
G01 X21.4268 Y-10.9130
G01 X21.4344 Y-10.9161
G01 X21.4615 Y-10.9256
G01 X21.4946 Y-10.9339
G01 X21.5284 Y-10.9389
G01 X21.5598 Y-10.9406
G01 X23.3875 Y-10.9406
G01 X23.4162 Y-10.9393
G01 X23.4243 Y-10.9386
G01 X23.4554 Y-10.9339
G01 X23.4859 Y-10.9264
G01 X23.5156 Y-10.9161
G01 X23.5257 Y-10.9119
G01 X23.5516 Y-10.8995
G01 X23.5809 Y-10.8819
G01 X23.6083 Y-10.8616
G01 X23.6297 Y-10.8424
G01 X23.6355 Y-10.8367
G01 X23.6530 Y-10.8174
G01 X23.6599 Y-10.8091
G01 X23.6769 Y-10.7859
G01 X23.6945 Y-10.7566
G01 X23.7069 Y-10.7307
G01 X23.7111 Y-10.7206
G01 X23.7206 Y-10.6935
G01 X23.7283 Y-10.6631
G01 X23.7298 Y-10.6551
G01 X23.7339 Y-10.6266
G01 X23.7356 Y-10.5925
G01 X23.7356 Y-10.1148
G01 X23.7339 Y-10.0834
G01 X23.7289 Y-10.0496
G01 X23.7206 Y-10.0165
G01 X23.7091 Y-9.9843
G01 X23.6945 Y-9.9534
G01 X23.6798 Y-9.9287
G01 X23.6738 Y-9.9197
G01 X23.6566 Y-9.8967
G01 X23.6374 Y-9.8753
G01 X23.6317 Y-9.8695
G01 X23.6124 Y-9.8520
G01 X23.6041 Y-9.8451
G01 X23.5809 Y-9.8281
G01 X23.5533 Y-9.8114
G01 X23.5586 Y-9.7752
G01 X23.5608 Y-9.7300
G01 X23.5608 Y-2.6010
G01 X23.5588 Y-2.5585
G01 X23.5528 Y-2.5165
G01 X23.5507 Y-2.5058
G01 X23.5409 Y-2.4672
G01 X23.5257 Y-2.4247
G01 X23.5064 Y-2.3838
G01 X23.4860 Y-2.3496
G01 X23.4800 Y-2.3406
G01 X23.4595 Y-2.3130
G01 X23.4526 Y-2.3046
G01 X23.4258 Y-2.2752
G01 X23.3923 Y-2.2448
G01 X23.3560 Y-2.2179
G01 X23.3219 Y-2.1973
G01 X23.3148 Y-2.1934
G01 X23.2878 Y-2.1806
G01 X23.2788 Y-2.1764
G01 X23.2713 Y-2.1733
G01 X23.2338 Y-2.1601
G01 X23.1925 Y-2.1496
G01 X23.1845 Y-2.1482
G01 X23.1452 Y-2.1424
G01 X23.1000 Y-2.1402
G01 X5.7990 Y-2.1402
G01 X5.7538 Y-2.1424
G01 X5.7145 Y-2.1482
G01 X5.7065 Y-2.1496
G01 X5.6705 Y-2.1586
G01 X5.6601 Y-2.1618
G01 X5.6227 Y-2.1753
G01 X5.5866 Y-2.1922
G01 X5.5771 Y-2.1973
G01 X5.5430 Y-2.2179
G01 X5.5067 Y-2.2448
G01 X5.4732 Y-2.2752
G01 X5.0742 Y-2.6742
G01 X5.0474 Y-2.7036
G01 X5.0405 Y-2.7120
G01 X5.0169 Y-2.7440
G01 X4.9936 Y-2.7828
G01 X4.9754 Y-2.8212
G01 X4.9670 Y-2.8437
G01 X4.9583 Y-2.8689
G01 X4.9481 Y-2.9101
G01 X4.9414 Y-2.9548
G01 X4.9392 Y-3.0000
G01 X4.9392 Y-6.2327
G00 Z2.0000
G00 X12.2596 Y-8.5605
G01 F40.00
G01 Z-0.0601
G01 F100.00
G01 X12.6292 Y-8.5606
G01 X12.6292 Y-11.1900
G01 X12.6314 Y-11.2352
G01 X12.6372 Y-11.2745
G01 X12.6393 Y-11.2852
G01 X12.6491 Y-11.3238
G01 X12.6643 Y-11.3663
G01 X12.6812 Y-11.4024
G01 X12.6863 Y-11.4119
G01 X12.7069 Y-11.4460
G01 X12.7305 Y-11.4780
G01 X12.7374 Y-11.4864
G01 X12.7623 Y-11.5139
G01 X13.2031 Y-11.9546
G01 X13.2327 Y-11.9812
G01 X13.2690 Y-12.0081
G01 X13.3078 Y-12.0314
G01 X13.3462 Y-12.0496
G01 X13.3537 Y-12.0527
G01 X13.3912 Y-12.0659
G01 X13.4351 Y-12.0769
G01 X13.4798 Y-12.0836
G01 X13.5250 Y-12.0858
G01 X16.3455 Y-12.0858
G01 X16.3664 Y-12.1086
G01 X16.3917 Y-12.1316
G01 X16.4191 Y-12.1519
G01 X16.4437 Y-12.1668
G01 X16.4508 Y-12.1707
G01 X16.4793 Y-12.1841
G01 X16.5115 Y-12.1956
G01 X16.5446 Y-12.2039
G01 X16.5730 Y-12.2083
G01 X16.5838 Y-12.2093
G01 X16.6125 Y-12.2106
G01 X18.4375 Y-12.2106
G01 X18.4716 Y-12.2089
G01 X18.5054 Y-12.2039
G01 X18.5385 Y-12.1956
G01 X18.5656 Y-12.1861
G01 X18.5757 Y-12.1819
G01 X18.6016 Y-12.1695
G01 X18.6263 Y-12.1548
G01 X18.6331 Y-12.1504
G01 X18.6541 Y-12.1349
G01 X18.6604 Y-12.1298
G01 X18.6817 Y-12.1105
G01 X18.7045 Y-12.0858
G01 X19.8777 Y-12.0857
G01 X19.9202 Y-12.0836
G01 X19.9649 Y-12.0769
G01 X20.0088 Y-12.0659
G01 X20.0463 Y-12.0527
G01 X20.0563 Y-12.0485
G01 X20.0922 Y-12.0314
G01 X20.1310 Y-12.0081
G01 X20.1673 Y-11.9812
G01 X20.1969 Y-11.9546
G01 X20.6296 Y-11.5219
G01 X20.6562 Y-11.4923
G01 X20.6800 Y-11.4604
G01 X20.6860 Y-11.4514
G01 X20.7064 Y-11.4172
G01 X20.7257 Y-11.3763
G01 X20.7392 Y-11.3389
G01 X20.7424 Y-11.3285
G01 X20.7519 Y-11.2899
G01 X20.7586 Y-11.2452
G01 X20.7608 Y-11.2000
G01 X20.7608 Y-8.4430
G01 X20.7880 Y-8.4332
G01 X20.8151 Y-8.4205
G01 X20.8224 Y-8.4167
G01 X20.8458 Y-8.4027
G01 X20.8526 Y-8.3983
G01 X20.8766 Y-8.3804
G01 X20.9011 Y-8.3587
G01 X20.9087 Y-8.3511
G01 X20.9287 Y-8.3288
G01 X20.9498 Y-8.3003
G01 X20.9680 Y-8.2700
G01 X20.9821 Y-8.2405
G01 X20.9851 Y-8.2329
G01 X20.9951 Y-8.2047
G01 X21.0037 Y-8.1703
G01 X21.0089 Y-8.1353
G01 X21.0105 Y-8.1054
G01 X21.0106 Y-7.5910
G01 X21.1777 Y-7.4239
G01 X21.2062 Y-7.3923
G01 X21.2300 Y-7.3604
G01 X21.2360 Y-7.3514
G01 X21.2564 Y-7.3172
G01 X21.2757 Y-7.2763
G01 X21.2909 Y-7.2338
G01 X21.3019 Y-7.1899
G01 X21.3086 Y-7.1452
G01 X21.3108 Y-7.1000
G01 X21.3108 Y-5.3537
G01 X21.3777 Y-5.3039
G01 X21.4439 Y-5.2439
G01 X21.5039 Y-5.1777
G01 X21.5540 Y-5.1103
G01 X21.5600 Y-5.1013
G01 X21.6004 Y-5.0340
G01 X21.6055 Y-5.0244
G01 X21.6413 Y-4.9485
G01 X21.6714 Y-4.8643
G01 X21.6931 Y-4.7776
G01 X21.7062 Y-4.6893
G01 X21.7106 Y-4.6000
G01 X21.7066 Y-4.5162
G01 X21.7056 Y-4.5054
G01 X21.6931 Y-4.4224
G01 X21.6728 Y-4.3409
G01 X21.6697 Y-4.3305
G01 X21.6432 Y-4.2566
G01 X21.6391 Y-4.2466
G01 X21.6031 Y-4.1707
G01 X21.5600 Y-4.0987
G01 X21.5540 Y-4.0897
G01 X21.5039 Y-4.0223
G01 X21.4439 Y-3.9561
G01 X21.3818 Y-3.8996
G01 X21.3734 Y-3.8928
G01 X21.3103 Y-3.8460
G01 X21.3013 Y-3.8400
G01 X21.2293 Y-3.7969
G01 X21.1485 Y-3.7587
G01 X21.0643 Y-3.7286
G01 X20.9829 Y-3.7081
G01 X20.9723 Y-3.7060
G01 X20.8946 Y-3.6944
G01 X20.8838 Y-3.6934
G01 X20.8000 Y-3.6894
G01 X20.7162 Y-3.6934
G01 X20.7054 Y-3.6944
G01 X20.6277 Y-3.7060
G01 X20.6171 Y-3.7081
G01 X20.5357 Y-3.7286
G01 X20.4515 Y-3.7587
G01 X20.3756 Y-3.7945
G01 X20.3660 Y-3.7996
G01 X20.2941 Y-3.8429
G01 X20.2223 Y-3.8961
G01 X20.1561 Y-3.9561
G01 X20.0996 Y-4.0182
G01 X20.0928 Y-4.0266
G01 X20.0429 Y-4.0941
G01 X19.9969 Y-4.1707
G01 X19.9609 Y-4.2466
G01 X19.9568 Y-4.2566
G01 X19.9303 Y-4.3305
G01 X19.9279 Y-4.3383
G01 X19.9069 Y-4.4224
G01 X19.8938 Y-4.5107
G01 X19.8894 Y-4.6000
G01 X19.8934 Y-4.6838
G01 X19.8944 Y-4.6946
G01 X19.9060 Y-4.7723
G01 X19.9081 Y-4.7829
G01 X19.9286 Y-4.8643
G01 X19.9568 Y-4.9434
G01 X19.9598 Y-4.9510
G01 X19.9969 Y-5.0293
G01 X20.0429 Y-5.1059
G01 X20.0961 Y-5.1777
G01 X20.1542 Y-5.2419
G01 X20.1600 Y-5.2476
G01 X20.2223 Y-5.3039
G01 X20.2897 Y-5.3540
G01 X20.2987 Y-5.3600
G01 X20.3684 Y-5.4018
G01 X20.3892 Y-5.4120
G01 X20.3892 Y-6.8394
G01 X19.9446 Y-6.8395
G01 X19.9147 Y-6.8411
G01 X19.8797 Y-6.8463
G01 X19.8453 Y-6.8549
G01 X19.8171 Y-6.8649
G01 X19.8070 Y-6.8690
G01 X19.7800 Y-6.8820
G01 X19.7542 Y-6.8973
G01 X19.7452 Y-6.9033
G01 X19.7212 Y-6.9213
G01 X19.6989 Y-6.9413
G01 X19.6913 Y-6.9489
G01 X19.6713 Y-6.9712
G01 X19.6533 Y-6.9952
G01 X19.6473 Y-7.0042
G01 X19.6320 Y-7.0300
G01 X19.6190 Y-7.0570
G01 X19.6149 Y-7.0671
G01 X19.6049 Y-7.0953
G01 X19.5975 Y-7.1244
G01 X19.5958 Y-7.1323
G01 X19.5911 Y-7.1647
G01 X19.5894 Y-7.2000
G01 X19.5894 Y-8.1000
G01 X19.5911 Y-8.1353
G01 X19.5958 Y-8.1677
G01 X19.5975 Y-8.1756
G01 X19.6049 Y-8.2047
G01 X19.6149 Y-8.2329
G01 X19.6190 Y-8.2430
G01 X19.6320 Y-8.2700
G01 X19.6473 Y-8.2958
G01 X19.6533 Y-8.3048
G01 X19.6730 Y-8.3308
G01 X19.6950 Y-8.3550
G01 X19.7171 Y-8.3752
G01 X19.7255 Y-8.3821
G01 X19.7497 Y-8.3998
G01 X19.7753 Y-8.4153
G01 X19.7849 Y-8.4205
G01 X19.8120 Y-8.4332
G01 X19.8392 Y-8.4430
G01 X19.8392 Y-11.0091
G01 X19.6841 Y-11.1642
G01 X18.7045 Y-11.1642
G01 X18.6836 Y-11.1414
G01 X18.6624 Y-11.1220
G01 X18.6562 Y-11.1167
G01 X18.6286 Y-11.0966
G01 X18.6040 Y-11.0818
G01 X18.5967 Y-11.0781
G01 X18.5707 Y-11.0659
G01 X18.5437 Y-11.0561
G01 X18.5359 Y-11.0536
G01 X18.5107 Y-11.0473
G01 X18.5027 Y-11.0456
G01 X18.4743 Y-11.0414
G01 X18.4429 Y-11.0395
G01 X16.6125 Y-11.0394
G01 X16.5784 Y-11.0411
G01 X16.5446 Y-11.0461
G01 X16.5115 Y-11.0544
G01 X16.4844 Y-11.0639
G01 X16.4743 Y-11.0681
G01 X16.4484 Y-11.0805
G01 X16.4237 Y-11.0952
G01 X16.4169 Y-11.0996
G01 X16.3959 Y-11.1151
G01 X16.3896 Y-11.1202
G01 X16.3683 Y-11.1395
G01 X16.3455 Y-11.1642
G01 X13.7159 Y-11.1642
G01 X13.5508 Y-10.9991
G01 X13.5508 Y-8.5606
G01 X13.9177 Y-8.5606
G01 X13.9430 Y-8.5592
G01 X13.9654 Y-8.5560
G01 X13.9760 Y-8.5539
G01 X14.0005 Y-8.5475
G01 X14.0218 Y-8.5399
G01 X14.0293 Y-8.5367
G01 X14.0496 Y-8.5269
G01 X14.0691 Y-8.5154
G01 X14.0781 Y-8.5093
G01 X14.0962 Y-8.4958
G01 X14.1169 Y-8.4769
G01 X14.1322 Y-8.4603
G01 X14.1391 Y-8.4519
G01 X14.1525 Y-8.4337
G01 X14.1642 Y-8.4144
G01 X14.1693 Y-8.4048
G01 X14.1789 Y-8.3843
G01 X14.1866 Y-8.3631
G01 X14.1891 Y-8.3553
G01 X14.1951 Y-8.3307
G01 X14.1986 Y-8.3084
G01 X14.1996 Y-8.2976
G01 X14.2006 Y-8.2750
G01 X14.2006 Y-7.2250
G01 X14.1996 Y-7.2024
G01 X14.1989 Y-7.1943
G01 X14.1951 Y-7.1693
G01 X14.1897 Y-7.1473
G01 X14.1866 Y-7.1369
G01 X14.1789 Y-7.1157
G01 X14.1693 Y-7.0952
G01 X14.1642 Y-7.0856
G01 X14.1525 Y-7.0663
G01 X14.1358 Y-7.0438
G01 X14.1169 Y-7.0231
G01 X14.1003 Y-7.0078
G01 X14.0919 Y-7.0009
G01 X14.0737 Y-6.9875
G01 X14.0544 Y-6.9758
G01 X14.0448 Y-6.9707
G01 X14.0243 Y-6.9611
G01 X14.0031 Y-6.9534
G01 X13.9927 Y-6.9503
G01 X13.9734 Y-6.9454
G01 X13.9654 Y-6.9440
G01 X13.9430 Y-6.9408
G01 X13.9150 Y-6.9394
G01 X12.2623 Y-6.9394
G01 X12.2370 Y-6.9408
G01 X12.2093 Y-6.9449
G01 X12.1821 Y-6.9517
G01 X12.1557 Y-6.9611
G01 X12.1304 Y-6.9731
G01 X12.1063 Y-6.9875
G01 X12.0838 Y-7.0042
G01 X12.0670 Y-7.0193
G01 X12.0593 Y-7.0270
G01 X12.0460 Y-7.0417
G01 X12.0409 Y-7.0481
G01 X12.0261 Y-7.0686
G01 X12.0144 Y-7.0880
G01 X12.0107 Y-7.0952
G01 X12.0001 Y-7.1182
G01 X11.9909 Y-7.1447
G01 X11.9849 Y-7.1693
G01 X11.9814 Y-7.1916
G01 X11.9805 Y-7.1997
G01 X11.9794 Y-7.2250
G01 X11.9794 Y-8.2750
G01 X11.9804 Y-8.2976
G01 X11.9811 Y-8.3057
G01 X11.9849 Y-8.3307
G01 X11.9917 Y-8.3579
G01 X12.0011 Y-8.3843
G01 X12.0119 Y-8.4072
G01 X12.0261 Y-8.4314
G01 X12.0409 Y-8.4519
G01 X12.0460 Y-8.4583
G01 X12.0593 Y-8.4730
G01 X12.0670 Y-8.4807
G01 X12.0838 Y-8.4958
G01 X12.1063 Y-8.5125
G01 X12.1304 Y-8.5269
G01 X12.1557 Y-8.5389
G01 X12.1821 Y-8.5483
G01 X12.2093 Y-8.5551
G01 X12.2370 Y-8.5592
G01 X12.2596 Y-8.5605
G00 Z2.0000
G00 X14.6294 Y-5.6000
G01 F40.00
G01 Z-0.0601
G01 F100.00
G01 X14.6299 Y-5.6108
G01 X14.6315 Y-5.6216
G01 X14.6334 Y-5.6295
G01 X14.6368 Y-5.6398
G01 X14.6412 Y-5.6497
G01 X14.6466 Y-5.6592
G01 X14.6528 Y-5.6680
G01 X14.6599 Y-5.6763
G01 X14.6678 Y-5.6837
G01 X14.6741 Y-5.6888
G01 X14.6831 Y-5.6949
G01 X14.6927 Y-5.7000
G01 X14.7027 Y-5.7041
G01 X14.7131 Y-5.7073
G01 X14.7238 Y-5.7094
G01 X14.7346 Y-5.7105
G01 X16.7400 Y-5.7106
G01 X16.7535 Y-5.7098
G01 X16.7669 Y-5.7073
G01 X16.7747 Y-5.7050
G01 X16.7823 Y-5.7022
G01 X16.7897 Y-5.6988
G01 X16.7969 Y-5.6949
G01 X16.8037 Y-5.6904
G01 X16.8102 Y-5.6855
G01 X16.8163 Y-5.6801
G01 X16.8219 Y-5.6743
G01 X16.8288 Y-5.6659
G01 X16.8334 Y-5.6592
G01 X16.8375 Y-5.6521
G01 X16.8411 Y-5.6448
G01 X16.8441 Y-5.6373
G01 X16.8466 Y-5.6295
G01 X16.8485 Y-5.6216
G01 X16.8498 Y-5.6135
G01 X16.8506 Y-5.6000
G01 X16.8506 Y-5.0608
G01 X17.5157 Y-5.0608
G01 X17.5429 Y-5.1059
G01 X17.5944 Y-5.1756
G01 X17.5996 Y-5.1818
G01 X17.6524 Y-5.2400
G01 X17.6581 Y-5.2458
G01 X17.7223 Y-5.3039
G01 X17.7919 Y-5.3556
G01 X17.7987 Y-5.3600
G01 X17.8684 Y-5.4018
G01 X17.8892 Y-5.4120
G01 X17.8892 Y-6.8448
G01 X17.8744 Y-6.8475
G01 X17.8479 Y-6.8542
G01 X17.8402 Y-6.8566
G01 X17.8120 Y-6.8668
G01 X17.7849 Y-6.8795
G01 X17.7776 Y-6.8833
G01 X17.7497 Y-6.9002
G01 X17.7212 Y-6.9213
G01 X17.6950 Y-6.9450
G01 X17.6730 Y-6.9692
G01 X17.6679 Y-6.9755
G01 X17.6502 Y-6.9997
G01 X17.6347 Y-7.0253
G01 X17.6307 Y-7.0324
G01 X17.6190 Y-7.0570
G01 X17.6149 Y-7.0671
G01 X17.6049 Y-7.0953
G01 X17.5963 Y-7.1297
G01 X17.5911 Y-7.1647
G01 X17.5894 Y-7.1973
G01 X17.5894 Y-8.1000
G01 X17.5911 Y-8.1353
G01 X17.5963 Y-8.1703
G01 X17.6035 Y-8.1994
G01 X17.6066 Y-8.2098
G01 X17.6168 Y-8.2380
G01 X17.6295 Y-8.2651
G01 X17.6347 Y-8.2747
G01 X17.6502 Y-8.3003
G01 X17.6679 Y-8.3245
G01 X17.6748 Y-8.3329
G01 X17.6950 Y-8.3550
G01 X17.7171 Y-8.3752
G01 X17.7255 Y-8.3821
G01 X17.7497 Y-8.3998
G01 X17.7753 Y-8.4153
G01 X17.7849 Y-8.4205
G01 X17.8120 Y-8.4332
G01 X17.8392 Y-8.4430
G01 X17.8392 Y-9.3891
G01 X17.4590 Y-9.7694
G01 X16.6125 Y-9.7694
G01 X16.5811 Y-9.7708
G01 X16.5499 Y-9.7752
G01 X16.5393 Y-9.7773
G01 X16.5115 Y-9.7844
G01 X16.4793 Y-9.7959
G01 X16.4533 Y-9.8081
G01 X16.4437 Y-9.8132
G01 X16.4191 Y-9.8281
G01 X16.3938 Y-9.8467
G01 X16.3876 Y-9.8520
G01 X16.3664 Y-9.8714
G01 X16.3470 Y-9.8926
G01 X16.3401 Y-9.9009
G01 X16.3246 Y-9.9219
G01 X16.3202 Y-9.9287
G01 X16.3055 Y-9.9534
G01 X16.2909 Y-9.9843
G01 X16.2794 Y-10.0165
G01 X16.2723 Y-10.0443
G01 X16.2706 Y-10.0523
G01 X16.2661 Y-10.0834
G01 X16.2644 Y-10.1175
G01 X16.2644 Y-10.5925
G01 X16.2657 Y-10.6212
G01 X16.2667 Y-10.6320
G01 X16.2711 Y-10.6604
G01 X16.2794 Y-10.6935
G01 X16.2909 Y-10.7257
G01 X16.3031 Y-10.7517
G01 X16.3082 Y-10.7613
G01 X16.3216 Y-10.7836
G01 X16.3262 Y-10.7903
G01 X16.3434 Y-10.8133
G01 X16.3664 Y-10.8386
G01 X16.3917 Y-10.8616
G01 X16.4147 Y-10.8788
G01 X16.4214 Y-10.8834
G01 X16.4437 Y-10.8968
G01 X16.4533 Y-10.9019
G01 X16.4793 Y-10.9141
G01 X16.5115 Y-10.9256
G01 X16.5446 Y-10.9339
G01 X16.5784 Y-10.9389
G01 X16.6125 Y-10.9406
G01 X18.4402 Y-10.9406
G01 X18.4716 Y-10.9389
G01 X18.5027 Y-10.9344
G01 X18.5333 Y-10.9271
G01 X18.5437 Y-10.9239
G01 X18.5707 Y-10.9141
G01 X18.6016 Y-10.8995
G01 X18.6309 Y-10.8819
G01 X18.6562 Y-10.8633
G01 X18.6624 Y-10.8580
G01 X18.6836 Y-10.8386
G01 X18.7066 Y-10.8133
G01 X18.7269 Y-10.7859
G01 X18.7418 Y-10.7613
G01 X18.7469 Y-10.7517
G01 X18.7591 Y-10.7257
G01 X18.7689 Y-10.6987
G01 X18.7714 Y-10.6909
G01 X18.7777 Y-10.6657
G01 X18.7794 Y-10.6577
G01 X18.7836 Y-10.6293
G01 X18.7855 Y-10.5979
G01 X18.7856 Y-10.1175
G01 X18.7839 Y-10.0834
G01 X18.7798 Y-10.0549
G01 X18.7783 Y-10.0469
G01 X18.7721 Y-10.0217
G01 X18.7689 Y-10.0113
G01 X18.7591 Y-9.9843
G01 X18.7469 Y-9.9583
G01 X18.7432 Y-9.9510
G01 X18.7269 Y-9.9241
G01 X18.7083 Y-9.8988
G01 X18.6855 Y-9.8733
G01 X18.6678 Y-9.8568
G01 X18.6846 Y-9.8337
G01 X18.7051 Y-9.7996
G01 X18.7235 Y-9.7613
G01 X18.7267 Y-9.7538
G01 X18.7409 Y-9.7138
G01 X18.7507 Y-9.6752
G01 X18.7528 Y-9.6645
G01 X18.7588 Y-9.6225
G01 X18.7608 Y-9.5800
G01 X18.7608 Y-8.4430
G01 X18.7880 Y-8.4332
G01 X18.8200 Y-8.4180
G01 X18.8503 Y-8.3998
G01 X18.8745 Y-8.3821
G01 X18.8829 Y-8.3752
G01 X18.9069 Y-8.3530
G01 X18.9287 Y-8.3288
G01 X18.9467 Y-8.3048
G01 X18.9527 Y-8.2958
G01 X18.9667 Y-8.2724
G01 X18.9705 Y-8.2651
G01 X18.9832 Y-8.2380
G01 X18.9951 Y-8.2047
G01 X19.0025 Y-8.1756
G01 X19.0046 Y-8.1650
G01 X19.0089 Y-8.1353
G01 X19.0106 Y-8.1027
G01 X19.0106 Y-7.2000
G01 X19.0089 Y-7.1647
G01 X19.0042 Y-7.1323
G01 X19.0025 Y-7.1244
G01 X18.9951 Y-7.0953
G01 X18.9851 Y-7.0671
G01 X18.9810 Y-7.0570
G01 X18.9693 Y-7.0324
G01 X18.9653 Y-7.0253
G01 X18.9498 Y-6.9997
G01 X18.9321 Y-6.9755
G01 X18.9252 Y-6.9671
G01 X18.9050 Y-6.9450
G01 X18.8788 Y-6.9213
G01 X18.8548 Y-6.9033
G01 X18.8481 Y-6.8987
G01 X18.8224 Y-6.8833
G01 X18.8108 Y-6.8775
G01 X18.8108 Y-5.3537
G01 X18.8777 Y-5.3039
G01 X18.9400 Y-5.2476
G01 X18.9476 Y-5.2400
G01 X19.0004 Y-5.1818
G01 X19.0072 Y-5.1734
G01 X19.0571 Y-5.1059
G01 X19.1004 Y-5.0340
G01 X19.1055 Y-5.0244
G01 X19.1413 Y-4.9485
G01 X19.1714 Y-4.8643
G01 X19.1931 Y-4.7776
G01 X19.2056 Y-4.6946
G01 X19.2066 Y-4.6838
G01 X19.2106 Y-4.6000
G01 X19.2062 Y-4.5107
G01 X19.1931 Y-4.4224
G01 X19.1714 Y-4.3357
G01 X19.1413 Y-4.2515
G01 X19.1031 Y-4.1707
G01 X19.0571 Y-4.0941
G01 X19.0056 Y-4.0244
G01 X19.0004 Y-4.0182
G01 X18.9439 Y-3.9561
G01 X18.8818 Y-3.8996
G01 X18.8734 Y-3.8928
G01 X18.8059 Y-3.8429
G01 X18.7340 Y-3.7996
G01 X18.7244 Y-3.7945
G01 X18.6485 Y-3.7587
G01 X18.5643 Y-3.7286
G01 X18.4829 Y-3.7081
G01 X18.4723 Y-3.7060
G01 X18.3946 Y-3.6944
G01 X18.3838 Y-3.6934
G01 X18.3000 Y-3.6894
G01 X18.2162 Y-3.6934
G01 X18.2054 Y-3.6944
G01 X18.1224 Y-3.7069
G01 X18.0409 Y-3.7272
G01 X18.0305 Y-3.7303
G01 X17.9515 Y-3.7587
G01 X17.8756 Y-3.7945
G01 X17.8660 Y-3.7996
G01 X17.7964 Y-3.8414
G01 X17.7897 Y-3.8460
G01 X17.7223 Y-3.8961
G01 X17.6600 Y-3.9524
G01 X17.6542 Y-3.9581
G01 X17.5996 Y-4.0182
G01 X17.5944 Y-4.0244
G01 X17.5429 Y-4.0941
G01 X17.5157 Y-4.1392
G01 X16.8506 Y-4.1392
G01 X16.8506 Y-3.6000
G01 X16.8498 Y-3.5865
G01 X16.8485 Y-3.5784
G01 X16.8466 Y-3.5705
G01 X16.8441 Y-3.5627
G01 X16.8411 Y-3.5552
G01 X16.8375 Y-3.5479
G01 X16.8334 Y-3.5408
G01 X16.8255 Y-3.5298
G01 X16.8201 Y-3.5237
G01 X16.8143 Y-3.5181
G01 X16.8080 Y-3.5128
G01 X16.8014 Y-3.5080
G01 X16.7945 Y-3.5038
G01 X16.7873 Y-3.5000
G01 X16.7798 Y-3.4968
G01 X16.7721 Y-3.4942
G01 X16.7642 Y-3.4921
G01 X16.7562 Y-3.4906
G01 X16.7481 Y-3.4897
G01 X16.7400 Y-3.4894
G01 X14.7400 Y-3.4894
G01 X14.7319 Y-3.4897
G01 X14.7211 Y-3.4910
G01 X14.7131 Y-3.4927
G01 X14.7027 Y-3.4959
G01 X14.6952 Y-3.4989
G01 X14.6879 Y-3.5025
G01 X14.6786 Y-3.5080
G01 X14.6720 Y-3.5128
G01 X14.6657 Y-3.5181
G01 X14.6599 Y-3.5237
G01 X14.6545 Y-3.5298
G01 X14.6496 Y-3.5363
G01 X14.6451 Y-3.5431
G01 X14.6412 Y-3.5503
G01 X14.6378 Y-3.5577
G01 X14.6350 Y-3.5653
G01 X14.6327 Y-3.5731
G01 X14.6310 Y-3.5811
G01 X14.6299 Y-3.5892
G01 X14.6294 Y-3.5973
G01 X14.6294 Y-5.6000
G00 Z2.0000
G00 X14.4160 Y-4.9486
G01 F40.00
G01 Z-0.0601
G01 F100.00
G01 X14.4383 Y-4.8596
G01 X14.4415 Y-4.8450
G01 X14.4580 Y-4.7351
G01 X14.4595 Y-4.7221
G01 X14.4603 Y-4.7110
G01 X14.4651 Y-4.6130
G01 X14.4654 Y-4.5981
G01 X14.4602 Y-4.4871
G01 X14.4591 Y-4.4741
G01 X14.4578 Y-4.4630
G01 X14.4415 Y-4.3550
G01 X14.4383 Y-4.3404
G01 X14.4149 Y-4.2470
G01 X14.4594 Y-4.2406
G01 X14.4746 Y-4.2376
G01 X14.4746 Y-4.9611
G01 X14.4607 Y-4.9569
G01 X14.4442 Y-4.9529
G01 X14.4312 Y-4.9505
G01 X14.4160 Y-4.9486
G00 Z2.0000
G00 X13.6944 Y-3.2943
G01 F40.00
G01 Z-0.0601
G01 F100.00
G01 X13.6924 Y-3.3020
G01 X13.6910 Y-3.3098
G01 X13.6899 Y-3.3229
G01 X13.6899 Y-3.4274
G01 X13.6904 Y-3.4379
G01 X13.6965 Y-3.4808
G01 X13.6989 Y-3.4917
G01 X13.7045 Y-3.5087
G01 X13.7075 Y-3.5164
G01 X13.7123 Y-3.5262
G01 X13.7181 Y-3.5355
G01 X13.7367 Y-3.5598
G01 X13.7550 Y-3.5877
G01 X13.7602 Y-3.5941
G01 X13.7678 Y-3.6019
G01 X13.7740 Y-3.6073
G01 X13.7866 Y-3.6172
G01 X13.9426 Y-3.7305
G01 X14.0695 Y-3.8574
G01 X14.1772 Y-4.0057
G01 X14.1837 Y-4.0134
G01 X14.2047 Y-4.0362
G01 X14.2149 Y-4.0456
G01 X14.2262 Y-4.0535
G01 X14.2359 Y-4.0589
G01 X14.3019 Y-4.0891
G01 X14.3095 Y-4.0922
G01 X14.3200 Y-4.0955
G01 X14.3335 Y-4.0981
G01 X14.3472 Y-4.0991
G01 X14.3609 Y-4.0983
G01 X14.4382 Y-4.0871
G01 X14.4515 Y-4.0836
G01 X14.4592 Y-4.0808
G01 X14.4667 Y-4.0774
G01 X14.4785 Y-4.0704
G01 X14.4873 Y-4.0639
G01 X14.5443 Y-4.0145
G01 X14.5502 Y-4.0088
G01 X14.5556 Y-4.0026
G01 X14.5621 Y-3.9937
G01 X14.5664 Y-3.9867
G01 X14.5701 Y-3.9793
G01 X14.5743 Y-3.9692
G01 X14.5963 Y-3.8944
G01 X14.5981 Y-3.8867
G01 X14.5993 Y-3.8789
G01 X14.6001 Y-3.8657
G01 X14.6001 Y-3.5862
G01 X14.6082 Y-3.5454
G01 X14.6454 Y-3.4897
G01 X14.6544 Y-3.4800
G01 X14.6596 Y-3.4737
G01 X14.6644 Y-3.4670
G01 X14.6699 Y-3.4576
G01 X14.7013 Y-3.3891
G01 X14.7044 Y-3.3815
G01 X14.7070 Y-3.3736
G01 X14.7090 Y-3.3656
G01 X14.7103 Y-3.3575
G01 X14.7111 Y-3.3493
G01 X14.7113 Y-3.3411
G01 X14.7105 Y-3.3301
G01 X14.6998 Y-3.2555
G01 X14.6967 Y-3.2422
G01 X14.6919 Y-3.2293
G01 X14.6856 Y-3.2171
G01 X14.6811 Y-3.2102
G01 X14.6761 Y-3.2037
G01 X14.6267 Y-3.1467
G01 X14.6210 Y-3.1408
G01 X14.6148 Y-3.1354
G01 X14.6059 Y-3.1289
G01 X14.5989 Y-3.1246
G01 X14.5915 Y-3.1209
G01 X14.5814 Y-3.1167
G01 X14.5066 Y-3.0947
G01 X14.4963 Y-3.0924
G01 X14.4858 Y-3.0912
G01 X14.4779 Y-3.0909
G01 X13.9245 Y-3.0909
G01 X13.9140 Y-3.0914
G01 X13.9062 Y-3.0924
G01 X13.8441 Y-3.1059
G01 X13.8336 Y-3.1094
G01 X13.8210 Y-3.1151
G01 X13.8115 Y-3.1207
G01 X13.8027 Y-3.1273
G01 X13.7437 Y-3.1786
G01 X13.7362 Y-3.1866
G01 X13.7294 Y-3.1952
G01 X13.7236 Y-3.2046
G01 X13.7187 Y-3.2144
G01 X13.7141 Y-3.2273
G01 X13.6944 Y-3.2943
G00 Z2.0000
G00 X16.6160 Y-3.3346
G01 F40.00
G01 Z-0.0601
G01 F100.00
G01 X14.8660 Y-3.3346
G01 X14.8651 Y-3.3204
G01 X14.8637 Y-3.3073
G01 X14.8532 Y-3.2343
G01 X14.8499 Y-3.2166
G01 X16.6287 Y-3.2166
G01 X16.6246 Y-3.2352
G01 X16.6219 Y-3.2547
G01 X16.6160 Y-3.3346
G01 X16.7706 Y-3.3440
G01 X16.7705 Y-3.3577
G01 X16.7712 Y-3.3659
G01 X16.7725 Y-3.3740
G01 X16.7745 Y-3.3820
G01 X16.7770 Y-3.3899
G01 X16.7825 Y-3.4024
G01 X16.8199 Y-3.4707
G01 X16.8274 Y-3.4815
G01 X16.8346 Y-3.4898
G01 X16.8718 Y-3.5454
G01 X16.8799 Y-3.5862
G01 X16.8799 Y-3.8755
G01 X16.8802 Y-3.8834
G01 X16.8819 Y-3.8964
G01 X16.8943 Y-3.9532
G01 X16.8984 Y-3.9664
G01 X16.9041 Y-3.9790
G01 X16.9097 Y-3.9885
G01 X16.9163 Y-3.9973
G01 X16.9639 Y-4.0522
G01 X16.9735 Y-4.0620
G01 X16.9798 Y-4.0673
G01 X16.9865 Y-4.0721
G01 X16.9984 Y-4.0789
G01 X17.0059 Y-4.0823
G01 X17.0137 Y-4.0851
G01 X17.0859 Y-4.1063
G01 X17.0936 Y-4.1081
G01 X17.1014 Y-4.1093
G01 X17.1145 Y-4.1101
G01 X17.3772 Y-4.1100
G01 X17.3913 Y-4.1083
G01 X17.4462 Y-4.0969
G01 X17.4567 Y-4.0939
G01 X17.4667 Y-4.0899
G01 X17.4764 Y-4.0849
G01 X17.4877 Y-4.0774
G01 X17.5495 Y-4.0258
G01 X17.5551 Y-4.0202
G01 X17.5603 Y-4.0143
G01 X17.5699 Y-4.0008
G01 X17.7008 Y-3.8699
G01 X17.8548 Y-3.7671
G01 X18.0258 Y-3.6962
G01 X18.2074 Y-3.6601
G01 X18.3926 Y-3.6601
G01 X18.5742 Y-3.6962
G01 X18.7452 Y-3.7671
G01 X18.8992 Y-3.8699
G01 X19.0301 Y-4.0008
G01 X19.1329 Y-4.1548
G01 X19.2038 Y-4.3258
G01 X19.2399 Y-4.5074
G01 X19.2399 Y-4.6926
G01 X19.2038 Y-4.8742
G01 X19.1329 Y-5.0452
G01 X19.0301 Y-5.1992
G01 X18.9065 Y-5.3227
G01 X18.9007 Y-5.3294
G01 X18.8824 Y-5.3522
G01 X18.8748 Y-5.3634
G01 X18.8687 Y-5.3755
G01 X18.8641 Y-5.3883
G01 X18.8437 Y-5.4579
G01 X18.8414 Y-5.4682
G01 X18.8400 Y-5.4812
G01 X18.8399 Y-6.7377
G01 X18.8402 Y-6.7461
G01 X18.8417 Y-6.7573
G01 X18.8506 Y-6.8059
G01 X18.8544 Y-6.8189
G01 X18.8598 Y-6.8313
G01 X18.8637 Y-6.8383
G01 X18.8682 Y-6.8451
G01 X18.9116 Y-6.9032
G01 X18.9201 Y-6.9133
G01 X18.9280 Y-6.9207
G01 X18.9957 Y-7.0112
G01 X19.0354 Y-7.1177
G01 X19.0399 Y-7.1582
G01 X19.0399 Y-8.1419
G01 X19.0356 Y-8.1818
G01 X18.9957 Y-8.2888
G01 X18.9285 Y-8.3785
G01 X18.8839 Y-8.4119
G01 X18.8752 Y-8.4192
G01 X18.8692 Y-8.4251
G01 X18.8374 Y-8.4593
G01 X18.8291 Y-8.4700
G01 X18.8248 Y-8.4768
G01 X18.8209 Y-8.4839
G01 X18.8176 Y-8.4913
G01 X18.8149 Y-8.4990
G01 X18.7937 Y-8.5711
G01 X18.7914 Y-8.5814
G01 X18.7902 Y-8.5919
G01 X18.7899 Y-8.5997
G01 X18.7899 Y-9.6445
G01 X18.7560 Y-9.7713
G01 X18.7500 Y-9.8050
G01 X18.7492 Y-9.8129
G01 X18.7489 Y-9.8208
G01 X18.7492 Y-9.8287
G01 X18.7505 Y-9.8392
G01 X18.7566 Y-9.8679
G01 X18.7566 Y-9.8771
G01 X18.7572 Y-9.8852
G01 X18.7584 Y-9.8933
G01 X18.7602 Y-9.9012
G01 X18.7635 Y-9.9116
G01 X18.8108 Y-10.0383
G01 X18.8149 Y-10.0767
G01 X18.8149 Y-10.6332
G01 X18.8108 Y-10.6717
G01 X18.7693 Y-10.7827
G01 X18.7652 Y-10.7909
G01 X18.7622 Y-10.7984
G01 X18.7596 Y-10.8061
G01 X18.7579 Y-10.8130
G01 X18.7437 Y-10.8481
G01 X18.7408 Y-10.8585
G01 X18.7393 Y-10.8664
G01 X18.7384 Y-10.8744
G01 X18.7381 Y-10.8852
G01 X18.7392 Y-10.8986
G01 X18.7496 Y-10.9705
G01 X18.7527 Y-10.9838
G01 X18.7575 Y-10.9967
G01 X18.7638 Y-11.0089
G01 X18.7715 Y-11.0202
G01 X18.8226 Y-11.0793
G01 X18.8304 Y-11.0870
G01 X18.8412 Y-11.0956
G01 X18.8505 Y-11.1014
G01 X18.8628 Y-11.1073
G01 X18.8732 Y-11.1109
G01 X18.9428 Y-11.1313
G01 X18.9531 Y-11.1336
G01 X18.9635 Y-11.1348
G01 X18.9714 Y-11.1351
G01 X19.5749 Y-11.1351
G01 X19.5868 Y-11.1345
G01 X19.6186 Y-11.1309
G01 X19.6266 Y-11.1293
G01 X19.6345 Y-11.1272
G01 X19.6422 Y-11.1244
G01 X19.6496 Y-11.1212
G01 X19.7157 Y-11.0851
G01 X19.7247 Y-11.0796
G01 X19.7311 Y-11.0750
G01 X19.7390 Y-11.0681
G01 X19.7456 Y-11.0614
G01 X19.7660 Y-11.0363
G01 X19.7708 Y-11.0298
G01 X19.7806 Y-11.0138
G01 X19.7856 Y-11.0038
G01 X19.7887 Y-10.9961
G01 X19.7912 Y-10.9881
G01 X19.7981 Y-10.9566
G01 X19.8070 Y-10.9260
G01 X19.8093 Y-10.9130
G01 X19.8101 Y-10.8999
G01 X19.8101 Y-8.5997
G01 X19.8098 Y-8.5913
G01 X19.8083 Y-8.5801
G01 X19.8005 Y-8.5368
G01 X19.7988 Y-8.5289
G01 X19.7965 Y-8.5211
G01 X19.7936 Y-8.5135
G01 X19.7902 Y-8.5062
G01 X19.7863 Y-8.4991
G01 X19.7802 Y-8.4901
G01 X19.7383 Y-8.4342
G01 X19.7299 Y-8.4242
G01 X19.7242 Y-8.4186
G01 X19.7182 Y-8.4135
G01 X19.6715 Y-8.3785
G01 X19.6043 Y-8.2888
G01 X19.5644 Y-8.1818
G01 X19.5601 Y-8.1419
G01 X19.5601 Y-7.1581
G01 X19.5644 Y-7.1182
G01 X19.6043 Y-7.0112
G01 X19.6715 Y-6.9215
G01 X19.7612 Y-6.8543
G01 X19.8681 Y-6.8144
G01 X19.9081 Y-6.8101
G01 X20.1255 Y-6.8101
G01 X20.1334 Y-6.8098
G01 X20.1464 Y-6.8081
G01 X20.2005 Y-6.7964
G01 X20.2112 Y-6.7935
G01 X20.2190 Y-6.7906
G01 X20.2265 Y-6.7872
G01 X20.2338 Y-6.7832
G01 X20.2407 Y-6.7787
G01 X20.2473 Y-6.7737
G01 X20.3043 Y-6.7243
G01 X20.3120 Y-6.7165
G01 X20.3190 Y-6.7080
G01 X20.3236 Y-6.7012
G01 X20.3277 Y-6.6940
G01 X20.3313 Y-6.6866
G01 X20.3343 Y-6.6789
G01 X20.3563 Y-6.6041
G01 X20.3590 Y-6.5912
G01 X20.3598 Y-6.5834
G01 X20.3601 Y-6.5755
G01 X20.3601 Y-5.5619
G01 X20.3595 Y-5.5505
G01 X20.3583 Y-5.5421
G01 X20.3469 Y-5.4872
G01 X20.3447 Y-5.4793
G01 X20.3410 Y-5.4691
G01 X20.3363 Y-5.4594
G01 X20.3306 Y-5.4501
G01 X20.3241 Y-5.4415
G01 X20.2793 Y-5.3878
G01 X20.2740 Y-5.3820
G01 X20.2663 Y-5.3748
G01 X20.2580 Y-5.3683
G01 X20.2008 Y-5.3301
G01 X20.0699 Y-5.1992
G01 X19.9671 Y-5.0452
G01 X19.8962 Y-4.8742
G01 X19.8601 Y-4.6926
G01 X19.8601 Y-4.5074
G01 X19.8962 Y-4.3258
G01 X19.9671 Y-4.1548
G01 X20.0699 Y-4.0008
G01 X20.2008 Y-3.8699
G01 X20.3548 Y-3.7671
G01 X20.5258 Y-3.6962
G01 X20.7074 Y-3.6601
G01 X20.8926 Y-3.6601
G01 X21.0742 Y-3.6962
G01 X21.2452 Y-3.7671
G01 X21.3992 Y-3.8699
G01 X21.5301 Y-4.0008
G01 X21.6329 Y-4.1548
G01 X21.7038 Y-4.3258
G01 X21.7399 Y-4.5074
G01 X21.7399 Y-4.6926
G01 X21.7038 Y-4.8742
G01 X21.6329 Y-5.0452
G01 X21.5301 Y-5.1992
G01 X21.4065 Y-5.3227
G01 X21.4007 Y-5.3294
G01 X21.3792 Y-5.3566
G01 X21.3748 Y-5.3634
G01 X21.3710 Y-5.3706
G01 X21.3657 Y-5.3831
G01 X21.3444 Y-5.4553
G01 X21.3424 Y-5.4630
G01 X21.3410 Y-5.4708
G01 X21.3402 Y-5.4786
G01 X21.3399 Y-5.4865
G01 X21.3399 Y-7.1645
G01 X21.3065 Y-7.2891
G01 X21.2420 Y-7.4008
G01 X21.1045 Y-7.5385
G01 X21.0841 Y-7.5637
G01 X21.0777 Y-7.5724
G01 X21.0681 Y-7.5885
G01 X21.0624 Y-7.6012
G01 X21.0582 Y-7.6144
G01 X21.0519 Y-7.6433
G01 X21.0430 Y-7.6740
G01 X21.0410 Y-7.6844
G01 X21.0400 Y-7.6948
G01 X21.0399 Y-8.1419
G01 X21.0356 Y-8.1818
G01 X20.9957 Y-8.2888
G01 X20.9285 Y-8.3785
G01 X20.8839 Y-8.4119
G01 X20.8752 Y-8.4192
G01 X20.8692 Y-8.4251
G01 X20.8374 Y-8.4593
G01 X20.8307 Y-8.4678
G01 X20.8261 Y-8.4745
G01 X20.8198 Y-8.4864
G01 X20.8149 Y-8.4990
G01 X20.7944 Y-8.5686
G01 X20.7914 Y-8.5814
G01 X20.7902 Y-8.5919
G01 X20.7899 Y-8.5997
G01 X20.7899 Y-9.8153
G01 X20.7905 Y-9.8266
G01 X20.7917 Y-9.8349
G01 X20.8000 Y-9.8809
G01 X20.8035 Y-9.8940
G01 X20.8086 Y-9.9065
G01 X20.8124 Y-9.9136
G01 X20.8166 Y-9.9205
G01 X20.8617 Y-9.9809
G01 X20.8668 Y-9.9873
G01 X20.8745 Y-9.9952
G01 X20.8807 Y-10.0006
G01 X20.8873 Y-10.0055
G01 X20.8990 Y-10.0126
G01 X20.9090 Y-10.0172
G01 X20.9770 Y-10.0426
G01 X20.9848 Y-10.0452
G01 X20.9955 Y-10.0477
G01 X21.0091 Y-10.0494
G01 X21.0201 Y-10.0495
G01 X21.0311 Y-10.0485
G01 X21.0392 Y-10.0471
G01 X21.1128 Y-10.0309
G01 X21.1206 Y-10.0285
G01 X21.1308 Y-10.0243
G01 X21.1381 Y-10.0205
G01 X21.1452 Y-10.0162
G01 X21.1561 Y-10.0079
G01 X21.1812 Y-9.9832
G01 X21.1900 Y-9.9775
G01 X21.1963 Y-9.9724
G01 X21.2023 Y-9.9669
G01 X21.2079 Y-9.9609
G01 X21.2130 Y-9.9546
G01 X21.2929 Y-9.8479
G01 X21.3798 Y-9.7829
G01 X21.4833 Y-9.7442
G01 X21.5217 Y-9.7401
G01 X22.2999 Y-9.7401
G01 X22.3088 Y-9.7397
G01 X22.3461 Y-9.7355
G01 X22.3593 Y-9.7322
G01 X22.3695 Y-9.7285
G01 X22.3793 Y-9.7237
G01 X22.4429 Y-9.6890
G01 X22.4517 Y-9.6833
G01 X22.4620 Y-9.6750
G01 X22.5435 Y-9.5937
G01 X22.5493 Y-9.5870
G01 X22.5659 Y-9.5663
G01 X22.5738 Y-9.5553
G01 X22.5805 Y-9.5440
G01 X22.5843 Y-9.5365
G01 X22.5876 Y-9.5289
G01 X22.5903 Y-9.5209
G01 X22.5981 Y-9.4867
G01 X22.6076 Y-9.4534
G01 X22.6096 Y-9.4404
G01 X22.6101 Y-9.4299
G01 X22.6101 Y-3.3229
G01 X22.6093 Y-3.3124
G01 X22.6081 Y-3.3046
G01 X22.5957 Y-3.2478
G01 X22.5916 Y-3.2346
G01 X22.5872 Y-3.2245
G01 X22.5818 Y-3.2149
G01 X22.5737 Y-3.2037
G01 X22.5243 Y-3.1467
G01 X22.5165 Y-3.1390
G01 X22.5058 Y-3.1304
G01 X22.4940 Y-3.1233
G01 X22.4815 Y-3.1177
G01 X22.4737 Y-3.1151
G01 X22.4016 Y-3.0940
G01 X22.3886 Y-3.0917
G01 X22.3755 Y-3.0909
G01 X16.9981 Y-3.0910
G01 X16.9865 Y-3.0914
G01 X16.9784 Y-3.0922
G01 X16.9703 Y-3.0936
G01 X16.9623 Y-3.0956
G01 X16.9546 Y-3.0982
G01 X16.8865 Y-3.1236
G01 X16.8766 Y-3.1282
G01 X16.8648 Y-3.1353
G01 X16.8540 Y-3.1438
G01 X16.8462 Y-3.1515
G01 X16.8392 Y-3.1600
G01 X16.7957 Y-3.2181
G01 X16.7885 Y-3.2298
G01 X16.7827 Y-3.2422
G01 X16.7786 Y-3.2553
G01 X16.7761 Y-3.2688
G01 X16.7706 Y-3.3440
G00 Z2.0000
G00 X23.5590 Y-2.4040
G01 F40.00
G01 Z-0.0601
G01 F100.00
G01 X23.5595 Y-2.4171
G01 X23.5605 Y-2.4249
G01 X23.5621 Y-2.4327
G01 X23.5899 Y-2.5365
G01 X23.5901 Y-9.6878
G01 X23.5941 Y-9.7254
G01 X23.5963 Y-9.7361
G01 X23.5986 Y-9.7439
G01 X23.6038 Y-9.7564
G01 X23.6263 Y-9.7979
G01 X23.6299 Y-9.8071
G01 X23.6335 Y-9.8144
G01 X23.6376 Y-9.8214
G01 X23.6423 Y-9.8281
G01 X23.7221 Y-9.9348
G01 X23.7466 Y-10.0004
G01 X23.7522 Y-10.0123
G01 X23.7592 Y-10.0234
G01 X23.7997 Y-10.0800
G01 X23.8089 Y-10.0903
G01 X23.8192 Y-10.0993
G01 X23.8283 Y-10.1055
G01 X23.8404 Y-10.1120
G01 X23.9071 Y-10.1407
G01 X23.9174 Y-10.1445
G01 X23.9254 Y-10.1467
G01 X23.9362 Y-10.1487
G01 X23.9471 Y-10.1496
G01 X23.9554 Y-10.1495
G01 X23.9690 Y-10.1481
G01 X24.0406 Y-10.1361
G01 X24.0539 Y-10.1326
G01 X24.0667 Y-10.1276
G01 X24.0787 Y-10.1210
G01 X24.0898 Y-10.1129
G01 X24.1477 Y-10.0605
G01 X24.1570 Y-10.0504
G01 X24.1650 Y-10.0393
G01 X24.1716 Y-10.0272
G01 X24.1757 Y-10.0171
G01 X24.1782 Y-10.0092
G01 X24.1969 Y-9.9392
G01 X24.1989 Y-9.9288
G01 X24.2000 Y-9.9157
G01 X24.0293 Y-2.6002
G01 X24.0430 Y-2.5956
G01 X24.0555 Y-2.5894
G01 X24.1190 Y-2.5487
G01 X24.1258 Y-2.5440
G01 X24.1342 Y-2.5370
G01 X24.1400 Y-2.5312
G01 X24.1454 Y-2.5250
G01 X24.1534 Y-2.5138
G01 X24.1586 Y-2.5041
G01 X24.1910 Y-2.4330
G01 X24.1953 Y-2.4200
G01 X24.1975 Y-2.4092
G01 X24.1987 Y-2.3983
G01 X24.1987 Y-2.3873
G01 X24.1977 Y-2.3764
G01 X24.1869 Y-2.3018
G01 X24.1834 Y-2.2885
G01 X24.1805 Y-2.2808
G01 X24.1771 Y-2.2733
G01 X24.1702 Y-2.2615
G01 X24.1637 Y-2.2527
G01 X24.1143 Y-2.1957
G01 X24.1085 Y-2.1898
G01 X24.1023 Y-2.1844
G01 X24.0958 Y-2.1794
G01 X24.0888 Y-2.1750
G01 X24.0766 Y-2.1687
G01 X24.0663 Y-2.1649
G01 X23.9941 Y-2.1437
G01 X23.9864 Y-2.1419
G01 X23.9786 Y-2.1407
G01 X23.9655 Y-2.1399
G01 X23.7861 Y-2.1399
G01 X23.7653 Y-2.1412
G01 X23.7545 Y-2.1426
G01 X23.7439 Y-2.1451
G01 X23.7311 Y-2.1497
G01 X23.6669 Y-2.1772
G01 X23.6570 Y-2.1820
G01 X23.6477 Y-2.1878
G01 X23.6411 Y-2.1927
G01 X23.6348 Y-2.1981
G01 X23.6272 Y-2.2060
G01 X23.6188 Y-2.2169
G01 X23.5782 Y-2.2770
G01 X23.5715 Y-2.2890
G01 X23.5663 Y-2.3018
G01 X23.5628 Y-2.3150
G01 X23.5610 Y-2.3286
G01 X23.5590 Y-2.4040
G00 Z2.0000
G00 X24.5132 Y-2.8088
G01 F40.00
G01 Z-0.0601
G01 F100.00
G01 X24.5133 Y-3.4282
G01 X24.4992 Y-2.8260
G01 X24.5132 Y-2.8088
G00 Z2.0000
G00 X24.5144 Y-10.3472
G01 F40.00
G01 Z-0.0601
G01 F100.00
G01 X24.5144 Y-10.3643
G01 X24.5071 Y-10.3559
G01 X24.5144 Y-10.3472
G00 Z2.0000
G00 X23.6204 Y-10.9919
G01 F40.00
G01 Z-0.0601
G01 F100.00
G01 X23.6202 Y-11.0026
G01 X23.6208 Y-11.0108
G01 X23.6220 Y-11.0190
G01 X23.6238 Y-11.0270
G01 X23.6262 Y-11.0349
G01 X23.6342 Y-11.0566
G01 X23.6395 Y-11.0789
G01 X23.6418 Y-11.0865
G01 X23.6445 Y-11.0939
G01 X23.6478 Y-11.1011
G01 X23.6556 Y-11.1150
G01 X23.6602 Y-11.1220
G01 X23.7221 Y-11.2048
G01 X23.7502 Y-11.2799
G01 X23.7551 Y-11.2905
G01 X23.7641 Y-11.3061
G01 X23.7702 Y-11.3148
G01 X23.7935 Y-11.3449
G01 X23.8010 Y-11.3531
G01 X23.8113 Y-11.3628
G01 X23.8198 Y-11.3695
G01 X23.8311 Y-11.3766
G01 X23.8643 Y-11.3921
G01 X23.8946 Y-11.4078
G01 X23.9022 Y-11.4110
G01 X23.9126 Y-11.4144
G01 X23.9207 Y-11.4162
G01 X23.9335 Y-11.4183
G01 X23.9472 Y-11.4193
G01 X23.9581 Y-11.4188
G01 X23.9919 Y-11.4141
G01 X24.0285 Y-11.4106
G01 X24.0366 Y-11.4089
G01 X24.0471 Y-11.4058
G01 X24.0617 Y-11.3999
G01 X24.0715 Y-11.3950
G01 X24.0785 Y-11.3906
G01 X24.0852 Y-11.3858
G01 X24.1110 Y-11.3636
G01 X24.1379 Y-11.3426
G01 X24.1439 Y-11.3370
G01 X24.1496 Y-11.3310
G01 X24.1579 Y-11.3201
G01 X24.1664 Y-11.3069
G01 X24.1701 Y-11.2995
G01 X24.1733 Y-11.2919
G01 X24.1840 Y-11.2567
G01 X24.1952 Y-11.2246
G01 X24.1973 Y-11.2166
G01 X24.1988 Y-11.2085
G01 X24.1997 Y-11.2003
G01 X24.2001 Y-11.1859
G01 X24.2000 Y-10.7885
G01 X24.1992 Y-10.7803
G01 X24.1973 Y-10.7694
G01 X24.1808 Y-10.7047
G01 X24.1764 Y-10.6920
G01 X24.1704 Y-10.6799
G01 X24.1631 Y-10.6687
G01 X24.1544 Y-10.6584
G01 X24.1031 Y-10.6070
G01 X24.0971 Y-10.6014
G01 X24.0862 Y-10.5931
G01 X24.0767 Y-10.5875
G01 X24.0642 Y-10.5819
G01 X24.0511 Y-10.5778
G01 X23.9748 Y-10.5613
G01 X23.9611 Y-10.5599
G01 X23.9474 Y-10.5602
G01 X23.9338 Y-10.5622
G01 X23.9206 Y-10.5658
G01 X23.8500 Y-10.5922
G01 X23.8376 Y-10.5981
G01 X23.8283 Y-10.6039
G01 X23.8217 Y-10.6088
G01 X23.8135 Y-10.6161
G01 X23.8078 Y-10.6221
G01 X23.8027 Y-10.6285
G01 X23.7577 Y-10.6887
G01 X23.7510 Y-10.7001
G01 X23.7466 Y-10.7096
G01 X23.7221 Y-10.7752
G01 X23.6649 Y-10.8517
G01 X23.6492 Y-10.8764
G01 X23.6443 Y-10.8862
G01 X23.6404 Y-10.8965
G01 X23.6381 Y-10.9044
G01 X23.6332 Y-10.9270
G01 X23.6255 Y-10.9487
G01 X23.6232 Y-10.9567
G01 X23.6215 Y-10.9647
G01 X23.6205 Y-10.9729
G01 X23.6200 Y-10.9811
G01 X23.6204 Y-10.9919
G00 Z2.0000
G00 X24.5144 Y-11.6187
G01 F40.00
G01 Z-0.0601
G01 F100.00
G01 X24.5144 Y-11.6344
G01 X24.5078 Y-11.6267
G01 X24.5144 Y-11.6187
G00 Z2.0000
G00 X23.6204 Y-12.2619
G01 F40.00
G01 Z-0.0601
G01 F100.00
G01 X23.6202 Y-12.2726
G01 X23.6208 Y-12.2808
G01 X23.6220 Y-12.2890
G01 X23.6238 Y-12.2970
G01 X23.6262 Y-12.3049
G01 X23.6342 Y-12.3266
G01 X23.6395 Y-12.3489
G01 X23.6418 Y-12.3565
G01 X23.6445 Y-12.3639
G01 X23.6478 Y-12.3711
G01 X23.6556 Y-12.3850
G01 X23.6602 Y-12.3920
G01 X23.7221 Y-12.4748
G01 X23.7502 Y-12.5499
G01 X23.7551 Y-12.5605
G01 X23.7641 Y-12.5761
G01 X23.7702 Y-12.5848
G01 X23.7935 Y-12.6149
G01 X23.8010 Y-12.6231
G01 X23.8113 Y-12.6328
G01 X23.8198 Y-12.6395
G01 X23.8311 Y-12.6466
G01 X23.8643 Y-12.6621
G01 X23.8946 Y-12.6778
G01 X23.9047 Y-12.6820
G01 X23.9126 Y-12.6844
G01 X23.9207 Y-12.6862
G01 X23.9335 Y-12.6883
G01 X23.9472 Y-12.6893
G01 X23.9581 Y-12.6888
G01 X23.9919 Y-12.6841
G01 X24.0285 Y-12.6806
G01 X24.0366 Y-12.6789
G01 X24.0471 Y-12.6758
G01 X24.0617 Y-12.6699
G01 X24.0715 Y-12.6650
G01 X24.0785 Y-12.6606
G01 X24.0852 Y-12.6558
G01 X24.1110 Y-12.6336
G01 X24.1379 Y-12.6126
G01 X24.1439 Y-12.6070
G01 X24.1496 Y-12.6010
G01 X24.1579 Y-12.5901
G01 X24.1664 Y-12.5769
G01 X24.1701 Y-12.5695
G01 X24.1733 Y-12.5619
G01 X24.1840 Y-12.5267
G01 X24.1952 Y-12.4946
G01 X24.1973 Y-12.4866
G01 X24.1988 Y-12.4785
G01 X24.1997 Y-12.4703
G01 X24.2001 Y-12.4559
G01 X24.2000 Y-12.0585
G01 X24.1992 Y-12.0503
G01 X24.1973 Y-12.0394
G01 X24.1808 Y-11.9747
G01 X24.1764 Y-11.9620
G01 X24.1704 Y-11.9499
G01 X24.1631 Y-11.9387
G01 X24.1544 Y-11.9284
G01 X24.1031 Y-11.8770
G01 X24.0971 Y-11.8714
G01 X24.0862 Y-11.8631
G01 X24.0767 Y-11.8575
G01 X24.0642 Y-11.8519
G01 X24.0511 Y-11.8478
G01 X23.9748 Y-11.8313
G01 X23.9611 Y-11.8299
G01 X23.9474 Y-11.8302
G01 X23.9338 Y-11.8322
G01 X23.9206 Y-11.8358
G01 X23.8500 Y-11.8622
G01 X23.8376 Y-11.8681
G01 X23.8283 Y-11.8739
G01 X23.8217 Y-11.8788
G01 X23.8135 Y-11.8861
G01 X23.8078 Y-11.8921
G01 X23.8027 Y-11.8985
G01 X23.7577 Y-11.9587
G01 X23.7510 Y-11.9701
G01 X23.7466 Y-11.9796
G01 X23.7221 Y-12.0452
G01 X23.6649 Y-12.1217
G01 X23.6492 Y-12.1464
G01 X23.6443 Y-12.1562
G01 X23.6404 Y-12.1665
G01 X23.6381 Y-12.1744
G01 X23.6332 Y-12.1970
G01 X23.6255 Y-12.2187
G01 X23.6232 Y-12.2267
G01 X23.6215 Y-12.2347
G01 X23.6205 Y-12.2429
G01 X23.6200 Y-12.2511
G01 X23.6204 Y-12.2619
G00 Z2.0000
G00 X24.5144 Y-12.8887
G01 F40.00
G01 Z-0.0601
G01 F100.00
G01 X24.5144 Y-12.9044
G01 X24.5078 Y-12.8967
G01 X24.5144 Y-12.8887
G00 Z2.0000
G00 X23.6204 Y-13.5319
G01 F40.00
G01 Z-0.0601
G01 F100.00
G01 X23.6202 Y-13.5426
G01 X23.6208 Y-13.5508
G01 X23.6220 Y-13.5590
G01 X23.6238 Y-13.5670
G01 X23.6262 Y-13.5749
G01 X23.6342 Y-13.5966
G01 X23.6395 Y-13.6189
G01 X23.6418 Y-13.6265
G01 X23.6445 Y-13.6339
G01 X23.6478 Y-13.6411
G01 X23.6556 Y-13.6550
G01 X23.6602 Y-13.6620
G01 X23.7221 Y-13.7448
G01 X23.7502 Y-13.8199
G01 X23.7551 Y-13.8305
G01 X23.7641 Y-13.8461
G01 X23.7702 Y-13.8548
G01 X23.7935 Y-13.8849
G01 X23.8010 Y-13.8931
G01 X23.8113 Y-13.9028
G01 X23.8198 Y-13.9095
G01 X23.8311 Y-13.9166
G01 X23.8643 Y-13.9321
G01 X23.8946 Y-13.9478
G01 X23.9047 Y-13.9520
G01 X23.9126 Y-13.9544
G01 X23.9207 Y-13.9562
G01 X23.9335 Y-13.9583
G01 X23.9444 Y-13.9592
G01 X23.9581 Y-13.9588
G01 X23.9919 Y-13.9541
G01 X24.0285 Y-13.9506
G01 X24.0366 Y-13.9489
G01 X24.0471 Y-13.9458
G01 X24.0617 Y-13.9399
G01 X24.0715 Y-13.9350
G01 X24.0785 Y-13.9306
G01 X24.0852 Y-13.9258
G01 X24.1110 Y-13.9036
G01 X24.1379 Y-13.8826
G01 X24.1439 Y-13.8770
G01 X24.1496 Y-13.8710
G01 X24.1579 Y-13.8601
G01 X24.1664 Y-13.8469
G01 X24.1701 Y-13.8395
G01 X24.1733 Y-13.8319
G01 X24.1840 Y-13.7967
G01 X24.1952 Y-13.7646
G01 X24.1973 Y-13.7566
G01 X24.1988 Y-13.7485
G01 X24.1997 Y-13.7403
G01 X24.2001 Y-13.7259
G01 X24.2000 Y-13.3285
G01 X24.1992 Y-13.3203
G01 X24.1973 Y-13.3094
G01 X24.1808 Y-13.2447
G01 X24.1764 Y-13.2320
G01 X24.1704 Y-13.2199
G01 X24.1631 Y-13.2087
G01 X24.1544 Y-13.1984
G01 X24.1031 Y-13.1470
G01 X24.0971 Y-13.1414
G01 X24.0862 Y-13.1331
G01 X24.0767 Y-13.1275
G01 X24.0642 Y-13.1219
G01 X24.0511 Y-13.1178
G01 X23.9748 Y-13.1013
G01 X23.9611 Y-13.0999
G01 X23.9474 Y-13.1002
G01 X23.9338 Y-13.1022
G01 X23.9206 Y-13.1058
G01 X23.8500 Y-13.1322
G01 X23.8376 Y-13.1381
G01 X23.8283 Y-13.1439
G01 X23.8217 Y-13.1488
G01 X23.8135 Y-13.1561
G01 X23.8078 Y-13.1621
G01 X23.8027 Y-13.1685
G01 X23.7577 Y-13.2287
G01 X23.7510 Y-13.2401
G01 X23.7466 Y-13.2496
G01 X23.7221 Y-13.3152
G01 X23.6649 Y-13.3917
G01 X23.6492 Y-13.4164
G01 X23.6443 Y-13.4262
G01 X23.6404 Y-13.4365
G01 X23.6381 Y-13.4444
G01 X23.6332 Y-13.4670
G01 X23.6255 Y-13.4887
G01 X23.6232 Y-13.4967
G01 X23.6215 Y-13.5047
G01 X23.6205 Y-13.5129
G01 X23.6200 Y-13.5211
G01 X23.6204 Y-13.5319
G00 Z2.0000
G00 X24.5144 Y-14.1744
G01 F40.00
G01 Z-0.0601
G01 F100.00
G01 X24.5078 Y-14.1667
G01 X24.5144 Y-14.1587
G01 X24.5144 Y-14.1744
G00 Z2.0000
G00 X21.2145 Y-13.9221
G01 F40.00
G01 Z-0.0601
G01 F100.00
G01 X21.2144 Y-14.4052
G01 X21.2161 Y-14.4366
G01 X21.2202 Y-14.4651
G01 X21.2223 Y-14.4757
G01 X21.2302 Y-14.5061
G01 X21.2399 Y-14.5332
G01 X21.2431 Y-14.5407
G01 X21.2555 Y-14.5666
G01 X21.2702 Y-14.5913
G01 X21.2762 Y-14.6003
G01 X21.2934 Y-14.6233
G01 X21.3126 Y-14.6447
G01 X21.3203 Y-14.6524
G01 X21.3417 Y-14.6716
G01 X21.3647 Y-14.6888
G01 X21.3737 Y-14.6948
G01 X21.3984 Y-14.7095
G01 X21.4243 Y-14.7219
G01 X21.4344 Y-14.7261
G01 X21.4615 Y-14.7356
G01 X21.4919 Y-14.7433
G01 X21.4999 Y-14.7448
G01 X21.5284 Y-14.7489
G01 X21.5625 Y-14.7506
G01 X23.3875 Y-14.7506
G01 X23.4162 Y-14.7493
G01 X23.4243 Y-14.7486
G01 X23.4554 Y-14.7439
G01 X23.4859 Y-14.7364
G01 X23.5156 Y-14.7261
G01 X23.5257 Y-14.7219
G01 X23.5516 Y-14.7095
G01 X23.5809 Y-14.6919
G01 X23.6083 Y-14.6716
G01 X23.6297 Y-14.6524
G01 X23.6355 Y-14.6467
G01 X23.6530 Y-14.6274
G01 X23.6599 Y-14.6191
G01 X23.6769 Y-14.5959
G01 X23.6945 Y-14.5666
G01 X23.7069 Y-14.5407
G01 X23.7111 Y-14.5306
G01 X23.7206 Y-14.5035
G01 X23.7283 Y-14.4731
G01 X23.7298 Y-14.4651
G01 X23.7339 Y-14.4366
G01 X23.7356 Y-14.4052
G01 X23.7356 Y-13.9275
G01 X23.7343 Y-13.8988
G01 X23.7333 Y-13.8880
G01 X23.7289 Y-13.8596
G01 X23.7206 Y-13.8265
G01 X23.7111 Y-13.7994
G01 X23.7069 Y-13.7893
G01 X23.6945 Y-13.7634
G01 X23.6798 Y-13.7387
G01 X23.6738 Y-13.7297
G01 X23.6566 Y-13.7067
G01 X23.6374 Y-13.6853
G01 X23.6297 Y-13.6776
G01 X23.6083 Y-13.6584
G01 X23.5853 Y-13.6412
G01 X23.5763 Y-13.6352
G01 X23.5516 Y-13.6205
G01 X23.5257 Y-13.6081
G01 X23.5156 Y-13.6039
G01 X23.4885 Y-13.5944
G01 X23.4581 Y-13.5867
G01 X23.4501 Y-13.5852
G01 X23.4216 Y-13.5811
G01 X23.3875 Y-13.5794
G01 X21.5625 Y-13.5794
G01 X21.5284 Y-13.5811
G01 X21.4999 Y-13.5852
G01 X21.4919 Y-13.5867
G01 X21.4641 Y-13.5936
G01 X21.4344 Y-13.6039
G01 X21.4268 Y-13.6070
G01 X21.4033 Y-13.6181
G01 X21.3937 Y-13.6232
G01 X21.3691 Y-13.6381
G01 X21.3417 Y-13.6584
G01 X21.3164 Y-13.6814
G01 X21.2952 Y-13.7046
G01 X21.2901 Y-13.7109
G01 X21.2731 Y-13.7341
G01 X21.2582 Y-13.7587
G01 X21.2531 Y-13.7683
G01 X21.2420 Y-13.7918
G01 X21.2389 Y-13.7994
G01 X21.2294 Y-13.8265
G01 X21.2211 Y-13.8596
G01 X21.2161 Y-13.8934
G01 X21.2145 Y-13.9221
G00 Z2.0000
G00 X21.2145 Y-12.6521
G01 F40.00
G01 Z-0.0601
G01 F100.00
G01 X21.2144 Y-13.1352
G01 X21.2161 Y-13.1666
G01 X21.2202 Y-13.1951
G01 X21.2223 Y-13.2057
G01 X21.2302 Y-13.2361
G01 X21.2399 Y-13.2632
G01 X21.2431 Y-13.2707
G01 X21.2555 Y-13.2966
G01 X21.2702 Y-13.3213
G01 X21.2762 Y-13.3303
G01 X21.2934 Y-13.3533
G01 X21.3126 Y-13.3747
G01 X21.3203 Y-13.3824
G01 X21.3417 Y-13.4016
G01 X21.3647 Y-13.4188
G01 X21.3737 Y-13.4248
G01 X21.3984 Y-13.4395
G01 X21.4243 Y-13.4519
G01 X21.4344 Y-13.4561
G01 X21.4615 Y-13.4656
G01 X21.4919 Y-13.4733
G01 X21.4999 Y-13.4748
G01 X21.5284 Y-13.4789
G01 X21.5625 Y-13.4806
G01 X23.3875 Y-13.4806
G01 X23.4162 Y-13.4793
G01 X23.4243 Y-13.4786
G01 X23.4554 Y-13.4739
G01 X23.4859 Y-13.4664
G01 X23.5156 Y-13.4561
G01 X23.5257 Y-13.4519
G01 X23.5516 Y-13.4395
G01 X23.5809 Y-13.4219
G01 X23.6083 Y-13.4016
G01 X23.6297 Y-13.3824
G01 X23.6355 Y-13.3767
G01 X23.6530 Y-13.3574
G01 X23.6599 Y-13.3491
G01 X23.6769 Y-13.3259
G01 X23.6945 Y-13.2966
G01 X23.7069 Y-13.2707
G01 X23.7111 Y-13.2606
G01 X23.7206 Y-13.2335
G01 X23.7283 Y-13.2031
G01 X23.7298 Y-13.1951
G01 X23.7339 Y-13.1666
G01 X23.7356 Y-13.1352
G01 X23.7356 Y-12.6575
G01 X23.7343 Y-12.6288
G01 X23.7333 Y-12.6180
G01 X23.7289 Y-12.5896
G01 X23.7206 Y-12.5565
G01 X23.7111 Y-12.5294
G01 X23.7069 Y-12.5193
G01 X23.6945 Y-12.4934
G01 X23.6798 Y-12.4687
G01 X23.6738 Y-12.4597
G01 X23.6566 Y-12.4367
G01 X23.6374 Y-12.4153
G01 X23.6297 Y-12.4076
G01 X23.6083 Y-12.3884
G01 X23.5853 Y-12.3712
G01 X23.5763 Y-12.3652
G01 X23.5516 Y-12.3505
G01 X23.5257 Y-12.3381
G01 X23.5156 Y-12.3339
G01 X23.4885 Y-12.3244
G01 X23.4581 Y-12.3167
G01 X23.4501 Y-12.3152
G01 X23.4216 Y-12.3111
G01 X23.3875 Y-12.3094
G01 X21.5625 Y-12.3094
G01 X21.5284 Y-12.3111
G01 X21.4999 Y-12.3152
G01 X21.4919 Y-12.3167
G01 X21.4641 Y-12.3236
G01 X21.4344 Y-12.3339
G01 X21.4268 Y-12.3370
G01 X21.4033 Y-12.3481
G01 X21.3937 Y-12.3532
G01 X21.3691 Y-12.3681
G01 X21.3417 Y-12.3884
G01 X21.3164 Y-12.4114
G01 X21.2952 Y-12.4346
G01 X21.2901 Y-12.4409
G01 X21.2731 Y-12.4641
G01 X21.2582 Y-12.4887
G01 X21.2531 Y-12.4983
G01 X21.2420 Y-12.5218
G01 X21.2389 Y-12.5294
G01 X21.2294 Y-12.5565
G01 X21.2211 Y-12.5896
G01 X21.2161 Y-12.6234
G01 X21.2145 Y-12.6521
G00 Z2.0000
G00 X21.2145 Y-11.3821
G01 F40.00
G01 Z-0.0601
G01 F100.00
G01 X21.2144 Y-11.8652
G01 X21.2161 Y-11.8966
G01 X21.2202 Y-11.9251
G01 X21.2223 Y-11.9357
G01 X21.2302 Y-11.9661
G01 X21.2399 Y-11.9932
G01 X21.2431 Y-12.0007
G01 X21.2555 Y-12.0266
G01 X21.2702 Y-12.0513
G01 X21.2762 Y-12.0603
G01 X21.2934 Y-12.0833
G01 X21.3126 Y-12.1047
G01 X21.3203 Y-12.1124
G01 X21.3417 Y-12.1316
G01 X21.3647 Y-12.1488
G01 X21.3737 Y-12.1548
G01 X21.3984 Y-12.1695
G01 X21.4243 Y-12.1819
G01 X21.4344 Y-12.1861
G01 X21.4615 Y-12.1956
G01 X21.4919 Y-12.2033
G01 X21.4999 Y-12.2048
G01 X21.5284 Y-12.2089
G01 X21.5625 Y-12.2106
G01 X23.3875 Y-12.2106
G01 X23.4162 Y-12.2093
G01 X23.4243 Y-12.2086
G01 X23.4554 Y-12.2039
G01 X23.4859 Y-12.1964
G01 X23.5156 Y-12.1861
G01 X23.5257 Y-12.1819
G01 X23.5516 Y-12.1695
G01 X23.5809 Y-12.1519
G01 X23.6083 Y-12.1316
G01 X23.6297 Y-12.1124
G01 X23.6355 Y-12.1067
G01 X23.6530 Y-12.0874
G01 X23.6599 Y-12.0791
G01 X23.6769 Y-12.0559
G01 X23.6945 Y-12.0266
G01 X23.7069 Y-12.0007
G01 X23.7111 Y-11.9906
G01 X23.7206 Y-11.9635
G01 X23.7283 Y-11.9331
G01 X23.7298 Y-11.9251
G01 X23.7339 Y-11.8966
G01 X23.7356 Y-11.8652
G01 X23.7356 Y-11.3875
G01 X23.7343 Y-11.3588
G01 X23.7333 Y-11.3480
G01 X23.7289 Y-11.3196
G01 X23.7206 Y-11.2865
G01 X23.7111 Y-11.2594
G01 X23.7069 Y-11.2493
G01 X23.6945 Y-11.2234
G01 X23.6798 Y-11.1987
G01 X23.6738 Y-11.1897
G01 X23.6566 Y-11.1667
G01 X23.6374 Y-11.1453
G01 X23.6297 Y-11.1376
G01 X23.6083 Y-11.1184
G01 X23.5853 Y-11.1012
G01 X23.5763 Y-11.0952
G01 X23.5516 Y-11.0805
G01 X23.5257 Y-11.0681
G01 X23.5156 Y-11.0639
G01 X23.4885 Y-11.0544
G01 X23.4581 Y-11.0467
G01 X23.4501 Y-11.0452
G01 X23.4216 Y-11.0411
G01 X23.3875 Y-11.0394
G01 X21.5625 Y-11.0394
G01 X21.5284 Y-11.0411
G01 X21.4999 Y-11.0452
G01 X21.4919 Y-11.0467
G01 X21.4641 Y-11.0536
G01 X21.4344 Y-11.0639
G01 X21.4268 Y-11.0670
G01 X21.4033 Y-11.0781
G01 X21.3937 Y-11.0832
G01 X21.3691 Y-11.0981
G01 X21.3417 Y-11.1184
G01 X21.3164 Y-11.1414
G01 X21.2952 Y-11.1646
G01 X21.2901 Y-11.1709
G01 X21.2731 Y-11.1941
G01 X21.2582 Y-11.2187
G01 X21.2531 Y-11.2283
G01 X21.2420 Y-11.2518
G01 X21.2389 Y-11.2594
G01 X21.2294 Y-11.2865
G01 X21.2211 Y-11.3196
G01 X21.2161 Y-11.3534
G01 X21.2145 Y-11.3821
G01 X21.1086 Y-11.1715
G01 X21.0592 Y-11.1517
G01 X21.0468 Y-11.1472
G01 X21.0278 Y-11.1416
G01 X21.0085 Y-11.1375
G01 X20.9861 Y-11.1345
G01 X20.9730 Y-11.1336
G01 X20.9626 Y-11.1334
G01 X20.9401 Y-11.1344
G01 X20.9270 Y-11.1358
G01 X20.9156 Y-11.1376
G01 X20.9156 Y-10.1850
G01 X20.9335 Y-10.1914
G01 X20.9499 Y-10.1961
G01 X20.9654 Y-10.1996
G01 X20.9850 Y-10.2026
G01 X21.0019 Y-10.2041
G01 X21.0217 Y-10.2044
G01 X21.0414 Y-10.2032
G01 X21.0596 Y-10.2008
G01 X21.0597 Y-10.6009
G01 X21.0611 Y-10.6307
G01 X21.0625 Y-10.6464
G01 X21.0677 Y-10.6823
G01 X21.0721 Y-10.7033
G01 X21.0789 Y-10.7304
G01 X21.0826 Y-10.7429
G01 X21.0938 Y-10.7746
G01 X21.0986 Y-10.7867
G01 X21.1181 Y-10.8279
G01 X21.1244 Y-10.8393
G01 X21.1418 Y-10.8681
G01 X21.1507 Y-10.8810
G01 X21.1708 Y-10.9080
G01 X21.1792 Y-10.9180
G01 X21.1992 Y-10.9401
G01 X21.2129 Y-10.9540
G01 X21.2336 Y-10.9728
G01 X21.2449 Y-10.9825
G01 X21.2547 Y-10.9900
G01 X21.2370 Y-11.0042
G01 X21.2102 Y-11.0286
G01 X21.1979 Y-11.0413
G01 X21.1810 Y-11.0600
G01 X21.1725 Y-11.0699
G01 X21.1507 Y-11.0990
G01 X21.1398 Y-11.1152
G01 X21.1212 Y-11.1464
G01 X21.1151 Y-11.1579
G01 X21.1086 Y-11.1715
G00 Z2.0000
G00 X2.1311 Y-15.8292
G01 F40.00
G01 Z-0.0601
G01 F100.00
G01 X1.8208 Y-15.7381
G01 X1.5667 Y-15.4448
G01 X1.5108 Y-15.1878
G01 X1.5108 Y-2.2911
G01 X1.6019 Y-1.9808
G01 X1.8952 Y-1.7267
G01 X2.1522 Y-1.6708
G01 X24.0489 Y-1.6708
G01 X24.3592 Y-1.7619
G01 X24.6279 Y-2.0720
G01 X24.6680 Y-2.3506
G01 X24.6692 Y-9.9129
G01 X24.6692 Y-15.2089
G01 X24.5781 Y-15.5192
G01 X24.2848 Y-15.7733
G01 X24.0278 Y-15.8292
G01 X2.1311 Y-15.8292
G01 X2.1089 Y-15.9841
G01 X1.7336 Y-15.8739
G01 X1.4238 Y-15.5164
G01 X1.3559 Y-15.2045
G01 X1.3559 Y-2.2689
G01 X1.4661 Y-1.8936
G01 X1.8236 Y-1.5838
G01 X2.1355 Y-1.5159
G01 X24.0711 Y-1.5159
G01 X24.4464 Y-1.6261
G01 X24.7747 Y-2.0050
G01 X24.8228 Y-2.3395
G01 X24.8240 Y-9.9129
G01 X24.8241 Y-15.2311
G01 X24.7139 Y-15.6064
G01 X24.3564 Y-15.9162
G01 X24.0445 Y-15.9841
G01 X2.1089 Y-15.9841
G01 X2.0866 Y-16.1389
G01 X1.6463 Y-16.0096
G01 X1.2809 Y-15.5879
G01 X1.2011 Y-15.2211
G01 X1.2011 Y-2.2466
G01 X1.3304 Y-1.8063
G01 X1.7521 Y-1.4409
G01 X2.1189 Y-1.3611
G01 X24.0934 Y-1.3611
G01 X24.5337 Y-1.4904
G01 X24.9215 Y-1.9379
G01 X24.9776 Y-2.3285
G01 X24.9789 Y-9.9129
G01 X24.9789 Y-15.2534
G01 X24.8496 Y-15.6937
G01 X24.4279 Y-16.0591
G01 X24.0611 Y-16.1389
G01 X2.0866 Y-16.1389
G00 Z2.0000
M05
G00 Z2.0000
G00 Z25.00


