(G-CODE GENERATED BY FLATCAM v8.994 - www.flatcam.org - Version Date: 2020/11/7)

(Name: Modulo LIFI-Edge_Cuts.gbr_cutout_cnc)
(Type: G-code from Geometry)
(Units: MM)

(Created on Wednesday, 03 December 2025 at 16:10)

(This preprocessor is the default preprocessor used by FlatCAM.)
(It is made to work with MACH3 compatible motion controllers.)

(TOOL DIAMETER: 0.5 mm)
(Feedrate_XY: 100.0 mm/min)
(Feedrate_Z: 40.0 mm/min)
(Feedrate rapids 1500.0 mm/min)

(Z_Cut: -1.8 mm)
(DepthPerCut: 0.3 mm <=>6 passes)
(Z_Move: 2.0 mm)
(Z Start: None mm)
(Z End: 25.0 mm)
(X,Y End: None mm)
(Steps per circle: 64)
(Preprocessor Geometry: default)

(X range:    1.2150 ...   25.0410  mm)
(Y range:  -16.2010 ...   -1.3750  mm)

(Spindle Speed: 1000.0 RPM)
G21
G90
G94

G01 F100.00

M5
G00 Z15.0000
G00 X0.0000 Y0.0000
T1
M6    
(MSG, Change to Tool Dia = 0.5000)
M0
G00 Z15.0000

M03 S1000.0
G01 F100.00
G00 X1.2150 Y-1.7500
G01 F40.00
G01 Z-0.3000
G01 F100.00
G01 X1.2155 Y-1.7304
G01 X1.2189 Y-1.6962
G01 X1.2260 Y-1.6601
G01 X1.2365 Y-1.6248
G01 X1.2505 Y-1.5908
G01 X1.2677 Y-1.5583
G01 X1.2881 Y-1.5276
G01 X1.3113 Y-1.4991
G01 X1.3373 Y-1.4730
G01 X1.3656 Y-1.4495
G01 X1.3962 Y-1.4290
G01 X1.4286 Y-1.4115
G01 X1.4625 Y-1.3974
G01 X1.4977 Y-1.3866
G01 X1.5338 Y-1.3793
G01 X1.5704 Y-1.3755
G01 X1.5900 Y-1.3750
G01 X24.6660 Y-1.3750
G01 X24.6856 Y-1.3755
G01 X24.7198 Y-1.3789
G01 X24.7583 Y-1.3866
G01 X24.7935 Y-1.3974
G01 X24.8252 Y-1.4105
G01 X24.8598 Y-1.4290
G01 X24.8884 Y-1.4481
G01 X24.9169 Y-1.4713
G01 X24.9430 Y-1.4973
G01 X24.9664 Y-1.5256
G01 X24.9883 Y-1.5583
G01 X25.0055 Y-1.5908
G01 X25.0195 Y-1.6248
G01 X25.0294 Y-1.6577
G01 X25.0371 Y-1.6962
G01 X25.0405 Y-1.7304
G01 X25.0410 Y-1.7500
G01 X25.0410 Y-15.8260
G01 X25.0405 Y-15.8456
G01 X25.0371 Y-15.8798
G01 X25.0294 Y-15.9183
G01 X25.0195 Y-15.9512
G01 X25.0055 Y-15.9852
G01 X24.9870 Y-16.0198
G01 X24.9664 Y-16.0504
G01 X24.9447 Y-16.0769
G01 X24.9187 Y-16.1030
G01 X24.8884 Y-16.1279
G01 X24.8577 Y-16.1483
G01 X24.8252 Y-16.1655
G01 X24.7912 Y-16.1795
G01 X24.7583 Y-16.1894
G01 X24.7198 Y-16.1971
G01 X24.6856 Y-16.2005
G01 X24.6660 Y-16.2010
G01 X1.5900 Y-16.2010
G01 X1.5704 Y-16.2005
G01 X1.5362 Y-16.1971
G01 X1.4977 Y-16.1894
G01 X1.4625 Y-16.1786
G01 X1.4308 Y-16.1655
G01 X1.3962 Y-16.1470
G01 X1.3676 Y-16.1279
G01 X1.3391 Y-16.1047
G01 X1.3130 Y-16.0787
G01 X1.2895 Y-16.0504
G01 X1.2677 Y-16.0177
G01 X1.2505 Y-15.9852
G01 X1.2374 Y-15.9535
G01 X1.2266 Y-15.9183
G01 X1.2189 Y-15.8798
G01 X1.2155 Y-15.8456
G01 X1.2150 Y-15.8260
G01 X1.2150 Y-1.7500
G00 X1.2150 Y-1.7500
G01 F40.00
G01 Z-0.6000
G01 F100.00
G01 X1.2155 Y-1.7304
G01 X1.2189 Y-1.6962
G01 X1.2260 Y-1.6601
G01 X1.2365 Y-1.6248
G01 X1.2505 Y-1.5908
G01 X1.2677 Y-1.5583
G01 X1.2881 Y-1.5276
G01 X1.3113 Y-1.4991
G01 X1.3373 Y-1.4730
G01 X1.3656 Y-1.4495
G01 X1.3962 Y-1.4290
G01 X1.4286 Y-1.4115
G01 X1.4625 Y-1.3974
G01 X1.4977 Y-1.3866
G01 X1.5338 Y-1.3793
G01 X1.5704 Y-1.3755
G01 X1.5900 Y-1.3750
G01 X24.6660 Y-1.3750
G01 X24.6856 Y-1.3755
G01 X24.7198 Y-1.3789
G01 X24.7583 Y-1.3866
G01 X24.7935 Y-1.3974
G01 X24.8252 Y-1.4105
G01 X24.8598 Y-1.4290
G01 X24.8884 Y-1.4481
G01 X24.9169 Y-1.4713
G01 X24.9430 Y-1.4973
G01 X24.9664 Y-1.5256
G01 X24.9883 Y-1.5583
G01 X25.0055 Y-1.5908
G01 X25.0195 Y-1.6248
G01 X25.0294 Y-1.6577
G01 X25.0371 Y-1.6962
G01 X25.0405 Y-1.7304
G01 X25.0410 Y-1.7500
G01 X25.0410 Y-15.8260
G01 X25.0405 Y-15.8456
G01 X25.0371 Y-15.8798
G01 X25.0294 Y-15.9183
G01 X25.0195 Y-15.9512
G01 X25.0055 Y-15.9852
G01 X24.9870 Y-16.0198
G01 X24.9664 Y-16.0504
G01 X24.9447 Y-16.0769
G01 X24.9187 Y-16.1030
G01 X24.8884 Y-16.1279
G01 X24.8577 Y-16.1483
G01 X24.8252 Y-16.1655
G01 X24.7912 Y-16.1795
G01 X24.7583 Y-16.1894
G01 X24.7198 Y-16.1971
G01 X24.6856 Y-16.2005
G01 X24.6660 Y-16.2010
G01 X1.5900 Y-16.2010
G01 X1.5704 Y-16.2005
G01 X1.5362 Y-16.1971
G01 X1.4977 Y-16.1894
G01 X1.4625 Y-16.1786
G01 X1.4308 Y-16.1655
G01 X1.3962 Y-16.1470
G01 X1.3676 Y-16.1279
G01 X1.3391 Y-16.1047
G01 X1.3130 Y-16.0787
G01 X1.2895 Y-16.0504
G01 X1.2677 Y-16.0177
G01 X1.2505 Y-15.9852
G01 X1.2374 Y-15.9535
G01 X1.2266 Y-15.9183
G01 X1.2189 Y-15.8798
G01 X1.2155 Y-15.8456
G01 X1.2150 Y-15.8260
G01 X1.2150 Y-1.7500
G00 X1.2150 Y-1.7500
G01 F40.00
G01 Z-0.9000
G01 F100.00
G01 X1.2155 Y-1.7304
G01 X1.2189 Y-1.6962
G01 X1.2260 Y-1.6601
G01 X1.2365 Y-1.6248
G01 X1.2505 Y-1.5908
G01 X1.2677 Y-1.5583
G01 X1.2881 Y-1.5276
G01 X1.3113 Y-1.4991
G01 X1.3373 Y-1.4730
G01 X1.3656 Y-1.4495
G01 X1.3962 Y-1.4290
G01 X1.4286 Y-1.4115
G01 X1.4625 Y-1.3974
G01 X1.4977 Y-1.3866
G01 X1.5338 Y-1.3793
G01 X1.5704 Y-1.3755
G01 X1.5900 Y-1.3750
G01 X24.6660 Y-1.3750
G01 X24.6856 Y-1.3755
G01 X24.7198 Y-1.3789
G01 X24.7583 Y-1.3866
G01 X24.7935 Y-1.3974
G01 X24.8252 Y-1.4105
G01 X24.8598 Y-1.4290
G01 X24.8884 Y-1.4481
G01 X24.9169 Y-1.4713
G01 X24.9430 Y-1.4973
G01 X24.9664 Y-1.5256
G01 X24.9883 Y-1.5583
G01 X25.0055 Y-1.5908
G01 X25.0195 Y-1.6248
G01 X25.0294 Y-1.6577
G01 X25.0371 Y-1.6962
G01 X25.0405 Y-1.7304
G01 X25.0410 Y-1.7500
G01 X25.0410 Y-15.8260
G01 X25.0405 Y-15.8456
G01 X25.0371 Y-15.8798
G01 X25.0294 Y-15.9183
G01 X25.0195 Y-15.9512
G01 X25.0055 Y-15.9852
G01 X24.9870 Y-16.0198
G01 X24.9664 Y-16.0504
G01 X24.9447 Y-16.0769
G01 X24.9187 Y-16.1030
G01 X24.8884 Y-16.1279
G01 X24.8577 Y-16.1483
G01 X24.8252 Y-16.1655
G01 X24.7912 Y-16.1795
G01 X24.7583 Y-16.1894
G01 X24.7198 Y-16.1971
G01 X24.6856 Y-16.2005
G01 X24.6660 Y-16.2010
G01 X1.5900 Y-16.2010
G01 X1.5704 Y-16.2005
G01 X1.5362 Y-16.1971
G01 X1.4977 Y-16.1894
G01 X1.4625 Y-16.1786
G01 X1.4308 Y-16.1655
G01 X1.3962 Y-16.1470
G01 X1.3676 Y-16.1279
G01 X1.3391 Y-16.1047
G01 X1.3130 Y-16.0787
G01 X1.2895 Y-16.0504
G01 X1.2677 Y-16.0177
G01 X1.2505 Y-15.9852
G01 X1.2374 Y-15.9535
G01 X1.2266 Y-15.9183
G01 X1.2189 Y-15.8798
G01 X1.2155 Y-15.8456
G01 X1.2150 Y-15.8260
G01 X1.2150 Y-1.7500
G00 X1.2150 Y-1.7500
G01 F40.00
G01 Z-1.2000
G01 F100.00
G01 X1.2155 Y-1.7304
G01 X1.2189 Y-1.6962
G01 X1.2260 Y-1.6601
G01 X1.2365 Y-1.6248
G01 X1.2505 Y-1.5908
G01 X1.2677 Y-1.5583
G01 X1.2881 Y-1.5276
G01 X1.3113 Y-1.4991
G01 X1.3373 Y-1.4730
G01 X1.3656 Y-1.4495
G01 X1.3962 Y-1.4290
G01 X1.4286 Y-1.4115
G01 X1.4625 Y-1.3974
G01 X1.4977 Y-1.3866
G01 X1.5338 Y-1.3793
G01 X1.5704 Y-1.3755
G01 X1.5900 Y-1.3750
G01 X24.6660 Y-1.3750
G01 X24.6856 Y-1.3755
G01 X24.7198 Y-1.3789
G01 X24.7583 Y-1.3866
G01 X24.7935 Y-1.3974
G01 X24.8252 Y-1.4105
G01 X24.8598 Y-1.4290
G01 X24.8884 Y-1.4481
G01 X24.9169 Y-1.4713
G01 X24.9430 Y-1.4973
G01 X24.9664 Y-1.5256
G01 X24.9883 Y-1.5583
G01 X25.0055 Y-1.5908
G01 X25.0195 Y-1.6248
G01 X25.0294 Y-1.6577
G01 X25.0371 Y-1.6962
G01 X25.0405 Y-1.7304
G01 X25.0410 Y-1.7500
G01 X25.0410 Y-15.8260
G01 X25.0405 Y-15.8456
G01 X25.0371 Y-15.8798
G01 X25.0294 Y-15.9183
G01 X25.0195 Y-15.9512
G01 X25.0055 Y-15.9852
G01 X24.9870 Y-16.0198
G01 X24.9664 Y-16.0504
G01 X24.9447 Y-16.0769
G01 X24.9187 Y-16.1030
G01 X24.8884 Y-16.1279
G01 X24.8577 Y-16.1483
G01 X24.8252 Y-16.1655
G01 X24.7912 Y-16.1795
G01 X24.7583 Y-16.1894
G01 X24.7198 Y-16.1971
G01 X24.6856 Y-16.2005
G01 X24.6660 Y-16.2010
G01 X1.5900 Y-16.2010
G01 X1.5704 Y-16.2005
G01 X1.5362 Y-16.1971
G01 X1.4977 Y-16.1894
G01 X1.4625 Y-16.1786
G01 X1.4308 Y-16.1655
G01 X1.3962 Y-16.1470
G01 X1.3676 Y-16.1279
G01 X1.3391 Y-16.1047
G01 X1.3130 Y-16.0787
G01 X1.2895 Y-16.0504
G01 X1.2677 Y-16.0177
G01 X1.2505 Y-15.9852
G01 X1.2374 Y-15.9535
G01 X1.2266 Y-15.9183
G01 X1.2189 Y-15.8798
G01 X1.2155 Y-15.8456
G01 X1.2150 Y-15.8260
G01 X1.2150 Y-1.7500
G00 X1.2150 Y-1.7500
G01 F40.00
G01 Z-1.5000
G01 F100.00
G01 X1.2155 Y-1.7304
G01 X1.2189 Y-1.6962
G01 X1.2260 Y-1.6601
G01 X1.2365 Y-1.6248
G01 X1.2505 Y-1.5908
G01 X1.2677 Y-1.5583
G01 X1.2881 Y-1.5276
G01 X1.3113 Y-1.4991
G01 X1.3373 Y-1.4730
G01 X1.3656 Y-1.4495
G01 X1.3962 Y-1.4290
G01 X1.4286 Y-1.4115
G01 X1.4625 Y-1.3974
G01 X1.4977 Y-1.3866
G01 X1.5338 Y-1.3793
G01 X1.5704 Y-1.3755
G01 X1.5900 Y-1.3750
G01 X24.6660 Y-1.3750
G01 X24.6856 Y-1.3755
G01 X24.7198 Y-1.3789
G01 X24.7583 Y-1.3866
G01 X24.7935 Y-1.3974
G01 X24.8252 Y-1.4105
G01 X24.8598 Y-1.4290
G01 X24.8884 Y-1.4481
G01 X24.9169 Y-1.4713
G01 X24.9430 Y-1.4973
G01 X24.9664 Y-1.5256
G01 X24.9883 Y-1.5583
G01 X25.0055 Y-1.5908
G01 X25.0195 Y-1.6248
G01 X25.0294 Y-1.6577
G01 X25.0371 Y-1.6962
G01 X25.0405 Y-1.7304
G01 X25.0410 Y-1.7500
G01 X25.0410 Y-15.8260
G01 X25.0405 Y-15.8456
G01 X25.0371 Y-15.8798
G01 X25.0294 Y-15.9183
G01 X25.0195 Y-15.9512
G01 X25.0055 Y-15.9852
G01 X24.9870 Y-16.0198
G01 X24.9664 Y-16.0504
G01 X24.9447 Y-16.0769
G01 X24.9187 Y-16.1030
G01 X24.8884 Y-16.1279
G01 X24.8577 Y-16.1483
G01 X24.8252 Y-16.1655
G01 X24.7912 Y-16.1795
G01 X24.7583 Y-16.1894
G01 X24.7198 Y-16.1971
G01 X24.6856 Y-16.2005
G01 X24.6660 Y-16.2010
G01 X1.5900 Y-16.2010
G01 X1.5704 Y-16.2005
G01 X1.5362 Y-16.1971
G01 X1.4977 Y-16.1894
G01 X1.4625 Y-16.1786
G01 X1.4308 Y-16.1655
G01 X1.3962 Y-16.1470
G01 X1.3676 Y-16.1279
G01 X1.3391 Y-16.1047
G01 X1.3130 Y-16.0787
G01 X1.2895 Y-16.0504
G01 X1.2677 Y-16.0177
G01 X1.2505 Y-15.9852
G01 X1.2374 Y-15.9535
G01 X1.2266 Y-15.9183
G01 X1.2189 Y-15.8798
G01 X1.2155 Y-15.8456
G01 X1.2150 Y-15.8260
G01 X1.2150 Y-1.7500
G00 X1.2150 Y-1.7500
G01 F40.00
G01 Z-1.8000
G01 F100.00
G01 X1.2155 Y-1.7304
G01 X1.2189 Y-1.6962
G01 X1.2260 Y-1.6601
G01 X1.2365 Y-1.6248
G01 X1.2505 Y-1.5908
G01 X1.2677 Y-1.5583
G01 X1.2881 Y-1.5276
G01 X1.3113 Y-1.4991
G01 X1.3373 Y-1.4730
G01 X1.3656 Y-1.4495
G01 X1.3962 Y-1.4290
G01 X1.4286 Y-1.4115
G01 X1.4625 Y-1.3974
G01 X1.4977 Y-1.3866
G01 X1.5338 Y-1.3793
G01 X1.5704 Y-1.3755
G01 X1.5900 Y-1.3750
G01 X24.6660 Y-1.3750
G01 X24.6856 Y-1.3755
G01 X24.7198 Y-1.3789
G01 X24.7583 Y-1.3866
G01 X24.7935 Y-1.3974
G01 X24.8252 Y-1.4105
G01 X24.8598 Y-1.4290
G01 X24.8884 Y-1.4481
G01 X24.9169 Y-1.4713
G01 X24.9430 Y-1.4973
G01 X24.9664 Y-1.5256
G01 X24.9883 Y-1.5583
G01 X25.0055 Y-1.5908
G01 X25.0195 Y-1.6248
G01 X25.0294 Y-1.6577
G01 X25.0371 Y-1.6962
G01 X25.0405 Y-1.7304
G01 X25.0410 Y-1.7500
G01 X25.0410 Y-15.8260
G01 X25.0405 Y-15.8456
G01 X25.0371 Y-15.8798
G01 X25.0294 Y-15.9183
G01 X25.0195 Y-15.9512
G01 X25.0055 Y-15.9852
G01 X24.9870 Y-16.0198
G01 X24.9664 Y-16.0504
G01 X24.9447 Y-16.0769
G01 X24.9187 Y-16.1030
G01 X24.8884 Y-16.1279
G01 X24.8577 Y-16.1483
G01 X24.8252 Y-16.1655
G01 X24.7912 Y-16.1795
G01 X24.7583 Y-16.1894
G01 X24.7198 Y-16.1971
G01 X24.6856 Y-16.2005
G01 X24.6660 Y-16.2010
G01 X1.5900 Y-16.2010
G01 X1.5704 Y-16.2005
G01 X1.5362 Y-16.1971
G01 X1.4977 Y-16.1894
G01 X1.4625 Y-16.1786
G01 X1.4308 Y-16.1655
G01 X1.3962 Y-16.1470
G01 X1.3676 Y-16.1279
G01 X1.3391 Y-16.1047
G01 X1.3130 Y-16.0787
G01 X1.2895 Y-16.0504
G01 X1.2677 Y-16.0177
G01 X1.2505 Y-15.9852
G01 X1.2374 Y-15.9535
G01 X1.2266 Y-15.9183
G01 X1.2189 Y-15.8798
G01 X1.2155 Y-15.8456
G01 X1.2150 Y-15.8260
G01 X1.2150 Y-1.7500
G00 Z2.0000
M05
G00 Z2.0000
G00 Z25.00


