(G-CODE GENERATED BY FLATCAM v8.994 - www.flatcam.org - Version Date: 2020/11/7)

(Name: Modulo LIFI-F_Cu.gbr_ncc_cnc)
(Type: G-code from Geometry)
(Units: MM)

(Created on Wednesday, 03 December 2025 at 16:07)

(This preprocessor is the default preprocessor used by FlatCAM.)
(It is made to work with MACH3 compatible motion controllers.)

(TOOL DIAMETER: 0.2212 mm)
(Feedrate_XY: 100.0 mm/min)
(Feedrate_Z: 40.0 mm/min)
(Feedrate rapids 1500.0 mm/min)

(Z_Cut: -0.0601 mm)
(Z_Move: 2.0 mm)
(Z Start: None mm)
(Z End: 15.0 mm)
(X,Y End: None mm)
(Steps per circle: 64)
(Preprocessor Geometry: default)

(X range:    1.2011 ...   25.0549  mm)
(Y range:  -16.2149 ...   -1.3611  mm)

(Spindle Speed: 1000.0 RPM)
G21
G90
G94

G01 F100.00

M5
G00 Z15.0000
G00 X0.0000 Y0.0000
T3
M6    
(MSG, Change to Tool Dia = 0.2212)
M0
G00 Z15.0000

M03 S1000.0
G01 F100.00
G00 X1.6872 Y-2.2561
G01 F40.00
G01 Z-0.0601
G01 F100.00
G01 X1.6802 Y-2.2834
G01 X1.6771 Y-2.2986
G01 X1.6748 Y-2.3129
G01 X1.6728 Y-2.3283
G01 X1.6714 Y-2.3427
G01 X1.6705 Y-2.3582
G01 X1.6702 Y-2.3745
G01 X1.6703 Y-15.2097
G01 X1.6709 Y-15.2252
G01 X1.6720 Y-15.2396
G01 X1.6737 Y-15.2550
G01 X1.6757 Y-15.2694
G01 X1.6798 Y-15.2908
G01 X1.6912 Y-15.3433
G01 X1.6955 Y-15.3609
G01 X1.6994 Y-15.3747
G01 X1.7041 Y-15.3892
G01 X1.7136 Y-15.4142
G01 X1.7250 Y-15.4394
G01 X1.7377 Y-15.4630
G01 X1.7455 Y-15.4761
G01 X1.7544 Y-15.4897
G01 X1.7632 Y-15.5021
G01 X1.7731 Y-15.5150
G01 X1.7834 Y-15.5275
G01 X1.8298 Y-15.5810
G01 X1.8452 Y-15.5978
G01 X1.8559 Y-15.6085
G01 X1.8678 Y-15.6195
G01 X1.8889 Y-15.6371
G01 X1.9003 Y-15.6457
G01 X1.9127 Y-15.6544
G01 X1.9369 Y-15.6695
G01 X1.9535 Y-15.6786
G01 X1.9688 Y-15.6862
G01 X1.9861 Y-15.6939
G01 X2.0030 Y-15.7005
G01 X2.0263 Y-15.7082
G01 X2.1022 Y-15.7305
G01 X2.1172 Y-15.7343
G01 X2.1313 Y-15.7375
G01 X2.1583 Y-15.7420
G01 X2.1864 Y-15.7448
G01 X2.2136 Y-15.7458
G01 X24.0443 Y-15.7458
G01 X24.0596 Y-15.7454
G01 X24.0751 Y-15.7444
G01 X24.0896 Y-15.7430
G01 X24.1076 Y-15.7405
G01 X24.1299 Y-15.7364
G01 X24.1833 Y-15.7248
G01 X24.1990 Y-15.7210
G01 X24.2247 Y-15.7134
G01 X24.2507 Y-15.7039
G01 X24.2639 Y-15.6982
G01 X24.2777 Y-15.6918
G01 X24.3013 Y-15.6793
G01 X24.3161 Y-15.6705
G01 X24.3297 Y-15.6616
G01 X24.3421 Y-15.6528
G01 X24.3550 Y-15.6429
G01 X24.3675 Y-15.6325
G01 X24.4210 Y-15.5862
G01 X24.4378 Y-15.5708
G01 X24.4570 Y-15.5510
G01 X24.4664 Y-15.5403
G01 X24.4759 Y-15.5286
G01 X24.4928 Y-15.5056
G01 X24.5011 Y-15.4930
G01 X24.5086 Y-15.4808
G01 X24.5169 Y-15.4659
G01 X24.5254 Y-15.4490
G01 X24.5328 Y-15.4324
G01 X24.5398 Y-15.4148
G01 X24.5482 Y-15.3897
G01 X24.5705 Y-15.3138
G01 X24.5769 Y-15.2872
G01 X24.5796 Y-15.2730
G01 X24.5820 Y-15.2577
G01 X24.5848 Y-15.2296
G01 X24.5858 Y-15.2024
G01 X24.5857 Y-2.3682
G01 X24.5852 Y-2.3527
G01 X24.5842 Y-2.3382
G01 X24.5826 Y-2.3228
G01 X24.5802 Y-2.3066
G01 X24.5762 Y-2.2852
G01 X24.5648 Y-2.2327
G01 X24.5605 Y-2.2151
G01 X24.5528 Y-2.1894
G01 X24.5477 Y-2.1751
G01 X24.5424 Y-2.1618
G01 X24.5310 Y-2.1366
G01 X24.5183 Y-2.1130
G01 X24.5105 Y-2.0999
G01 X24.5016 Y-2.0863
G01 X24.4928 Y-2.0739
G01 X24.4829 Y-2.0609
G01 X24.4725 Y-2.0485
G01 X24.4262 Y-1.9950
G01 X24.4108 Y-1.9781
G01 X24.3910 Y-1.9590
G01 X24.3803 Y-1.9496
G01 X24.3686 Y-1.9401
G01 X24.3456 Y-1.9232
G01 X24.3330 Y-1.9149
G01 X24.3208 Y-1.9074
G01 X24.2983 Y-1.8952
G01 X24.2742 Y-1.8839
G01 X24.2504 Y-1.8746
G01 X24.2279 Y-1.8672
G01 X24.1564 Y-1.8462
G01 X24.1326 Y-1.8402
G01 X24.1148 Y-1.8367
G01 X24.0977 Y-1.8340
G01 X24.0796 Y-1.8320
G01 X24.0633 Y-1.8308
G01 X24.0415 Y-1.8302
G01 X22.7678 Y-1.8302
G01 X22.7528 Y-1.8305
G01 X22.7298 Y-1.8316
G01 X22.7045 Y-1.8341
G01 X22.6802 Y-1.8380
G01 X22.6554 Y-1.8435
G01 X22.6336 Y-1.8497
G01 X22.6130 Y-1.8567
G01 X22.5387 Y-1.8845
G01 X22.5160 Y-1.8943
G01 X22.4932 Y-1.9058
G01 X22.4702 Y-1.9192
G01 X22.4512 Y-1.9318
G01 X22.4308 Y-1.9472
G01 X22.4119 Y-1.9632
G01 X22.3954 Y-1.9789
G01 X22.3780 Y-1.9976
G01 X22.3622 Y-2.0166
G01 X22.3449 Y-2.0396
G01 X22.3246 Y-2.0318
G01 X22.2896 Y-2.0192
G01 X22.2745 Y-2.0143
G01 X22.2528 Y-2.0082
G01 X22.2167 Y-1.9992
G01 X22.2012 Y-1.9957
G01 X22.1790 Y-1.9918
G01 X22.1422 Y-1.9864
G01 X22.1264 Y-1.9845
G01 X22.1049 Y-1.9828
G01 X22.0668 Y-1.9809
G01 X22.0519 Y-1.9806
G01 X13.4546 Y-1.9805
G01 X13.4021 Y-1.9488
G01 X13.3866 Y-1.9401
G01 X13.3691 Y-1.9311
G01 X13.3213 Y-1.9085
G01 X13.3050 Y-1.9013
G01 X13.2876 Y-1.8944
G01 X13.2351 Y-1.8756
G01 X13.2164 Y-1.8696
G01 X13.1993 Y-1.8648
G01 X13.1444 Y-1.8511
G01 X13.1269 Y-1.8474
G01 X13.1103 Y-1.8446
G01 X13.0579 Y-1.8369
G01 X13.0374 Y-1.8346
G01 X13.0216 Y-1.8334
G01 X12.9716 Y-1.8310
G01 X12.9548 Y-1.8305
G01 X6.5916 Y-1.8306
G01 X6.5303 Y-1.8334
G01 X6.5117 Y-1.8347
G01 X6.4921 Y-1.8370
G01 X6.4407 Y-1.8446
G01 X6.4241 Y-1.8474
G01 X6.4066 Y-1.8511
G01 X6.3517 Y-1.8648
G01 X6.3364 Y-1.8690
G01 X6.3159 Y-1.8756
G01 X6.2643 Y-1.8941
G01 X6.2495 Y-1.8998
G01 X6.2348 Y-1.9062
G01 X6.1836 Y-1.9303
G01 X6.1694 Y-1.9374
G01 X6.1514 Y-1.9474
G01 X6.1154 Y-1.9690
G01 X6.1005 Y-1.9552
G01 X6.0846 Y-1.9418
G01 X6.0679 Y-1.9291
G01 X6.0507 Y-1.9174
G01 X6.0329 Y-1.9065
G01 X6.0146 Y-1.8965
G01 X5.9958 Y-1.8874
G01 X5.9784 Y-1.8800
G01 X5.9624 Y-1.8740
G01 X5.9444 Y-1.8680
G01 X5.8728 Y-1.8470
G01 X5.8526 Y-1.8416
G01 X5.8312 Y-1.8371
G01 X5.8114 Y-1.8340
G01 X5.7916 Y-1.8318
G01 X5.7690 Y-1.8304
G01 X2.2082 Y-1.8303
G01 X2.1908 Y-1.8309
G01 X2.1727 Y-1.8323
G01 X2.1565 Y-1.8342
G01 X2.1386 Y-1.8371
G01 X2.0653 Y-1.8529
G01 X2.0469 Y-1.8578
G01 X2.0268 Y-1.8641
G01 X2.0097 Y-1.8704
G01 X1.9921 Y-1.8777
G01 X1.9766 Y-1.8850
G01 X1.9597 Y-1.8939
G01 X1.9439 Y-1.9030
G01 X1.9279 Y-1.9133
G01 X1.9139 Y-1.9232
G01 X1.8973 Y-1.9361
G01 X1.8321 Y-1.9924
G01 X1.8209 Y-2.0026
G01 X1.8107 Y-2.0126
G01 X1.7965 Y-2.0278
G01 X1.7830 Y-2.0437
G01 X1.7703 Y-2.0603
G01 X1.7584 Y-2.0775
G01 X1.7474 Y-2.0952
G01 X1.7373 Y-2.1135
G01 X1.7282 Y-2.1322
G01 X1.7200 Y-2.1514
G01 X1.7140 Y-2.1674
G01 X1.7088 Y-2.1827
G01 X1.6872 Y-2.2561
G01 X1.8358 Y-2.2997
G01 X1.8315 Y-2.3163
G01 X1.8280 Y-2.3349
G01 X1.8259 Y-2.3537
G01 X1.8251 Y-2.3745
G01 X1.8252 Y-15.2096
G01 X1.8264 Y-15.2286
G01 X1.8291 Y-15.2473
G01 X1.8450 Y-15.3204
G01 X1.8508 Y-15.3395
G01 X1.8569 Y-15.3555
G01 X1.8635 Y-15.3701
G01 X1.8715 Y-15.3852
G01 X1.8821 Y-15.4021
G01 X1.8956 Y-15.4203
G01 X1.9544 Y-15.4880
G01 X1.9665 Y-15.5000
G01 X1.9814 Y-15.5129
G01 X1.9973 Y-15.5247
G01 X2.0107 Y-15.5333
G01 X2.0222 Y-15.5398
G01 X2.0340 Y-15.5457
G01 X2.0460 Y-15.5511
G01 X2.0583 Y-15.5558
G01 X2.0727 Y-15.5605
G01 X2.1415 Y-15.5807
G01 X2.1599 Y-15.5852
G01 X2.1785 Y-15.5885
G01 X2.1974 Y-15.5904
G01 X2.2145 Y-15.5909
G01 X24.0460 Y-15.5909
G01 X24.0649 Y-15.5899
G01 X24.0837 Y-15.5876
G01 X24.0979 Y-15.5849
G01 X24.1513 Y-15.5732
G01 X24.1668 Y-15.5692
G01 X24.1795 Y-15.5652
G01 X24.1919 Y-15.5606
G01 X24.2041 Y-15.5554
G01 X24.2160 Y-15.5495
G01 X24.2309 Y-15.5411
G01 X24.2421 Y-15.5339
G01 X24.2551 Y-15.5245
G01 X24.2668 Y-15.5149
G01 X24.3196 Y-15.4691
G01 X24.3327 Y-15.4570
G01 X24.3418 Y-15.4475
G01 X24.3505 Y-15.4375
G01 X24.3609 Y-15.4241
G01 X24.3684 Y-15.4132
G01 X24.3753 Y-15.4020
G01 X24.3816 Y-15.3904
G01 X24.3874 Y-15.3785
G01 X24.3925 Y-15.3664
G01 X24.3999 Y-15.3452
G01 X24.4202 Y-15.2763
G01 X24.4239 Y-15.2623
G01 X24.4269 Y-15.2473
G01 X24.4288 Y-15.2348
G01 X24.4304 Y-15.2186
G01 X24.4309 Y-15.2060
G01 X24.4309 Y-2.3700
G01 X24.4295 Y-2.3474
G01 X24.4269 Y-2.3287
G01 X24.4110 Y-2.2555
G01 X24.4061 Y-2.2391
G01 X24.3991 Y-2.2205
G01 X24.3925 Y-2.2059
G01 X24.3845 Y-2.1908
G01 X24.3723 Y-2.1716
G01 X24.3604 Y-2.1557
G01 X24.3016 Y-2.0880
G01 X24.2875 Y-2.0741
G01 X24.2745 Y-2.0631
G01 X24.2618 Y-2.0535
G01 X24.2453 Y-2.0427
G01 X24.2304 Y-2.0344
G01 X24.2160 Y-2.0275
G01 X24.2003 Y-2.0211
G01 X24.1833 Y-2.0155
G01 X24.1163 Y-1.9958
G01 X24.1023 Y-1.9921
G01 X24.0899 Y-1.9895
G01 X24.0774 Y-1.9875
G01 X24.0649 Y-1.9861
G01 X24.0523 Y-1.9853
G01 X22.7678 Y-1.9851
G01 X22.7476 Y-1.9856
G01 X22.7318 Y-1.9868
G01 X22.7188 Y-1.9884
G01 X22.7058 Y-1.9908
G01 X22.6931 Y-1.9937
G01 X22.6804 Y-1.9973
G01 X22.6662 Y-2.0021
G01 X22.5964 Y-2.0282
G01 X22.5783 Y-2.0361
G01 X22.5632 Y-2.0440
G01 X22.5463 Y-2.0543
G01 X22.5303 Y-2.0659
G01 X22.5201 Y-2.0743
G01 X22.5103 Y-2.0831
G01 X22.5010 Y-2.0925
G01 X22.4922 Y-2.1022
G01 X22.4810 Y-2.1162
G01 X22.4364 Y-2.1759
G01 X22.4254 Y-2.1923
G01 X22.4157 Y-2.2095
G01 X22.4073 Y-2.2274
G01 X22.4003 Y-2.2457
G01 X22.3894 Y-2.2381
G01 X22.3800 Y-2.2322
G01 X22.3466 Y-2.2122
G01 X22.3293 Y-2.2030
G01 X22.2948 Y-2.1867
G01 X22.2828 Y-2.1815
G01 X22.2295 Y-2.1625
G01 X22.2170 Y-2.1589
G01 X22.1800 Y-2.1496
G01 X22.1672 Y-2.1469
G01 X22.1563 Y-2.1450
G01 X22.1204 Y-2.1397
G01 X22.1074 Y-2.1382
G01 X22.0509 Y-2.1354
G01 X13.4053 Y-2.1354
G01 X13.3833 Y-2.1191
G01 X13.3725 Y-2.1118
G01 X13.3233 Y-2.0821
G01 X13.3079 Y-2.0736
G01 X13.2458 Y-2.0443
G01 X13.2319 Y-2.0389
G01 X13.1777 Y-2.0197
G01 X13.1626 Y-2.0153
G01 X13.1112 Y-2.0024
G01 X13.0985 Y-1.9997
G01 X13.0875 Y-1.9978
G01 X13.0371 Y-1.9903
G01 X13.0242 Y-1.9888
G01 X12.9640 Y-1.9856
G01 X12.9510 Y-1.9853
G01 X6.5916 Y-1.9854
G01 X6.5379 Y-1.9880
G01 X6.5231 Y-1.9892
G01 X6.4635 Y-1.9978
G01 X6.4488 Y-2.0004
G01 X6.3796 Y-2.0177
G01 X6.3654 Y-2.0224
G01 X6.3113 Y-2.0419
G01 X6.2951 Y-2.0489
G01 X6.2407 Y-2.0748
G01 X6.2277 Y-2.0821
G01 X6.1817 Y-2.1098
G01 X6.1655 Y-2.1207
G01 X6.1208 Y-2.1539
G01 X6.1078 Y-2.1646
G01 X6.0913 Y-2.1794
G01 X6.0822 Y-2.1661
G01 X6.0717 Y-2.1527
G01 X6.0229 Y-2.0964
G01 X6.0127 Y-2.0852
G01 X6.0013 Y-2.0741
G01 X5.9883 Y-2.0631
G01 X5.9756 Y-2.0535
G01 X5.9591 Y-2.0427
G01 X5.9442 Y-2.0344
G01 X5.9298 Y-2.0275
G01 X5.9141 Y-2.0211
G01 X5.8989 Y-2.0161
G01 X5.8301 Y-1.9958
G01 X5.8161 Y-1.9921
G01 X5.8037 Y-1.9895
G01 X5.7912 Y-1.9875
G01 X5.7698 Y-1.9855
G01 X5.7553 Y-1.9851
G01 X2.2127 Y-1.9851
G01 X2.1911 Y-1.9861
G01 X2.1785 Y-1.9875
G01 X2.1661 Y-1.9895
G01 X2.1020 Y-2.0034
G01 X2.0918 Y-2.0060
G01 X2.0791 Y-2.0099
G01 X2.0666 Y-2.0144
G01 X2.0544 Y-2.0195
G01 X2.0342 Y-2.0296
G01 X2.0227 Y-2.0364
G01 X2.0116 Y-2.0437
G01 X2.0031 Y-2.0498
G01 X1.9927 Y-2.0581
G01 X1.9364 Y-2.1069
G01 X1.9233 Y-2.1190
G01 X1.9141 Y-2.1285
G01 X1.9055 Y-2.1385
G01 X1.8974 Y-2.1488
G01 X1.8876 Y-2.1628
G01 X1.8807 Y-2.1740
G01 X1.8731 Y-2.1880
G01 X1.8675 Y-2.1999
G01 X1.8625 Y-2.2121
G01 X1.8561 Y-2.2308
G01 X1.8358 Y-2.2997
G01 X1.9844 Y-2.3433
G01 X1.9824 Y-2.3510
G01 X1.9810 Y-2.3588
G01 X1.9802 Y-2.3666
G01 X1.9799 Y-2.3745
G01 X1.9799 Y-15.2015
G01 X1.9804 Y-15.2120
G01 X1.9819 Y-15.2224
G01 X1.9943 Y-15.2792
G01 X1.9965 Y-15.2872
G01 X1.9994 Y-15.2950
G01 X2.0054 Y-15.3074
G01 X2.0097 Y-15.3144
G01 X2.0163 Y-15.3233
G01 X2.0657 Y-15.3803
G01 X2.0715 Y-15.3862
G01 X2.0777 Y-15.3916
G01 X2.0842 Y-15.3966
G01 X2.0912 Y-15.4010
G01 X2.1009 Y-15.4061
G01 X2.1137 Y-15.4111
G01 X2.1833 Y-15.4316
G01 X2.1910 Y-15.4336
G01 X2.1988 Y-15.4350
G01 X2.2066 Y-15.4358
G01 X2.2145 Y-15.4361
G01 X24.0441 Y-15.4361
G01 X24.0546 Y-15.4353
G01 X24.0624 Y-15.4341
G01 X24.1192 Y-15.4217
G01 X24.1298 Y-15.4186
G01 X24.1425 Y-15.4132
G01 X24.1521 Y-15.4078
G01 X24.1633 Y-15.3997
G01 X24.2182 Y-15.3521
G01 X24.2243 Y-15.3465
G01 X24.2333 Y-15.3362
G01 X24.2396 Y-15.3272
G01 X24.2461 Y-15.3151
G01 X24.2502 Y-15.3049
G01 X24.2730 Y-15.2276
G01 X24.2753 Y-15.2146
G01 X24.2761 Y-15.2015
G01 X24.2761 Y-2.3745
G01 X24.2756 Y-2.3640
G01 X24.2741 Y-2.3536
G01 X24.2617 Y-2.2968
G01 X24.2595 Y-2.2888
G01 X24.2566 Y-2.2810
G01 X24.2506 Y-2.2686
G01 X24.2447 Y-2.2593
G01 X24.2397 Y-2.2527
G01 X24.1903 Y-2.1957
G01 X24.1845 Y-2.1898
G01 X24.1783 Y-2.1844
G01 X24.1717 Y-2.1794
G01 X24.1648 Y-2.1750
G01 X24.1526 Y-2.1687
G01 X24.1423 Y-2.1649
G01 X24.0727 Y-2.1444
G01 X24.0598 Y-2.1414
G01 X24.0520 Y-2.1404
G01 X24.0441 Y-2.1399
G01 X22.7678 Y-2.1399
G01 X22.7523 Y-2.1404
G01 X22.7441 Y-2.1412
G01 X22.7334 Y-2.1432
G01 X22.7229 Y-2.1463
G01 X22.6548 Y-2.1716
G01 X22.6472 Y-2.1748
G01 X22.6352 Y-2.1813
G01 X22.6261 Y-2.1875
G01 X22.6158 Y-2.1965
G01 X22.6084 Y-2.2046
G01 X22.5599 Y-2.2694
G01 X22.5530 Y-2.2812
G01 X22.5485 Y-2.2912
G01 X22.5443 Y-2.3043
G01 X22.5418 Y-2.3178
G01 X22.5362 Y-2.3957
G01 X22.5364 Y-2.4094
G01 X22.5378 Y-2.4203
G01 X22.5402 Y-2.4310
G01 X22.5448 Y-2.4440
G01 X22.5496 Y-2.4539
G01 X22.5831 Y-2.5152
G01 X22.5871 Y-2.5220
G01 X22.5932 Y-2.5305
G01 X22.6019 Y-2.5404
G01 X22.8944 Y-2.8328
G01 X22.9535 Y-2.9213
G01 X22.9942 Y-3.0195
G01 X23.0149 Y-3.1238
G01 X23.0149 Y-9.6305
G01 X23.0152 Y-9.6384
G01 X23.0160 Y-9.6462
G01 X23.0174 Y-9.6540
G01 X23.0299 Y-9.7109
G01 X23.0344 Y-9.7240
G01 X23.0378 Y-9.7315
G01 X23.0418 Y-9.7388
G01 X23.0463 Y-9.7457
G01 X23.0513 Y-9.7523
G01 X23.1007 Y-9.8093
G01 X23.1065 Y-9.8152
G01 X23.1127 Y-9.8206
G01 X23.1192 Y-9.8256
G01 X23.1262 Y-9.8300
G01 X23.1384 Y-9.8363
G01 X23.1487 Y-9.8401
G01 X23.2209 Y-9.8613
G01 X23.2338 Y-9.8640
G01 X23.2416 Y-9.8648
G01 X23.2495 Y-9.8651
G01 X23.3491 Y-9.8651
G01 X23.3609 Y-9.8662
G01 X23.4606 Y-9.9011
G01 X23.5431 Y-9.9619
G01 X23.6039 Y-10.0444
G01 X23.6388 Y-10.1441
G01 X23.6399 Y-10.1559
G01 X23.6399 Y-10.5541
G01 X23.6388 Y-10.5659
G01 X23.6039 Y-10.6656
G01 X23.5431 Y-10.7481
G01 X23.4664 Y-10.8048
G01 X23.4456 Y-10.8229
G01 X23.4383 Y-10.8307
G01 X23.4332 Y-10.8370
G01 X23.4287 Y-10.8436
G01 X23.4246 Y-10.8506
G01 X23.3915 Y-10.9121
G01 X23.3879 Y-10.9195
G01 X23.3840 Y-10.9298
G01 X23.3810 Y-10.9404
G01 X23.3792 Y-10.9512
G01 X23.3784 Y-10.9621
G01 X23.3787 Y-10.9731
G01 X23.3842 Y-11.0428
G01 X23.3851 Y-11.0509
G01 X23.3873 Y-11.0617
G01 X23.3906 Y-11.0722
G01 X23.3949 Y-11.0823
G01 X23.3987 Y-11.0896
G01 X23.4063 Y-11.1010
G01 X23.4486 Y-11.1566
G01 X23.4536 Y-11.1628
G01 X23.4590 Y-11.1685
G01 X23.4648 Y-11.1738
G01 X23.4710 Y-11.1788
G01 X23.5431 Y-11.2319
G01 X23.6039 Y-11.3144
G01 X23.6388 Y-11.4141
G01 X23.6399 Y-11.4259
G01 X23.6399 Y-11.8241
G01 X23.6388 Y-11.8359
G01 X23.6039 Y-11.9356
G01 X23.5431 Y-12.0181
G01 X23.4664 Y-12.0748
G01 X23.4456 Y-12.0929
G01 X23.4383 Y-12.1007
G01 X23.4332 Y-12.1070
G01 X23.4287 Y-12.1136
G01 X23.4246 Y-12.1206
G01 X23.3915 Y-12.1821
G01 X23.3879 Y-12.1895
G01 X23.3840 Y-12.1998
G01 X23.3810 Y-12.2104
G01 X23.3792 Y-12.2212
G01 X23.3784 Y-12.2321
G01 X23.3787 Y-12.2431
G01 X23.3842 Y-12.3128
G01 X23.3851 Y-12.3209
G01 X23.3867 Y-12.3290
G01 X23.3897 Y-12.3396
G01 X23.3937 Y-12.3498
G01 X23.3987 Y-12.3596
G01 X23.4063 Y-12.3710
G01 X23.4486 Y-12.4266
G01 X23.4536 Y-12.4328
G01 X23.4590 Y-12.4385
G01 X23.4648 Y-12.4438
G01 X23.4710 Y-12.4488
G01 X23.5431 Y-12.5019
G01 X23.6039 Y-12.5844
G01 X23.6388 Y-12.6841
G01 X23.6399 Y-12.6959
G01 X23.6399 Y-13.0941
G01 X23.6388 Y-13.1059
G01 X23.6039 Y-13.2056
G01 X23.5431 Y-13.2881
G01 X23.4664 Y-13.3448
G01 X23.4456 Y-13.3629
G01 X23.4400 Y-13.3687
G01 X23.4349 Y-13.3749
G01 X23.4301 Y-13.3814
G01 X23.4259 Y-13.3882
G01 X23.3915 Y-13.4521
G01 X23.3879 Y-13.4595
G01 X23.3840 Y-13.4698
G01 X23.3817 Y-13.4777
G01 X23.3795 Y-13.4885
G01 X23.3785 Y-13.4994
G01 X23.3787 Y-13.5131
G01 X23.3842 Y-13.5828
G01 X23.3851 Y-13.5909
G01 X23.3873 Y-13.6017
G01 X23.3906 Y-13.6122
G01 X23.3937 Y-13.6198
G01 X23.3987 Y-13.6296
G01 X23.4063 Y-13.6410
G01 X23.4486 Y-13.6966
G01 X23.4536 Y-13.7028
G01 X23.4590 Y-13.7085
G01 X23.4648 Y-13.7138
G01 X23.4710 Y-13.7188
G01 X23.5431 Y-13.7719
G01 X23.6039 Y-13.8544
G01 X23.6388 Y-13.9541
G01 X23.6399 Y-13.9659
G01 X23.6399 Y-14.3641
G01 X23.6388 Y-14.3759
G01 X23.6039 Y-14.4756
G01 X23.5431 Y-14.5581
G01 X23.4606 Y-14.6189
G01 X23.3609 Y-14.6538
G01 X23.3491 Y-14.6549
G01 X21.6009 Y-14.6549
G01 X21.5891 Y-14.6538
G01 X21.4894 Y-14.6189
G01 X21.4069 Y-14.5581
G01 X21.3461 Y-14.4756
G01 X21.3112 Y-14.3759
G01 X21.3101 Y-14.3641
G01 X21.3101 Y-13.9659
G01 X21.3112 Y-13.9541
G01 X21.3461 Y-13.8544
G01 X21.4069 Y-13.7719
G01 X21.4835 Y-13.7152
G01 X21.5024 Y-13.6989
G01 X21.5081 Y-13.6933
G01 X21.5151 Y-13.6851
G01 X21.5213 Y-13.6764
G01 X21.5254 Y-13.6694
G01 X21.5585 Y-13.6079
G01 X21.5632 Y-13.5980
G01 X21.5669 Y-13.5876
G01 X21.5695 Y-13.5770
G01 X21.5711 Y-13.5661
G01 X21.5716 Y-13.5524
G01 X21.5658 Y-13.4772
G01 X21.5649 Y-13.4691
G01 X21.5633 Y-13.4610
G01 X21.5603 Y-13.4504
G01 X21.5563 Y-13.4402
G01 X21.5513 Y-13.4304
G01 X21.5437 Y-13.4190
G01 X21.5014 Y-13.3633
G01 X21.4964 Y-13.3572
G01 X21.4910 Y-13.3515
G01 X21.4852 Y-13.3462
G01 X21.4790 Y-13.3412
G01 X21.4069 Y-13.2881
G01 X21.3461 Y-13.2056
G01 X21.3112 Y-13.1059
G01 X21.3101 Y-13.0941
G01 X21.3101 Y-12.6959
G01 X21.3112 Y-12.6841
G01 X21.3461 Y-12.5844
G01 X21.4069 Y-12.5019
G01 X21.4835 Y-12.4452
G01 X21.5044 Y-12.4271
G01 X21.5100 Y-12.4213
G01 X21.5168 Y-12.4130
G01 X21.5213 Y-12.4064
G01 X21.5254 Y-12.3994
G01 X21.5585 Y-12.3379
G01 X21.5632 Y-12.3280
G01 X21.5669 Y-12.3176
G01 X21.5695 Y-12.3070
G01 X21.5711 Y-12.2961
G01 X21.5716 Y-12.2851
G01 X21.5713 Y-12.2769
G01 X21.5658 Y-12.2072
G01 X21.5649 Y-12.1991
G01 X21.5633 Y-12.1910
G01 X21.5603 Y-12.1804
G01 X21.5563 Y-12.1702
G01 X21.5513 Y-12.1604
G01 X21.5437 Y-12.1490
G01 X21.5014 Y-12.0933
G01 X21.4964 Y-12.0872
G01 X21.4910 Y-12.0815
G01 X21.4852 Y-12.0762
G01 X21.4790 Y-12.0712
G01 X21.4069 Y-12.0181
G01 X21.3461 Y-11.9356
G01 X21.3112 Y-11.8359
G01 X21.3101 Y-11.8241
G01 X21.3101 Y-11.4259
G01 X21.3112 Y-11.4141
G01 X21.3461 Y-11.3144
G01 X21.4069 Y-11.2319
G01 X21.4835 Y-11.1752
G01 X21.5044 Y-11.1571
G01 X21.5117 Y-11.1493
G01 X21.5168 Y-11.1430
G01 X21.5213 Y-11.1364
G01 X21.5254 Y-11.1294
G01 X21.5585 Y-11.0679
G01 X21.5632 Y-11.0580
G01 X21.5669 Y-11.0476
G01 X21.5700 Y-11.0343
G01 X21.5714 Y-11.0234
G01 X21.5715 Y-11.0096
G01 X21.5658 Y-10.9372
G01 X21.5644 Y-10.9263
G01 X21.5627 Y-10.9183
G01 X21.5594 Y-10.9078
G01 X21.5551 Y-10.8977
G01 X21.5513 Y-10.8904
G01 X21.5437 Y-10.8790
G01 X21.5014 Y-10.8233
G01 X21.4964 Y-10.8172
G01 X21.4910 Y-10.8115
G01 X21.4852 Y-10.8062
G01 X21.4790 Y-10.8012
G01 X21.4069 Y-10.7481
G01 X21.3461 Y-10.6656
G01 X21.3112 Y-10.5659
G01 X21.3101 Y-10.5541
G01 X21.3099 Y-10.2602
G01 X21.3091 Y-10.2513
G01 X21.3033 Y-10.2105
G01 X21.2997 Y-10.1973
G01 X21.2944 Y-10.1847
G01 X21.2892 Y-10.1752
G01 X21.2495 Y-10.1111
G01 X21.2445 Y-10.1045
G01 X21.2391 Y-10.0983
G01 X21.2333 Y-10.0925
G01 X21.2248 Y-10.0855
G01 X21.2158 Y-10.0793
G01 X21.2086 Y-10.0753
G01 X21.1431 Y-10.0439
G01 X21.1355 Y-10.0406
G01 X21.1251 Y-10.0372
G01 X21.1144 Y-10.0347
G01 X21.1035 Y-10.0334
G01 X21.0925 Y-10.0331
G01 X21.0816 Y-10.0340
G01 X21.0095 Y-10.0430
G01 X20.9961 Y-10.0459
G01 X20.9831 Y-10.0504
G01 X20.9708 Y-10.0565
G01 X20.9594 Y-10.0641
G01 X20.8975 Y-10.1158
G01 X20.8884 Y-10.1253
G01 X20.8819 Y-10.1336
G01 X20.8359 Y-10.2024
G01 X18.8774 Y-12.1609
G01 X18.7644 Y-12.2364
G01 X18.7551 Y-12.2404
G01 X18.7391 Y-12.2481
G01 X18.7322 Y-12.2521
G01 X18.7257 Y-12.2566
G01 X18.7194 Y-12.2616
G01 X18.7136 Y-12.2669
G01 X18.6638 Y-12.3160
G01 X18.6547 Y-12.3262
G01 X18.6483 Y-12.3352
G01 X18.6429 Y-12.3447
G01 X18.6384 Y-12.3548
G01 X18.6349 Y-12.3652
G01 X18.6172 Y-12.4441
G01 X18.6159 Y-12.4550
G01 X18.6157 Y-12.4687
G01 X18.6165 Y-12.4769
G01 X18.6178 Y-12.4850
G01 X18.6214 Y-12.4983
G01 X18.6463 Y-12.5666
G01 X18.6493 Y-12.5739
G01 X18.6526 Y-12.5806
G01 X18.6888 Y-12.6841
G01 X18.6899 Y-12.6959
G01 X18.6899 Y-13.0941
G01 X18.6888 Y-13.1059
G01 X18.6539 Y-13.2056
G01 X18.5931 Y-13.2881
G01 X18.5106 Y-13.3489
G01 X18.4109 Y-13.3838
G01 X18.3991 Y-13.3849
G01 X18.1016 Y-13.3849
G01 X18.0880 Y-13.3859
G01 X18.0747 Y-13.3885
G01 X18.0028 Y-13.4109
G01 X17.9954 Y-13.4135
G01 X17.9881 Y-13.4166
G01 X17.9811 Y-13.4203
G01 X17.9744 Y-13.4244
G01 X17.8518 Y-13.5064
G01 X17.7262 Y-13.5584
G01 X17.5930 Y-13.5849
G01 X15.2879 Y-13.5849
G01 X15.2791 Y-13.5853
G01 X15.2471 Y-13.5887
G01 X15.2390 Y-13.5901
G01 X15.2311 Y-13.5920
G01 X15.2209 Y-13.5955
G01 X15.2110 Y-13.6000
G01 X15.1473 Y-13.6347
G01 X15.1405 Y-13.6388
G01 X15.1340 Y-13.6433
G01 X15.1239 Y-13.6518
G01 X14.3898 Y-14.3859
G01 X14.2768 Y-14.4614
G01 X14.1512 Y-14.5134
G01 X14.0180 Y-14.5399
G01 X13.9748 Y-14.5399
G01 X13.9605 Y-14.5412
G01 X13.9082 Y-14.5510
G01 X13.8977 Y-14.5540
G01 X13.8876 Y-14.5580
G01 X13.8779 Y-14.5630
G01 X13.8688 Y-14.5689
G01 X13.8089 Y-14.6144
G01 X13.8010 Y-14.6213
G01 X13.7955 Y-14.6270
G01 X13.7905 Y-14.6331
G01 X13.7831 Y-14.6431
G01 X13.7006 Y-14.7039
G01 X13.6009 Y-14.7388
G01 X13.5891 Y-14.7399
G01 X12.5909 Y-14.7399
G01 X12.5791 Y-14.7388
G01 X12.4794 Y-14.7039
G01 X12.3969 Y-14.6431
G01 X12.3894 Y-14.6329
G01 X12.3819 Y-14.6242
G01 X12.3450 Y-14.5895
G01 X12.3389 Y-14.5841
G01 X12.3324 Y-14.5792
G01 X12.3207 Y-14.5722
G01 X12.3108 Y-14.5676
G01 X12.3032 Y-14.5649
G01 X12.2335 Y-14.5444
G01 X12.2207 Y-14.5414
G01 X12.2076 Y-14.5400
G01 X9.1821 Y-14.5399
G01 X9.0488 Y-14.5134
G01 X8.9232 Y-14.4614
G01 X8.8102 Y-14.3859
G01 X8.1786 Y-13.7545
G01 X8.1535 Y-13.7341
G01 X8.1470 Y-13.7292
G01 X8.1378 Y-13.7235
G01 X8.1280 Y-13.7187
G01 X8.1153 Y-13.7141
G01 X8.0482 Y-13.6944
G01 X8.0406 Y-13.6924
G01 X8.0302 Y-13.6907
G01 X8.0171 Y-13.6899
G01 X6.2867 Y-13.6899
G01 X6.2755 Y-13.6905
G01 X6.2673 Y-13.6916
G01 X6.2165 Y-13.7010
G01 X6.2037 Y-13.7051
G01 X6.1963 Y-13.7083
G01 X6.1891 Y-13.7120
G01 X6.1800 Y-13.7178
G01 X6.1578 Y-13.7343
G01 X6.1516 Y-13.7369
G01 X6.1444 Y-13.7407
G01 X6.1330 Y-13.7481
G01 X6.1267 Y-13.7532
G01 X6.1201 Y-13.7594
G01 X6.0176 Y-13.8370
G01 X5.9042 Y-13.8818
G01 X5.8365 Y-13.8899
G01 X5.0635 Y-13.8899
G01 X4.9958 Y-13.8818
G01 X4.8824 Y-13.8370
G01 X4.7860 Y-13.7640
G01 X4.7130 Y-13.6676
G01 X4.6682 Y-13.5542
G01 X4.6601 Y-13.4865
G01 X4.6601 Y-12.5135
G01 X4.6682 Y-12.4458
G01 X4.7130 Y-12.3323
G01 X4.7250 Y-12.3147
G01 X4.7289 Y-12.3075
G01 X4.7333 Y-12.2974
G01 X4.7359 Y-12.2895
G01 X4.7563 Y-12.2199
G01 X4.7586 Y-12.2096
G01 X4.7600 Y-12.1966
G01 X4.7601 Y-11.0087
G01 X4.7593 Y-10.9893
G01 X4.7578 Y-10.9783
G01 X4.7543 Y-10.9650
G01 X4.7494 Y-10.9516
G01 X4.7469 Y-10.9352
G01 X4.7450 Y-10.9275
G01 X4.7425 Y-10.9200
G01 X4.7338 Y-10.8998
G01 X4.7287 Y-10.8898
G01 X4.7226 Y-10.8805
G01 X4.7130 Y-10.8676
G01 X4.6672 Y-10.7516
G01 X4.6582 Y-10.7323
G01 X4.6529 Y-10.7230
G01 X4.6442 Y-10.7113
G01 X4.6376 Y-10.7004
G01 X4.6329 Y-10.6936
G01 X4.6239 Y-10.6830
G01 X4.6158 Y-10.6754
G01 X4.6093 Y-10.6703
G01 X4.5973 Y-10.6623
G01 X4.5892 Y-10.6539
G01 X4.5831 Y-10.6484
G01 X4.5766 Y-10.6433
G01 X4.5698 Y-10.6387
G01 X4.5577 Y-10.6322
G01 X4.5501 Y-10.6290
G01 X4.5419 Y-10.6263
G01 X4.5342 Y-10.6222
G01 X4.5241 Y-10.6179
G01 X4.5137 Y-10.6146
G01 X4.5029 Y-10.6123
G01 X4.4920 Y-10.6112
G01 X4.4776 Y-10.6109
G01 X4.4663 Y-10.6083
G01 X4.4582 Y-10.6069
G01 X4.4500 Y-10.6061
G01 X4.4417 Y-10.6059
G01 X4.4281 Y-10.6070
G01 X4.4200 Y-10.6084
G01 X4.4116 Y-10.6106
G01 X4.4029 Y-10.6113
G01 X4.3921 Y-10.6131
G01 X4.3789 Y-10.6169
G01 X4.3688 Y-10.6210
G01 X4.3614 Y-10.6248
G01 X4.3492 Y-10.6324
G01 X4.3383 Y-10.6363
G01 X4.3307 Y-10.6395
G01 X4.3210 Y-10.6447
G01 X4.3141 Y-10.6491
G01 X4.3054 Y-10.6559
G01 X4.2993 Y-10.6615
G01 X4.2935 Y-10.6678
G01 X4.2866 Y-10.6731
G01 X4.2804 Y-10.6785
G01 X4.2747 Y-10.6844
G01 X4.2677 Y-10.6930
G01 X4.2603 Y-10.7045
G01 X4.2528 Y-10.7199
G01 X4.2458 Y-10.7290
G01 X4.2413 Y-10.7355
G01 X4.2373 Y-10.7423
G01 X4.2338 Y-10.7494
G01 X4.1870 Y-10.8676
G01 X4.1140 Y-10.9640
G01 X4.0176 Y-11.0370
G01 X3.9042 Y-11.0818
G01 X3.8365 Y-11.0899
G01 X3.0635 Y-11.0899
G01 X2.9958 Y-11.0818
G01 X2.8824 Y-11.0370
G01 X2.7860 Y-10.9640
G01 X2.7130 Y-10.8676
G01 X2.6682 Y-10.7542
G01 X2.6601 Y-10.6865
G01 X2.6601 Y-9.7135
G01 X2.6682 Y-9.6458
G01 X2.7130 Y-9.5323
G01 X2.7250 Y-9.5147
G01 X2.7301 Y-9.5050
G01 X2.7333 Y-9.4974
G01 X2.7359 Y-9.4895
G01 X2.7556 Y-9.4225
G01 X2.7576 Y-9.4148
G01 X2.7593 Y-9.4044
G01 X2.7601 Y-9.3939
G01 X2.7601 Y-9.2820
G01 X2.7866 Y-9.1488
G01 X2.8386 Y-9.0232
G01 X2.9141 Y-8.9102
G01 X4.6414 Y-7.1829
G01 X4.6474 Y-7.1764
G01 X4.6659 Y-7.1535
G01 X4.6738 Y-7.1424
G01 X4.6778 Y-7.1354
G01 X4.6813 Y-7.1280
G01 X4.6859 Y-7.1153
G01 X4.7063 Y-7.0457
G01 X4.7086 Y-7.0354
G01 X4.7098 Y-7.0250
G01 X4.7101 Y-7.0171
G01 X4.7101 Y-6.4885
G01 X4.7182 Y-6.4208
G01 X4.7630 Y-6.3074
G01 X4.8360 Y-6.2110
G01 X4.9324 Y-6.1380
G01 X5.0458 Y-6.0932
G01 X5.1135 Y-6.0851
G01 X5.6781 Y-6.0851
G01 X5.6860 Y-6.0846
G01 X5.6964 Y-6.0831
G01 X5.7532 Y-6.0707
G01 X5.7664 Y-6.0666
G01 X5.7765 Y-6.0622
G01 X5.7885 Y-6.0553
G01 X5.7994 Y-6.0469
G01 X5.8522 Y-6.0011
G01 X5.8602 Y-5.9935
G01 X5.8673 Y-5.9852
G01 X5.8721 Y-5.9785
G01 X5.8777 Y-5.9690
G01 X5.8813 Y-5.9616
G01 X5.8859 Y-5.9487
G01 X5.9063 Y-5.8791
G01 X5.9090 Y-5.8662
G01 X5.9098 Y-5.8584
G01 X5.9101 Y-5.8505
G01 X5.9101 Y-2.6830
G01 X5.9366 Y-2.5498
G01 X5.9740 Y-2.4591
G01 X5.9847 Y-2.4214
G01 X5.9870 Y-2.4110
G01 X5.9885 Y-2.3977
G01 X5.9886 Y-2.3897
G01 X5.9881 Y-2.3817
G01 X5.9775 Y-2.3072
G01 X5.9754 Y-2.2965
G01 X5.9723 Y-2.2860
G01 X5.9681 Y-2.2758
G01 X5.9629 Y-2.2661
G01 X5.9568 Y-2.2570
G01 X5.9517 Y-2.2506
G01 X5.9041 Y-2.1957
G01 X5.8963 Y-2.1880
G01 X5.8878 Y-2.1810
G01 X5.8810 Y-2.1764
G01 X5.8738 Y-2.1723
G01 X5.8639 Y-2.1677
G01 X5.8561 Y-2.1649
G01 X5.7839 Y-2.1437
G01 X5.7736 Y-2.1414
G01 X5.7605 Y-2.1400
G01 X2.2145 Y-2.1399
G01 X2.2040 Y-2.1404
G01 X2.1936 Y-2.1419
G01 X2.1395 Y-2.1536
G01 X2.1288 Y-2.1565
G01 X2.1160 Y-2.1616
G01 X2.1039 Y-2.1682
G01 X2.0948 Y-2.1746
G01 X2.0378 Y-2.2239
G01 X2.0298 Y-2.2315
G01 X2.0210 Y-2.2420
G01 X2.0150 Y-2.2512
G01 X2.0087 Y-2.2634
G01 X2.0041 Y-2.2763
G01 X1.9844 Y-2.3433
G00 Z2.0000
G00 X2.8391 Y-9.5013
G01 F40.00
G01 Z-0.0601
G01 F100.00
G01 X2.8213 Y-9.5212
G01 X2.8002 Y-9.5497
G01 X2.7820 Y-9.5800
G01 X2.7668 Y-9.6120
G01 X2.7549 Y-9.6453
G01 X2.7463 Y-9.6797
G01 X2.7411 Y-9.7147
G01 X2.7394 Y-9.7473
G01 X2.7394 Y-10.6500
G01 X2.7409 Y-10.6826
G01 X2.7454 Y-10.7150
G01 X2.7475 Y-10.7256
G01 X2.7549 Y-10.7547
G01 X2.7668 Y-10.7880
G01 X2.7820 Y-10.8200
G01 X2.7973 Y-10.8458
G01 X2.8033 Y-10.8548
G01 X2.8213 Y-10.8788
G01 X2.8450 Y-10.9050
G01 X2.8712 Y-10.9287
G01 X2.8997 Y-10.9498
G01 X2.9253 Y-10.9653
G01 X2.9349 Y-10.9705
G01 X2.9595 Y-10.9821
G01 X2.9671 Y-10.9851
G01 X2.9953 Y-10.9951
G01 X3.0244 Y-11.0025
G01 X3.0323 Y-11.0042
G01 X3.0620 Y-11.0086
G01 X3.0946 Y-11.0105
G01 X3.8000 Y-11.0106
G01 X3.8353 Y-11.0089
G01 X3.8650 Y-11.0046
G01 X3.8756 Y-11.0025
G01 X3.9047 Y-10.9951
G01 X3.9380 Y-10.9832
G01 X3.9700 Y-10.9680
G01 X3.9958 Y-10.9527
G01 X4.0048 Y-10.9467
G01 X4.0288 Y-10.9287
G01 X4.0550 Y-10.9050
G01 X4.0787 Y-10.8788
G01 X4.0998 Y-10.8503
G01 X4.1180 Y-10.8200
G01 X4.1332 Y-10.7880
G01 X4.1451 Y-10.7547
G01 X4.1537 Y-10.7203
G01 X4.1582 Y-10.6907
G01 X4.1593 Y-10.6799
G01 X4.1606 Y-10.6500
G01 X4.1605 Y-9.7446
G01 X4.1589 Y-9.7147
G01 X4.1546 Y-9.6850
G01 X4.1525 Y-9.6744
G01 X4.1451 Y-9.6453
G01 X4.1351 Y-9.6171
G01 X4.1310 Y-9.6070
G01 X4.1180 Y-9.5800
G01 X4.1053 Y-9.5586
G01 X5.8338 Y-7.8300
G01 X5.8722 Y-7.7875
G01 X5.9079 Y-7.7394
G01 X5.9315 Y-7.7002
G01 X5.9498 Y-7.6753
G01 X5.9667 Y-7.6474
G01 X5.9821 Y-7.6155
G01 X5.9896 Y-7.5952
G01 X6.0317 Y-7.5845
G01 X6.0831 Y-7.5663
G01 X6.0931 Y-7.5622
G01 X6.1424 Y-7.5387
G01 X6.1892 Y-7.5108
G01 X6.1982 Y-7.5048
G01 X6.2419 Y-7.4722
G01 X6.2844 Y-7.4338
G01 X7.0338 Y-6.6844
G01 X7.0722 Y-6.6419
G01 X7.1079 Y-6.5938
G01 X7.1387 Y-6.5424
G01 X7.1644 Y-6.4882
G01 X7.1845 Y-6.4317
G01 X7.1991 Y-6.3736
G01 X7.2079 Y-6.3143
G01 X7.2108 Y-6.2571
G01 X7.2109 Y-3.3619
G01 X12.7392 Y-3.3619
G01 X12.7392 Y-3.5907
G01 X12.6813 Y-3.6181
G01 X12.6741 Y-3.6218
G01 X12.5876 Y-3.6737
G01 X12.5807 Y-3.6781
G01 X12.4954 Y-3.7415
G01 X12.4186 Y-3.8109
G01 X12.4128 Y-3.8166
G01 X12.3415 Y-3.8954
G01 X12.2766 Y-3.9830
G01 X12.2205 Y-4.0765
G01 X12.1750 Y-4.1725
G01 X12.1720 Y-4.1801
G01 X12.1389 Y-4.2725
G01 X12.1358 Y-4.2828
G01 X12.1107 Y-4.3833
G01 X12.0947 Y-4.4911
G01 X12.0894 Y-4.6000
G01 X12.0943 Y-4.7034
G01 X12.0954 Y-4.7142
G01 X12.1107 Y-4.8167
G01 X12.1372 Y-4.9224
G01 X12.1739 Y-5.0250
G01 X12.2205 Y-5.1235
G01 X12.2737 Y-5.2124
G01 X12.2797 Y-5.2215
G01 X12.3382 Y-5.3003
G01 X12.3450 Y-5.3087
G01 X12.4147 Y-5.3853
G01 X12.4954 Y-5.4585
G01 X12.5830 Y-5.5234
G01 X12.6717 Y-5.5768
G01 X12.6813 Y-5.5819
G01 X12.7700 Y-5.6239
G01 X12.7801 Y-5.6280
G01 X12.8776 Y-5.6628
G01 X12.9833 Y-5.6893
G01 X13.0911 Y-5.7053
G01 X13.2000 Y-5.7106
G01 X13.3089 Y-5.7053
G01 X13.4113 Y-5.6902
G01 X13.4220 Y-5.6881
G01 X13.5172 Y-5.6642
G01 X13.5275 Y-5.6611
G01 X13.6250 Y-5.6261
G01 X13.7235 Y-5.5795
G01 X13.8170 Y-5.5234
G01 X13.9046 Y-5.4585
G01 X13.9853 Y-5.3853
G01 X14.0585 Y-5.3046
G01 X14.1234 Y-5.2170
G01 X14.1768 Y-5.1283
G01 X14.1819 Y-5.1187
G01 X14.2239 Y-5.0300
G01 X14.2280 Y-5.0199
G01 X14.2628 Y-4.9224
G01 X14.2881 Y-4.8220
G01 X14.2898 Y-4.8140
G01 X14.3053 Y-4.7089
G01 X14.3105 Y-4.6054
G01 X14.3105 Y-4.5946
G01 X14.3053 Y-4.4911
G01 X14.2902 Y-4.3887
G01 X14.2881 Y-4.3780
G01 X14.2628 Y-4.2776
G01 X14.2271 Y-4.1775
G01 X14.2239 Y-4.1700
G01 X14.1795 Y-4.0765
G01 X14.1234 Y-3.9830
G01 X14.0585 Y-3.8954
G01 X13.9872 Y-3.8166
G01 X13.9814 Y-3.8109
G01 X13.9046 Y-3.7415
G01 X13.8193 Y-3.6781
G01 X13.8124 Y-3.6737
G01 X13.7259 Y-3.6218
G01 X13.7187 Y-3.6181
G01 X13.6608 Y-3.5907
G01 X13.6608 Y-3.2118
G01 X21.8581 Y-3.2118
G01 X22.0142 Y-3.3679
G01 X22.0142 Y-9.9444
G01 X21.6500 Y-9.9444
G01 X21.6272 Y-9.9454
G01 X21.6191 Y-9.9463
G01 X21.5992 Y-9.9494
G01 X21.5744 Y-9.9556
G01 X21.5503 Y-9.9642
G01 X21.5320 Y-9.9727
G01 X21.5224 Y-9.9778
G01 X21.5075 Y-9.9868
G01 X21.5008 Y-9.9914
G01 X21.4847 Y-10.0036
G01 X21.4657 Y-10.0207
G01 X21.4486 Y-10.0397
G01 X21.4364 Y-10.0558
G01 X21.4318 Y-10.0625
G01 X21.4228 Y-10.0774
G01 X21.4177 Y-10.0870
G01 X21.4092 Y-10.1053
G01 X21.4006 Y-10.1294
G01 X21.3944 Y-10.1542
G01 X21.3910 Y-10.1768
G01 X21.3903 Y-10.1849
G01 X21.3894 Y-10.2050
G01 X21.3894 Y-10.5050
G01 X21.3907 Y-10.5305
G01 X21.3944 Y-10.5558
G01 X21.3999 Y-10.5780
G01 X21.4023 Y-10.5858
G01 X21.4092 Y-10.6047
G01 X21.4202 Y-10.6278
G01 X21.4333 Y-10.6498
G01 X21.4452 Y-10.6660
G01 X21.4503 Y-10.6724
G01 X21.4620 Y-10.6853
G01 X21.4697 Y-10.6930
G01 X21.4847 Y-10.7064
G01 X21.5052 Y-10.7217
G01 X21.5272 Y-10.7348
G01 X21.5453 Y-10.7436
G01 X21.5553 Y-10.7477
G01 X21.5718 Y-10.7536
G01 X21.5796 Y-10.7558
G01 X21.5992 Y-10.7606
G01 X21.6245 Y-10.7643
G01 X21.6500 Y-10.7656
G01 X22.2664 Y-10.7656
G01 X22.2987 Y-10.7807
G01 X22.3361 Y-10.7942
G01 X22.3465 Y-10.7974
G01 X22.3798 Y-10.8057
G01 X22.3905 Y-10.8078
G01 X22.4298 Y-10.8136
G01 X22.4750 Y-10.8158
G01 X22.5202 Y-10.8136
G01 X22.5595 Y-10.8078
G01 X22.5702 Y-10.8057
G01 X22.6035 Y-10.7974
G01 X22.6139 Y-10.7942
G01 X22.6513 Y-10.7807
G01 X22.6836 Y-10.7656
G01 X23.3027 Y-10.7656
G01 X23.3255 Y-10.7643
G01 X23.3455 Y-10.7615
G01 X23.3561 Y-10.7594
G01 X23.3782 Y-10.7536
G01 X23.3997 Y-10.7458
G01 X23.4180 Y-10.7373
G01 X23.4252 Y-10.7335
G01 X23.4425 Y-10.7232
G01 X23.4492 Y-10.7186
G01 X23.4653 Y-10.7064
G01 X23.4823 Y-10.6912
G01 X23.4880 Y-10.6853
G01 X23.5014 Y-10.6703
G01 X23.5136 Y-10.6542
G01 X23.5182 Y-10.6475
G01 X23.5298 Y-10.6278
G01 X23.5397 Y-10.6072
G01 X23.5427 Y-10.5997
G01 X23.5494 Y-10.5806
G01 X23.5550 Y-10.5585
G01 X23.5565 Y-10.5505
G01 X23.5593 Y-10.5305
G01 X23.5606 Y-10.5077
G01 X23.5606 Y-10.2050
G01 X23.5597 Y-10.1849
G01 X23.5590 Y-10.1768
G01 X23.5556 Y-10.1542
G01 X23.5494 Y-10.1294
G01 X23.5408 Y-10.1053
G01 X23.5298 Y-10.0822
G01 X23.5167 Y-10.0602
G01 X23.5014 Y-10.0397
G01 X23.4843 Y-10.0207
G01 X23.4674 Y-10.0053
G01 X23.4610 Y-10.0002
G01 X23.4448 Y-9.9883
G01 X23.4276 Y-9.9778
G01 X23.4204 Y-9.9739
G01 X23.4047 Y-9.9664
G01 X23.3972 Y-9.9632
G01 X23.3782 Y-9.9564
G01 X23.3535 Y-9.9500
G01 X23.3455 Y-9.9485
G01 X23.3255 Y-9.9457
G01 X23.3027 Y-9.9444
G01 X22.9358 Y-9.9444
G01 X22.9358 Y-3.1770
G01 X22.9336 Y-3.1318
G01 X22.9278 Y-3.0925
G01 X22.9257 Y-3.0818
G01 X22.9151 Y-3.0407
G01 X22.9007 Y-3.0007
G01 X22.8814 Y-2.9598
G01 X22.8581 Y-2.9210
G01 X22.8345 Y-2.8890
G01 X22.8276 Y-2.8806
G01 X22.8008 Y-2.8512
G01 X22.3748 Y-2.4252
G01 X22.3454 Y-2.3984
G01 X22.3370 Y-2.3915
G01 X22.3094 Y-2.3710
G01 X22.3004 Y-2.3650
G01 X22.2662 Y-2.3446
G01 X22.2253 Y-2.3253
G01 X22.1828 Y-2.3101
G01 X22.1442 Y-2.3003
G01 X22.1335 Y-2.2982
G01 X22.0996 Y-2.2931
G01 X22.0888 Y-2.2920
G01 X22.0490 Y-2.2902
G01 X13.3513 Y-2.2902
G01 X13.3364 Y-2.2771
G01 X13.2948 Y-2.2462
G01 X13.2881 Y-2.2416
G01 X13.2390 Y-2.2123
G01 X13.1897 Y-2.1888
G01 X13.1822 Y-2.1856
G01 X13.1283 Y-2.1665
G01 X13.0702 Y-2.1519
G01 X13.0109 Y-2.1431
G01 X12.9510 Y-2.1401
G01 X6.6000 Y-2.1401
G01 X6.5401 Y-2.1431
G01 X6.4862 Y-2.1510
G01 X6.4755 Y-2.1531
G01 X6.4279 Y-2.1650
G01 X6.4201 Y-2.1673
G01 X6.3662 Y-2.1866
G01 X6.3169 Y-2.2098
G01 X6.3073 Y-2.2150
G01 X6.2606 Y-2.2431
G01 X6.2168 Y-2.2755
G01 X6.2084 Y-2.2824
G01 X6.1681 Y-2.3191
G01 X6.1278 Y-2.3635
G01 X6.0921 Y-2.4116
G01 X6.0640 Y-2.4583
G01 X6.0588 Y-2.4679
G01 X6.0356 Y-2.5172
G01 X6.0172 Y-2.5685
G01 X6.0140 Y-2.5789
G01 X6.0009 Y-2.6318
G01 X5.9924 Y-2.6884
G01 X5.9917 Y-2.6965
G01 X5.9891 Y-2.7510
G01 X5.9891 Y-6.0014
G01 X5.7954 Y-6.1952
G01 X5.7855 Y-6.1908
G01 X5.7573 Y-6.1807
G01 X5.7230 Y-6.1719
G01 X5.7150 Y-6.1704
G01 X5.6853 Y-6.1661
G01 X5.6554 Y-6.1645
G01 X5.1500 Y-6.1644
G01 X5.1147 Y-6.1661
G01 X5.0797 Y-6.1713
G01 X5.0453 Y-6.1799
G01 X5.0120 Y-6.1918
G01 X4.9800 Y-6.2070
G01 X4.9497 Y-6.2252
G01 X4.9212 Y-6.2463
G01 X4.8950 Y-6.2700
G01 X4.8748 Y-6.2921
G01 X4.8696 Y-6.2984
G01 X4.8533 Y-6.3202
G01 X4.8473 Y-6.3292
G01 X4.8320 Y-6.3550
G01 X4.8168 Y-6.3870
G01 X4.8049 Y-6.4203
G01 X4.7975 Y-6.4494
G01 X4.7954 Y-6.4600
G01 X4.7911 Y-6.4897
G01 X4.7894 Y-6.5250
G01 X4.7891 Y-7.1470
G01 X3.0181 Y-8.9181
G01 X2.9778 Y-8.9625
G01 X2.9421 Y-9.0106
G01 X2.9113 Y-9.0620
G01 X2.8856 Y-9.1162
G01 X2.8672 Y-9.1675
G01 X2.8640 Y-9.1779
G01 X2.8509 Y-9.2308
G01 X2.8428 Y-9.2847
G01 X2.8419 Y-9.2928
G01 X2.8392 Y-9.3473
G01 X2.8391 Y-9.5013
G00 Z2.0000
G00 X4.5846 Y-10.4752
G01 F40.00
G01 Z-0.0601
G01 F100.00
G01 X4.5699 Y-10.4698
G01 X4.5573 Y-10.4660
G01 X4.5445 Y-10.4627
G01 X4.5316 Y-10.4601
G01 X4.5158 Y-10.4579
G01 X4.4962 Y-10.4564
G01 X4.4834 Y-10.4541
G01 X4.4703 Y-10.4524
G01 X4.4572 Y-10.4514
G01 X4.4440 Y-10.4511
G01 X4.4281 Y-10.4515
G01 X4.4111 Y-10.4530
G01 X4.3672 Y-10.4602
G01 X4.3543 Y-10.4629
G01 X4.3415 Y-10.4663
G01 X4.3290 Y-10.4703
G01 X4.3154 Y-10.4754
G01 X4.3153 Y-9.7416
G01 X4.3131 Y-9.7014
G01 X4.3116 Y-9.6884
G01 X4.3070 Y-9.6577
G01 X4.3038 Y-9.6412
G01 X4.2967 Y-9.6129
G01 X4.2906 Y-9.5922
G01 X4.6682 Y-9.2146
G01 X4.6747 Y-9.2346
G01 X4.6786 Y-9.2443
G01 X4.6839 Y-9.2563
G01 X4.6944 Y-9.2762
G01 X4.7050 Y-9.2929
G01 X4.7168 Y-9.3088
G01 X4.7298 Y-9.3237
G01 X4.7418 Y-9.3358
G01 X4.7658 Y-9.3577
G01 X4.7436 Y-9.3778
G01 X4.7342 Y-9.3869
G01 X4.7101 Y-9.4131
G01 X4.7004 Y-9.4245
G01 X4.6725 Y-9.4621
G01 X4.6654 Y-9.4730
G01 X4.6495 Y-9.4997
G01 X4.6416 Y-9.5145
G01 X4.6291 Y-9.5408
G01 X4.6245 Y-9.5510
G01 X4.6191 Y-9.5649
G01 X4.6093 Y-9.5924
G01 X4.6055 Y-9.6048
G01 X4.5962 Y-9.6412
G01 X4.5930 Y-9.6577
G01 X4.5884 Y-9.6884
G01 X4.5869 Y-9.7014
G01 X4.5846 Y-9.7481
G01 X4.5846 Y-10.4752
G00 Z2.0000
G00 X4.8391 Y-10.8987
G01 F40.00
G01 Z-0.0601
G01 F100.00
G01 X4.8391 Y-12.3013
G01 X4.8213 Y-12.3212
G01 X4.8002 Y-12.3497
G01 X4.7820 Y-12.3800
G01 X4.7679 Y-12.4095
G01 X4.7649 Y-12.4171
G01 X4.7549 Y-12.4453
G01 X4.7475 Y-12.4744
G01 X4.7454 Y-12.4850
G01 X4.7409 Y-12.5174
G01 X4.7394 Y-12.5500
G01 X4.7394 Y-13.4500
G01 X4.7409 Y-13.4826
G01 X4.7418 Y-13.4907
G01 X4.7463 Y-13.5203
G01 X4.7535 Y-13.5494
G01 X4.7566 Y-13.5598
G01 X4.7658 Y-13.5855
G01 X4.7690 Y-13.5930
G01 X4.7820 Y-13.6200
G01 X4.8002 Y-13.6503
G01 X4.8213 Y-13.6788
G01 X4.8413 Y-13.7011
G01 X4.8489 Y-13.7087
G01 X4.8692 Y-13.7270
G01 X4.8755 Y-13.7321
G01 X4.8997 Y-13.7498
G01 X4.9300 Y-13.7680
G01 X4.9620 Y-13.7832
G01 X4.9902 Y-13.7934
G01 X4.9979 Y-13.7958
G01 X5.0244 Y-13.8025
G01 X5.0350 Y-13.8046
G01 X5.0647 Y-13.8089
G01 X5.1000 Y-13.8106
G01 X5.8000 Y-13.8106
G01 X5.8353 Y-13.8089
G01 X5.8677 Y-13.8042
G01 X5.8756 Y-13.8025
G01 X5.9047 Y-13.7951
G01 X5.9329 Y-13.7851
G01 X5.9430 Y-13.7810
G01 X5.9700 Y-13.7680
G01 X5.9958 Y-13.7527
G01 X6.0026 Y-13.7483
G01 X6.0245 Y-13.7321
G01 X6.0329 Y-13.7252
G01 X6.0550 Y-13.7050
G01 X6.0787 Y-13.6788
G01 X6.0967 Y-13.6548
G01 X6.1013 Y-13.6481
G01 X6.1167 Y-13.6224
G01 X6.1225 Y-13.6109
G01 X8.1470 Y-13.6109
G01 X8.8181 Y-14.2819
G01 X8.8604 Y-14.3204
G01 X8.8668 Y-14.3255
G01 X8.9106 Y-14.3579
G01 X8.9573 Y-14.3860
G01 X8.9669 Y-14.3912
G01 X9.0162 Y-14.4144
G01 X9.0675 Y-14.4328
G01 X9.0779 Y-14.4360
G01 X9.1308 Y-14.4491
G01 X9.1901 Y-14.4579
G01 X9.2500 Y-14.4609
G01 X12.3868 Y-14.4609
G01 X12.3906 Y-14.4756
G01 X12.3982 Y-14.4972
G01 X12.4077 Y-14.5180
G01 X12.4115 Y-14.5252
G01 X12.4233 Y-14.5448
G01 X12.4352 Y-14.5610
G01 X12.4421 Y-14.5694
G01 X12.4577 Y-14.5862
G01 X12.4747 Y-14.6014
G01 X12.4908 Y-14.6136
G01 X12.4975 Y-14.6182
G01 X12.5172 Y-14.6298
G01 X12.5403 Y-14.6408
G01 X12.5592 Y-14.6477
G01 X12.5696 Y-14.6508
G01 X12.5918 Y-14.6561
G01 X12.6145 Y-14.6593
G01 X12.6400 Y-14.6606
G01 X13.5400 Y-14.6606
G01 X13.5601 Y-14.6597
G01 X13.5682 Y-14.6590
G01 X13.5855 Y-14.6565
G01 X13.5961 Y-14.6544
G01 X13.6156 Y-14.6494
G01 X13.6397 Y-14.6408
G01 X13.6628 Y-14.6298
G01 X13.6802 Y-14.6196
G01 X13.6892 Y-14.6136
G01 X13.7074 Y-14.5997
G01 X13.7243 Y-14.5843
G01 X13.7379 Y-14.5694
G01 X13.7448 Y-14.5610
G01 X13.7582 Y-14.5425
G01 X13.7698 Y-14.5228
G01 X13.7797 Y-14.5022
G01 X13.7886 Y-14.4782
G01 X13.7932 Y-14.4609
G01 X13.9554 Y-14.4607
G01 X14.0099 Y-14.4579
G01 X14.0692 Y-14.4491
G01 X14.1273 Y-14.4345
G01 X14.1838 Y-14.4144
G01 X14.2380 Y-14.3887
G01 X14.2848 Y-14.3608
G01 X14.2916 Y-14.3564
G01 X14.3375 Y-14.3222
G01 X14.3819 Y-14.2819
G01 X15.1580 Y-13.5059
G01 X17.5250 Y-13.5059
G01 X17.5795 Y-13.5033
G01 X17.5876 Y-13.5026
G01 X17.6442 Y-13.4941
G01 X17.7023 Y-13.4795
G01 X17.7588 Y-13.4594
G01 X17.8105 Y-13.4350
G01 X17.8177 Y-13.4310
G01 X17.8644 Y-13.4029
G01 X17.9104 Y-13.3689
G01 X17.9166 Y-13.3636
G01 X17.9550 Y-13.3288
G01 X17.9765 Y-13.3056
G01 X18.3554 Y-13.3055
G01 X18.3755 Y-13.3043
G01 X18.4008 Y-13.3006
G01 X18.4256 Y-13.2944
G01 X18.4497 Y-13.2858
G01 X18.4728 Y-13.2748
G01 X18.4925 Y-13.2632
G01 X18.4992 Y-13.2586
G01 X18.5153 Y-13.2464
G01 X18.5303 Y-13.2330
G01 X18.5362 Y-13.2273
G01 X18.5514 Y-13.2103
G01 X18.5651 Y-13.1920
G01 X18.5696 Y-13.1852
G01 X18.5798 Y-13.1678
G01 X18.5886 Y-13.1497
G01 X18.5918 Y-13.1422
G01 X18.5994 Y-13.1206
G01 X18.6050 Y-13.0985
G01 X18.6065 Y-13.0905
G01 X18.6093 Y-13.0705
G01 X18.6106 Y-13.0450
G01 X18.6106 Y-12.7450
G01 X18.6093 Y-12.7195
G01 X18.6061 Y-12.6968
G01 X18.6001 Y-12.6720
G01 X18.5927 Y-12.6503
G01 X18.5897 Y-12.6428
G01 X18.5823 Y-12.6270
G01 X18.5772 Y-12.6174
G01 X18.5651 Y-12.5980
G01 X18.5497 Y-12.5776
G01 X18.5343 Y-12.5607
G01 X18.5194 Y-12.5471
G01 X18.5132 Y-12.5419
G01 X18.4948 Y-12.5283
G01 X18.4776 Y-12.5178
G01 X18.4704 Y-12.5139
G01 X18.4497 Y-12.5042
G01 X18.4256 Y-12.4956
G01 X18.4061 Y-12.4906
G01 X18.3982 Y-12.4889
G01 X18.3755 Y-12.4857
G01 X18.3500 Y-12.4844
G01 X17.9765 Y-12.4844
G01 X17.9550 Y-12.4612
G01 X17.9166 Y-12.4264
G01 X17.9104 Y-12.4211
G01 X17.8644 Y-12.3871
G01 X17.8177 Y-12.3590
G01 X17.8105 Y-12.3550
G01 X17.7588 Y-12.3306
G01 X17.7023 Y-12.3105
G01 X17.6442 Y-12.2959
G01 X17.5903 Y-12.2878
G01 X17.5795 Y-12.2867
G01 X17.5250 Y-12.2841
G01 X14.9050 Y-12.2841
G01 X14.8451 Y-12.2871
G01 X14.7885 Y-12.2954
G01 X14.7805 Y-12.2971
G01 X14.7329 Y-12.3090
G01 X14.7225 Y-12.3122
G01 X14.6712 Y-12.3306
G01 X14.6219 Y-12.3538
G01 X14.6123 Y-12.3590
G01 X14.5656 Y-12.3871
G01 X14.5218 Y-12.4195
G01 X14.5154 Y-12.4246
G01 X14.4731 Y-12.4631
G01 X13.7659 Y-13.1703
G01 X13.7567 Y-13.1552
G01 X13.7448 Y-13.1390
G01 X13.7397 Y-13.1326
G01 X13.7262 Y-13.1177
G01 X13.7203 Y-13.1120
G01 X13.7053 Y-13.0986
G01 X13.6848 Y-13.0833
G01 X13.6628 Y-13.0702
G01 X13.6422 Y-13.0603
G01 X13.6347 Y-13.0573
G01 X13.6156 Y-13.0506
G01 X13.5961 Y-13.0456
G01 X13.5882 Y-13.0439
G01 X13.5682 Y-13.0410
G01 X13.5601 Y-13.0403
G01 X13.5400 Y-13.0394
G01 X12.6400 Y-13.0394
G01 X12.6199 Y-13.0403
G01 X12.6118 Y-13.0410
G01 X12.5945 Y-13.0435
G01 X12.5839 Y-13.0456
G01 X12.5644 Y-13.0506
G01 X12.5403 Y-13.0592
G01 X12.5172 Y-13.0702
G01 X12.4998 Y-13.0804
G01 X12.4908 Y-13.0864
G01 X12.4726 Y-13.1003
G01 X12.4557 Y-13.1157
G01 X12.4421 Y-13.1306
G01 X12.4352 Y-13.1390
G01 X12.4218 Y-13.1575
G01 X12.4102 Y-13.1772
G01 X12.4003 Y-13.1978
G01 X12.3914 Y-13.2218
G01 X12.3868 Y-13.2391
G01 X9.5030 Y-13.2391
G01 X8.8319 Y-12.5681
G01 X8.7916 Y-12.5314
G01 X8.7832 Y-12.5245
G01 X8.7394 Y-12.4921
G01 X8.6880 Y-12.4613
G01 X8.6338 Y-12.4356
G01 X8.5825 Y-12.4172
G01 X8.5721 Y-12.4140
G01 X8.5192 Y-12.4009
G01 X8.4653 Y-12.3928
G01 X8.4545 Y-12.3917
G01 X8.4000 Y-12.3891
G01 X6.1225 Y-12.3891
G01 X6.1167 Y-12.3776
G01 X6.0983 Y-12.3474
G01 X6.0787 Y-12.3212
G01 X6.0609 Y-12.3013
G01 X6.0609 Y-10.8987
G01 X6.0787 Y-10.8788
G01 X6.0998 Y-10.8503
G01 X6.1180 Y-10.8200
G01 X6.1321 Y-10.7905
G01 X6.1351 Y-10.7829
G01 X6.1451 Y-10.7547
G01 X6.1525 Y-10.7256
G01 X6.1546 Y-10.7150
G01 X6.1591 Y-10.6826
G01 X6.1606 Y-10.6500
G01 X6.1606 Y-9.7500
G01 X6.1591 Y-9.7174
G01 X6.1582 Y-9.7093
G01 X6.1537 Y-9.6797
G01 X6.1465 Y-9.6506
G01 X6.1434 Y-9.6402
G01 X6.1342 Y-9.6145
G01 X6.1310 Y-9.6070
G01 X6.1180 Y-9.5800
G01 X6.0998 Y-9.5497
G01 X6.0787 Y-9.5212
G01 X6.0587 Y-9.4989
G01 X6.0511 Y-9.4913
G01 X6.0308 Y-9.4730
G01 X6.0245 Y-9.4679
G01 X6.0003 Y-9.4502
G01 X5.9700 Y-9.4320
G01 X5.9380 Y-9.4168
G01 X5.9098 Y-9.4066
G01 X5.9021 Y-9.4042
G01 X5.8756 Y-9.3975
G01 X5.8650 Y-9.3954
G01 X5.8353 Y-9.3911
G01 X5.8000 Y-9.3894
G01 X5.1000 Y-9.3894
G01 X5.0701 Y-9.3907
G01 X5.0593 Y-9.3918
G01 X5.0323 Y-9.3958
G01 X5.0244 Y-9.3975
G01 X4.9953 Y-9.4049
G01 X4.9671 Y-9.4149
G01 X4.9595 Y-9.4179
G01 X4.9324 Y-9.4307
G01 X4.9042 Y-9.4473
G01 X4.8952 Y-9.4533
G01 X4.8712 Y-9.4713
G01 X4.8450 Y-9.4950
G01 X4.8213 Y-9.5212
G01 X4.8002 Y-9.5497
G01 X4.7847 Y-9.5753
G01 X4.7795 Y-9.5849
G01 X4.7668 Y-9.6120
G01 X4.7566 Y-9.6402
G01 X4.7535 Y-9.6506
G01 X4.7463 Y-9.6797
G01 X4.7418 Y-9.7093
G01 X4.7407 Y-9.7201
G01 X4.7394 Y-9.7500
G01 X4.7394 Y-10.6527
G01 X4.7411 Y-10.6853
G01 X4.7463 Y-10.7203
G01 X4.7549 Y-10.7547
G01 X4.7668 Y-10.7880
G01 X4.7820 Y-10.8200
G01 X4.8002 Y-10.8503
G01 X4.8213 Y-10.8788
G01 X4.8391 Y-10.8987
G00 Z2.0000
G00 X4.8002 Y-9.0414
G01 F40.00
G01 Z-0.0601
G01 F100.00
G01 X4.7974 Y-9.0520
G01 X4.7954 Y-9.0656
G01 X4.7951 Y-9.0793
G01 X4.7964 Y-9.0929
G01 X4.7988 Y-9.1037
G01 X4.8176 Y-9.1738
G01 X4.8212 Y-9.1842
G01 X4.8272 Y-9.1965
G01 X4.8315 Y-9.2036
G01 X4.8363 Y-9.2103
G01 X4.8454 Y-9.2206
G01 X4.9031 Y-9.2731
G01 X4.9118 Y-9.2799
G01 X4.9187 Y-9.2844
G01 X4.9284 Y-9.2896
G01 X4.9385 Y-9.2937
G01 X4.9464 Y-9.2962
G01 X4.9571 Y-9.2985
G01 X5.0286 Y-9.3105
G01 X5.0417 Y-9.3116
G01 X5.0523 Y-9.3113
G01 X5.0635 Y-9.3101
G01 X5.8365 Y-9.3101
G01 X5.9042 Y-9.3182
G01 X6.0176 Y-9.3630
G01 X6.1140 Y-9.4360
G01 X6.1870 Y-9.5324
G01 X6.2318 Y-9.6458
G01 X6.2399 Y-9.7135
G01 X6.2399 Y-10.6865
G01 X6.2318 Y-10.7542
G01 X6.1870 Y-10.8677
G01 X6.1750 Y-10.8853
G01 X6.1699 Y-10.8950
G01 X6.1667 Y-10.9026
G01 X6.1641 Y-10.9105
G01 X6.1437 Y-10.9801
G01 X6.1414 Y-10.9904
G01 X6.1402 Y-11.0008
G01 X6.1399 Y-11.0087
G01 X6.1399 Y-12.0781
G01 X6.1407 Y-12.0886
G01 X6.1419 Y-12.0964
G01 X6.1543 Y-12.1532
G01 X6.1565 Y-12.1612
G01 X6.1594 Y-12.1690
G01 X6.1628 Y-12.1765
G01 X6.1668 Y-12.1838
G01 X6.1713 Y-12.1907
G01 X6.1763 Y-12.1973
G01 X6.2239 Y-12.2522
G01 X6.2295 Y-12.2583
G01 X6.2377 Y-12.2656
G01 X6.2442 Y-12.2706
G01 X6.2536 Y-12.2764
G01 X6.2634 Y-12.2813
G01 X6.2763 Y-12.2859
G01 X6.3459 Y-12.3063
G01 X6.3588 Y-12.3090
G01 X6.3719 Y-12.3101
G01 X8.4680 Y-12.3101
G01 X8.6012 Y-12.3366
G01 X8.7268 Y-12.3886
G01 X8.8398 Y-12.4641
G01 X9.4714 Y-13.0955
G01 X9.4965 Y-13.1159
G01 X9.5030 Y-13.1208
G01 X9.5122 Y-13.1265
G01 X9.5220 Y-13.1313
G01 X9.5347 Y-13.1359
G01 X9.6018 Y-13.1556
G01 X9.6120 Y-13.1581
G01 X9.6224 Y-13.1596
G01 X9.6329 Y-13.1601
G01 X12.2081 Y-13.1600
G01 X12.2224 Y-13.1583
G01 X12.2718 Y-13.1490
G01 X12.2797 Y-13.1469
G01 X12.2874 Y-13.1441
G01 X12.2997 Y-13.1384
G01 X12.3067 Y-13.1342
G01 X12.3134 Y-13.1295
G01 X12.3731 Y-13.0839
G01 X12.3790 Y-13.0787
G01 X12.3845 Y-13.0730
G01 X12.3895 Y-13.0669
G01 X12.3969 Y-13.0569
G01 X12.4794 Y-12.9961
G01 X12.5791 Y-12.9612
G01 X12.5909 Y-12.9601
G01 X13.5891 Y-12.9601
G01 X13.6009 Y-12.9612
G01 X13.6586 Y-12.9814
G01 X13.6666 Y-12.9836
G01 X13.6775 Y-12.9857
G01 X13.6858 Y-12.9865
G01 X13.7585 Y-12.9908
G01 X13.7666 Y-12.9906
G01 X13.7746 Y-12.9898
G01 X13.7826 Y-12.9885
G01 X13.7905 Y-12.9865
G01 X13.8007 Y-12.9830
G01 X13.8129 Y-12.9773
G01 X13.8765 Y-12.9425
G01 X13.8853 Y-12.9368
G01 X13.8936 Y-12.9303
G01 X13.8994 Y-12.9249
G01 X14.1962 Y-12.6281
G01 X14.2037 Y-12.6199
G01 X14.2243 Y-12.5933
G01 X14.2305 Y-12.5846
G01 X14.2345 Y-12.5777
G01 X14.2380 Y-12.5705
G01 X14.2410 Y-12.5630
G01 X14.2435 Y-12.5554
G01 X14.2614 Y-12.4851
G01 X14.2640 Y-12.4716
G01 X14.2648 Y-12.4607
G01 X14.2646 Y-12.4497
G01 X14.2627 Y-12.4361
G01 X14.2601 Y-12.4255
G01 X14.2372 Y-12.3566
G01 X14.2332 Y-12.3463
G01 X14.2282 Y-12.3365
G01 X14.2238 Y-12.3295
G01 X14.2172 Y-12.3208
G01 X14.2117 Y-12.3146
G01 X14.2016 Y-12.3054
G01 X14.1472 Y-12.2615
G01 X14.1409 Y-12.2568
G01 X14.1320 Y-12.2512
G01 X14.1249 Y-12.2476
G01 X14.0982 Y-12.2364
G01 X13.9852 Y-12.1609
G01 X12.5541 Y-10.7298
G01 X12.4786 Y-10.6168
G01 X12.4266 Y-10.4912
G01 X12.4001 Y-10.3580
G01 X12.4001 Y-8.8694
G01 X12.3998 Y-8.8618
G01 X12.3991 Y-8.8542
G01 X12.3923 Y-8.8126
G01 X12.3900 Y-8.8018
G01 X12.3876 Y-8.7940
G01 X12.3847 Y-8.7863
G01 X12.3811 Y-8.7789
G01 X12.3770 Y-8.7717
G01 X12.3342 Y-8.7098
G01 X12.3292 Y-8.7032
G01 X12.3219 Y-8.6950
G01 X12.3138 Y-8.6876
G01 X12.3072 Y-8.6826
G01 X12.2980 Y-8.6767
G01 X12.2882 Y-8.6718
G01 X12.2186 Y-8.6430
G01 X12.2112 Y-8.6404
G01 X12.2035 Y-8.6383
G01 X12.1958 Y-8.6368
G01 X12.1885 Y-8.6359
G01 X12.0883 Y-8.5986
G01 X12.0043 Y-8.5357
G01 X11.9414 Y-8.4517
G01 X11.9041 Y-8.3515
G01 X11.9001 Y-8.3146
G01 X11.9001 Y-7.1854
G01 X11.9041 Y-7.1485
G01 X11.9414 Y-7.0483
G01 X12.0043 Y-6.9643
G01 X12.0883 Y-6.9014
G01 X12.1885 Y-6.8641
G01 X12.2254 Y-6.8601
G01 X13.9546 Y-6.8601
G01 X13.9915 Y-6.8641
G01 X14.0917 Y-6.9014
G01 X14.1757 Y-6.9643
G01 X14.2386 Y-7.0483
G01 X14.2759 Y-7.1485
G01 X14.2799 Y-7.1854
G01 X14.2799 Y-8.3146
G01 X14.2759 Y-8.3515
G01 X14.2386 Y-8.4517
G01 X14.1757 Y-8.5357
G01 X14.0917 Y-8.5986
G01 X13.9915 Y-8.6359
G01 X13.9819 Y-8.6372
G01 X13.9744 Y-8.6388
G01 X13.9337 Y-8.6500
G01 X13.9259 Y-8.6524
G01 X13.9158 Y-8.6566
G01 X13.9037 Y-8.6632
G01 X13.8970 Y-8.6679
G01 X13.8906 Y-8.6730
G01 X13.8378 Y-8.7188
G01 X13.8298 Y-8.7264
G01 X13.8210 Y-8.7369
G01 X13.8150 Y-8.7461
G01 X13.8087 Y-8.7583
G01 X13.8041 Y-8.7712
G01 X13.7830 Y-8.8433
G01 X13.7807 Y-8.8563
G01 X13.7799 Y-8.8694
G01 X13.7799 Y-9.9100
G01 X13.7805 Y-9.9189
G01 X13.7834 Y-9.9452
G01 X13.7851 Y-9.9560
G01 X13.7870 Y-9.9639
G01 X13.7895 Y-9.9716
G01 X13.7950 Y-9.9840
G01 X13.8324 Y-10.0523
G01 X13.8399 Y-10.0631
G01 X13.8486 Y-10.0729
G01 X14.6421 Y-10.8664
G01 X14.6509 Y-10.8743
G01 X14.6780 Y-10.8958
G01 X14.6896 Y-10.9028
G01 X14.7020 Y-10.9084
G01 X14.7097 Y-10.9109
G01 X14.7793 Y-10.9313
G01 X14.7922 Y-10.9340
G01 X14.8053 Y-10.9351
G01 X16.1598 Y-10.9351
G01 X16.1678 Y-10.9348
G01 X16.1970 Y-10.9320
G01 X16.2074 Y-10.9302
G01 X16.2176 Y-10.9274
G01 X16.2250 Y-10.9247
G01 X16.2323 Y-10.9215
G01 X16.2991 Y-10.8868
G01 X16.3061 Y-10.8825
G01 X16.3128 Y-10.8778
G01 X16.3192 Y-10.8725
G01 X16.3251 Y-10.8668
G01 X16.3324 Y-10.8586
G01 X16.3402 Y-10.8473
G01 X16.3777 Y-10.7819
G01 X16.3813 Y-10.7745
G01 X16.3844 Y-10.7669
G01 X16.3869 Y-10.7590
G01 X16.3888 Y-10.7510
G01 X16.3907 Y-10.7374
G01 X16.3909 Y-10.7264
G01 X16.3873 Y-10.6539
G01 X16.3862 Y-10.6434
G01 X16.3848 Y-10.6357
G01 X16.3820 Y-10.6255
G01 X16.3612 Y-10.5659
G01 X16.3601 Y-10.5541
G01 X16.3601 Y-10.1559
G01 X16.3612 Y-10.1441
G01 X16.3961 Y-10.0444
G01 X16.4569 Y-9.9619
G01 X16.5394 Y-9.9011
G01 X16.6455 Y-9.8640
G01 X16.6543 Y-9.8617
G01 X16.6889 Y-9.8513
G01 X16.7016 Y-9.8459
G01 X16.7112 Y-9.8404
G01 X16.7223 Y-9.8324
G01 X16.7772 Y-9.7848
G01 X16.7852 Y-9.7772
G01 X16.7940 Y-9.7667
G01 X16.8014 Y-9.7551
G01 X16.8063 Y-9.7453
G01 X16.8109 Y-9.7324
G01 X16.8320 Y-9.6603
G01 X16.8343 Y-9.6473
G01 X16.8351 Y-9.6342
G01 X16.8351 Y-8.3570
G01 X16.8616 Y-8.2238
G01 X16.9136 Y-8.0982
G01 X16.9891 Y-7.9852
G01 X17.4455 Y-7.5286
G01 X17.4692 Y-7.4992
G01 X17.4752 Y-7.4901
G01 X17.4802 Y-7.4805
G01 X17.4834 Y-7.4730
G01 X17.4859 Y-7.4653
G01 X17.5070 Y-7.3931
G01 X17.5090 Y-7.3828
G01 X17.5101 Y-7.3697
G01 X17.5101 Y-7.1635
G01 X17.5182 Y-7.0958
G01 X17.5630 Y-6.9823
G01 X17.5750 Y-6.9647
G01 X17.5801 Y-6.9550
G01 X17.5833 Y-6.9474
G01 X17.5859 Y-6.9395
G01 X17.6063 Y-6.8699
G01 X17.6090 Y-6.8570
G01 X17.6100 Y-6.8466
G01 X17.6101 Y-5.3245
G01 X17.6096 Y-5.3140
G01 X17.6081 Y-5.3036
G01 X17.5964 Y-5.2495
G01 X17.5943 Y-5.2414
G01 X17.5906 Y-5.2310
G01 X17.5872 Y-5.2235
G01 X17.5818 Y-5.2139
G01 X17.5754 Y-5.2048
G01 X17.5243 Y-5.1457
G01 X17.5165 Y-5.1380
G01 X17.5102 Y-5.1327
G01 X17.5035 Y-5.1279
G01 X17.4940 Y-5.1223
G01 X17.4866 Y-5.1187
G01 X17.4789 Y-5.1157
G01 X17.4067 Y-5.0944
G01 X17.3990 Y-5.0924
G01 X17.3886 Y-5.0907
G01 X17.3755 Y-5.0899
G01 X17.1645 Y-5.0899
G01 X17.1566 Y-5.0902
G01 X17.1138 Y-5.0960
G01 X17.1002 Y-5.0989
G01 X17.0922 Y-5.1014
G01 X17.0827 Y-5.1053
G01 X17.0762 Y-5.1074
G01 X17.0685 Y-5.1105
G01 X17.0586 Y-5.1154
G01 X17.0515 Y-5.1197
G01 X17.0427 Y-5.1263
G01 X17.0266 Y-5.1402
G01 X17.0087 Y-5.1518
G01 X16.9978 Y-5.1602
G01 X16.9919 Y-5.1658
G01 X16.9863 Y-5.1719
G01 X16.9812 Y-5.1784
G01 X16.9772 Y-5.1843
G01 X16.9710 Y-5.1920
G01 X16.9636 Y-5.2036
G01 X16.9577 Y-5.2159
G01 X16.9549 Y-5.2237
G01 X16.9488 Y-5.2441
G01 X16.9390 Y-5.2660
G01 X16.9362 Y-5.2737
G01 X16.9341 Y-5.2817
G01 X16.9318 Y-5.2952
G01 X16.9312 Y-5.3078
G01 X16.9299 Y-5.3219
G01 X16.9297 Y-5.6406
G01 X16.8994 Y-5.7092
G01 X16.8492 Y-5.7594
G01 X16.7806 Y-5.7896
G01 X16.7785 Y-5.7899
G01 X14.6994 Y-5.7897
G01 X14.6308 Y-5.7594
G01 X14.5806 Y-5.7092
G01 X14.5503 Y-5.6406
G01 X14.5501 Y-5.4856
G01 X14.5496 Y-5.4781
G01 X14.5462 Y-5.4475
G01 X14.5437 Y-5.4339
G01 X14.5396 Y-5.4207
G01 X14.5339 Y-5.4081
G01 X14.4982 Y-5.3448
G01 X14.4939 Y-5.3378
G01 X14.4856 Y-5.3269
G01 X14.4760 Y-5.3171
G01 X14.4652 Y-5.3085
G01 X14.4535 Y-5.3014
G01 X14.3917 Y-5.2688
G01 X14.3818 Y-5.2642
G01 X14.3714 Y-5.2605
G01 X14.3607 Y-5.2580
G01 X14.3526 Y-5.2567
G01 X14.3416 Y-5.2560
G01 X14.3307 Y-5.2564
G01 X14.2610 Y-5.2624
G01 X14.2502 Y-5.2639
G01 X14.2395 Y-5.2664
G01 X14.2291 Y-5.2700
G01 X14.2191 Y-5.2747
G01 X14.2097 Y-5.2802
G01 X14.2030 Y-5.2850
G01 X14.1476 Y-5.3277
G01 X14.1377 Y-5.3363
G01 X14.1323 Y-5.3420
G01 X14.1273 Y-5.3481
G01 X14.1076 Y-5.3752
G01 X13.9752 Y-5.5076
G01 X13.8236 Y-5.6177
G01 X13.6568 Y-5.7027
G01 X13.4786 Y-5.7606
G01 X13.2936 Y-5.7899
G01 X13.1064 Y-5.7899
G01 X12.9214 Y-5.7606
G01 X12.7432 Y-5.7027
G01 X12.6848 Y-5.6730
G01 X12.5764 Y-5.6177
G01 X12.4248 Y-5.5076
G01 X12.2924 Y-5.3752
G01 X12.1823 Y-5.2236
G01 X12.0973 Y-5.0568
G01 X12.0394 Y-4.8786
G01 X12.0101 Y-4.6936
G01 X12.0101 Y-4.5064
G01 X12.0394 Y-4.3214
G01 X12.0973 Y-4.1432
G01 X12.1823 Y-3.9764
G01 X12.3020 Y-3.8116
G01 X12.3209 Y-3.7797
G01 X12.3257 Y-3.7699
G01 X12.3303 Y-3.7572
G01 X12.3323 Y-3.7493
G01 X12.3338 Y-3.7401
G01 X12.3376 Y-3.7312
G01 X12.3408 Y-3.7207
G01 X12.3426 Y-3.7127
G01 X12.3437 Y-3.7046
G01 X12.3443 Y-3.6910
G01 X12.3438 Y-3.6828
G01 X12.3428 Y-3.6747
G01 X12.3440 Y-3.6638
G01 X12.3442 Y-3.6556
G01 X12.3438 Y-3.6474
G01 X12.3423 Y-3.6365
G01 X12.3389 Y-3.6232
G01 X12.3334 Y-3.6094
G01 X12.3311 Y-3.5975
G01 X12.3280 Y-3.5870
G01 X12.3238 Y-3.5768
G01 X12.3172 Y-3.5648
G01 X12.3125 Y-3.5580
G01 X12.3056 Y-3.5495
G01 X12.3020 Y-3.5421
G01 X12.2979 Y-3.5350
G01 X12.2932 Y-3.5282
G01 X12.2881 Y-3.5217
G01 X12.2825 Y-3.5156
G01 X12.2765 Y-3.5100
G01 X12.2701 Y-3.5049
G01 X12.2623 Y-3.4996
G01 X12.2560 Y-3.4927
G01 X12.2499 Y-3.4872
G01 X12.2412 Y-3.4804
G01 X12.2295 Y-3.4733
G01 X12.2195 Y-3.4687
G01 X12.2066 Y-3.4643
G01 X12.1971 Y-3.4587
G01 X12.1872 Y-3.4540
G01 X12.1768 Y-3.4503
G01 X12.1635 Y-3.4472
G01 X12.1526 Y-3.4459
G01 X12.1432 Y-3.4457
G01 X12.1345 Y-3.4434
G01 X12.1267 Y-3.4420
G01 X12.1189 Y-3.4412
G01 X12.1110 Y-3.4409
G01 X7.5245 Y-3.4409
G01 X7.5140 Y-3.4414
G01 X7.5036 Y-3.4429
G01 X7.4495 Y-3.4546
G01 X7.4414 Y-3.4567
G01 X7.4310 Y-3.4604
G01 X7.4210 Y-3.4651
G01 X7.4139 Y-3.4692
G01 X7.4048 Y-3.4756
G01 X7.3457 Y-3.5267
G01 X7.3380 Y-3.5345
G01 X7.3310 Y-3.5430
G01 X7.3264 Y-3.5498
G01 X7.3223 Y-3.5570
G01 X7.3177 Y-3.5669
G01 X7.3149 Y-3.5747
G01 X7.2937 Y-3.6469
G01 X7.2914 Y-3.6572
G01 X7.2902 Y-3.6676
G01 X7.2899 Y-3.6755
G01 X7.2899 Y-6.3224
G01 X7.2634 Y-6.4557
G01 X7.2114 Y-6.5812
G01 X7.1359 Y-6.6942
G01 X6.2942 Y-7.5359
G01 X6.1812 Y-7.6114
G01 X6.1171 Y-7.6380
G01 X6.1100 Y-7.6414
G01 X6.1031 Y-7.6454
G01 X6.0943 Y-7.6515
G01 X6.0430 Y-7.6912
G01 X6.0368 Y-7.6963
G01 X6.0311 Y-7.7018
G01 X6.0241 Y-7.7098
G01 X6.0107 Y-7.7278
G01 X5.9359 Y-7.8398
G01 X4.8600 Y-8.9158
G01 X4.8383 Y-8.9422
G01 X4.8324 Y-8.9509
G01 X4.8273 Y-8.9601
G01 X4.8223 Y-8.9723
G01 X4.8002 Y-9.0414
G00 Z2.0000
G00 X2.1311 Y-15.9052
G01 F40.00
G01 Z-0.0601
G01 F100.00
G01 X1.8208 Y-15.8141
G01 X1.5667 Y-15.5208
G01 X1.5108 Y-15.2638
G01 X1.5108 Y-2.2911
G01 X1.6019 Y-1.9808
G01 X1.8952 Y-1.7267
G01 X2.1522 Y-1.6708
G01 X24.1248 Y-1.6708
G01 X24.4352 Y-1.7619
G01 X24.6893 Y-2.0552
G01 X24.7452 Y-2.3122
G01 X24.7452 Y-15.2848
G01 X24.6541 Y-15.5952
G01 X24.3608 Y-15.8493
G01 X24.1038 Y-15.9052
G01 X2.1311 Y-15.9052
G01 X2.1089 Y-16.0601
G01 X1.7336 Y-15.9498
G01 X1.4238 Y-15.5923
G01 X1.3559 Y-15.2805
G01 X1.3559 Y-2.2689
G01 X1.4661 Y-1.8936
G01 X1.8236 Y-1.5838
G01 X2.1355 Y-1.5159
G01 X24.1471 Y-1.5159
G01 X24.5224 Y-1.6261
G01 X24.8322 Y-1.9836
G01 X24.9001 Y-2.2955
G01 X24.9001 Y-15.3071
G01 X24.7898 Y-15.6824
G01 X24.4323 Y-15.9922
G01 X24.1205 Y-16.0601
G01 X2.1089 Y-16.0601
G01 X2.0866 Y-16.2149
G01 X1.6463 Y-16.0856
G01 X1.2809 Y-15.6639
G01 X1.2011 Y-15.2971
G01 X1.2011 Y-2.2466
G01 X1.3304 Y-1.8063
G01 X1.7521 Y-1.4409
G01 X2.1189 Y-1.3611
G01 X24.1694 Y-1.3611
G01 X24.6097 Y-1.4904
G01 X24.9751 Y-1.9121
G01 X25.0549 Y-2.2789
G01 X25.0549 Y-15.3294
G01 X24.9256 Y-15.7697
G01 X24.5039 Y-16.1351
G01 X24.1371 Y-16.2149
G01 X2.0866 Y-16.2149
G00 Z2.0000
G00 X12.2596 Y-8.5605
G01 F40.00
G01 Z-0.0601
G01 F100.00
G01 X12.4791 Y-8.5606
G01 X12.4792 Y-10.2927
G01 X12.4817 Y-10.3445
G01 X12.4828 Y-10.3553
G01 X12.4909 Y-10.4092
G01 X12.5040 Y-10.4621
G01 X12.5072 Y-10.4725
G01 X12.5256 Y-10.5238
G01 X12.5513 Y-10.5780
G01 X12.5821 Y-10.6294
G01 X12.6145 Y-10.6732
G01 X12.6214 Y-10.6816
G01 X12.6581 Y-10.7219
G01 X13.9950 Y-12.0588
G01 X14.0334 Y-12.0936
G01 X14.0418 Y-12.1005
G01 X14.0856 Y-12.1329
G01 X14.1347 Y-12.1624
G01 X14.1419 Y-12.1662
G01 X14.1912 Y-12.1894
G01 X14.2425 Y-12.2078
G01 X14.2529 Y-12.2110
G01 X14.3058 Y-12.2241
G01 X14.3597 Y-12.2322
G01 X14.3705 Y-12.2333
G01 X14.4250 Y-12.2359
G01 X18.4404 Y-12.2358
G01 X18.4975 Y-12.2329
G01 X18.5515 Y-12.2250
G01 X18.5621 Y-12.2229
G01 X18.6150 Y-12.2095
G01 X18.6663 Y-12.1913
G01 X18.6764 Y-12.1872
G01 X18.7208 Y-12.1662
G01 X18.7303 Y-12.1610
G01 X18.7724 Y-12.1358
G01 X18.7815 Y-12.1298
G01 X18.8252 Y-12.0972
G01 X18.8696 Y-12.0569
G01 X20.7319 Y-10.1946
G01 X20.7722 Y-10.1502
G01 X20.8079 Y-10.1020
G01 X20.8387 Y-10.0506
G01 X20.8622 Y-10.0014
G01 X20.8654 Y-9.9939
G01 X20.8845 Y-9.9400
G01 X20.8991 Y-9.8818
G01 X20.9079 Y-9.8225
G01 X20.9108 Y-9.7654
G01 X20.9109 Y-8.3487
G01 X20.9287 Y-8.3288
G01 X20.9483 Y-8.3026
G01 X20.9527 Y-8.2958
G01 X20.9693 Y-8.2676
G01 X20.9832 Y-8.2380
G01 X20.9934 Y-8.2098
G01 X20.9965 Y-8.1994
G01 X21.0042 Y-8.1677
G01 X21.0089 Y-8.1353
G01 X21.0106 Y-8.1027
G01 X21.0106 Y-7.8033
G01 X21.4319 Y-7.3819
G01 X21.4686 Y-7.3416
G01 X21.4739 Y-7.3354
G01 X21.5048 Y-7.2938
G01 X21.5108 Y-7.2848
G01 X21.5387 Y-7.2380
G01 X21.5622 Y-7.1887
G01 X21.5663 Y-7.1787
G01 X21.5845 Y-7.1273
G01 X21.5979 Y-7.0745
G01 X21.6000 Y-7.0638
G01 X21.6079 Y-7.0099
G01 X21.6109 Y-6.9500
G01 X21.6109 Y-5.0740
G01 X21.6458 Y-5.0419
G01 X21.7004 Y-4.9818
G01 X21.7056 Y-4.9756
G01 X21.7571 Y-4.9059
G01 X21.8004 Y-4.8340
G01 X21.8043 Y-4.8268
G01 X21.8413 Y-4.7485
G01 X21.8714 Y-4.6643
G01 X21.8931 Y-4.5776
G01 X21.9056 Y-4.4946
G01 X21.9064 Y-4.4865
G01 X21.9106 Y-4.4000
G01 X21.9066 Y-4.3162
G01 X21.9056 Y-4.3054
G01 X21.8931 Y-4.2224
G01 X21.8728 Y-4.1409
G01 X21.8697 Y-4.1305
G01 X21.8413 Y-4.0515
G01 X21.8055 Y-3.9756
G01 X21.8004 Y-3.9660
G01 X21.7571 Y-3.8941
G01 X21.7072 Y-3.8266
G01 X21.7004 Y-3.8182
G01 X21.6439 Y-3.7561
G01 X21.5818 Y-3.6996
G01 X21.5734 Y-3.6928
G01 X21.5103 Y-3.6460
G01 X21.5013 Y-3.6400
G01 X21.4293 Y-3.5969
G01 X21.3534 Y-3.5609
G01 X21.3434 Y-3.5568
G01 X21.2643 Y-3.5286
G01 X21.1829 Y-3.5081
G01 X21.1723 Y-3.5060
G01 X21.0893 Y-3.4938
G01 X21.0000 Y-3.4894
G01 X20.9107 Y-3.4938
G01 X20.8277 Y-3.5060
G01 X20.8171 Y-3.5081
G01 X20.7357 Y-3.5286
G01 X20.6566 Y-3.5568
G01 X20.6466 Y-3.5609
G01 X20.5707 Y-3.5969
G01 X20.4987 Y-3.6400
G01 X20.4897 Y-3.6460
G01 X20.4266 Y-3.6928
G01 X20.4182 Y-3.6996
G01 X20.3561 Y-3.7561
G01 X20.2996 Y-3.8182
G01 X20.2928 Y-3.8266
G01 X20.2429 Y-3.8941
G01 X20.1996 Y-3.9660
G01 X20.1945 Y-3.9756
G01 X20.1587 Y-4.0515
G01 X20.1303 Y-4.1305
G01 X20.1272 Y-4.1409
G01 X20.1069 Y-4.2224
G01 X20.0944 Y-4.3054
G01 X20.0934 Y-4.3162
G01 X20.0894 Y-4.4000
G01 X20.0936 Y-4.4865
G01 X20.0944 Y-4.4946
G01 X20.1069 Y-4.5776
G01 X20.1286 Y-4.6643
G01 X20.1587 Y-4.7485
G01 X20.1957 Y-4.8268
G01 X20.1996 Y-4.8340
G01 X20.2429 Y-4.9059
G01 X20.2944 Y-4.9756
G01 X20.2996 Y-4.9818
G01 X20.3542 Y-5.0419
G01 X20.3891 Y-5.0740
G01 X20.3891 Y-6.6970
G01 X20.2467 Y-6.8394
G01 X19.9500 Y-6.8394
G01 X19.9174 Y-6.8409
G01 X19.9093 Y-6.8418
G01 X19.8797 Y-6.8463
G01 X19.8506 Y-6.8535
G01 X19.8402 Y-6.8566
G01 X19.8145 Y-6.8658
G01 X19.8070 Y-6.8690
G01 X19.7800 Y-6.8820
G01 X19.7497 Y-6.9002
G01 X19.7212 Y-6.9213
G01 X19.6950 Y-6.9450
G01 X19.6713 Y-6.9712
G01 X19.6502 Y-6.9997
G01 X19.6320 Y-7.0300
G01 X19.6190 Y-7.0570
G01 X19.6149 Y-7.0671
G01 X19.6049 Y-7.0953
G01 X19.5963 Y-7.1297
G01 X19.5911 Y-7.1647
G01 X19.5894 Y-7.1973
G01 X19.5894 Y-8.1027
G01 X19.5911 Y-8.1353
G01 X19.5963 Y-8.1703
G01 X19.6049 Y-8.2047
G01 X19.6168 Y-8.2380
G01 X19.6320 Y-8.2700
G01 X19.6502 Y-8.3003
G01 X19.6713 Y-8.3288
G01 X19.6891 Y-8.3487
G01 X19.6891 Y-9.5096
G01 X18.5881 Y-10.6107
G01 X18.5927 Y-10.5997
G01 X18.5986 Y-10.5832
G01 X18.6008 Y-10.5754
G01 X18.6061 Y-10.5532
G01 X18.6090 Y-10.5332
G01 X18.6097 Y-10.5251
G01 X18.6106 Y-10.5050
G01 X18.6105 Y-10.1996
G01 X18.6093 Y-10.1795
G01 X18.6065 Y-10.1595
G01 X18.6050 Y-10.1515
G01 X18.5994 Y-10.1294
G01 X18.5908 Y-10.1053
G01 X18.5823 Y-10.0870
G01 X18.5785 Y-10.0798
G01 X18.5667 Y-10.0602
G01 X18.5514 Y-10.0397
G01 X18.5343 Y-10.0207
G01 X18.5153 Y-10.0036
G01 X18.4992 Y-9.9914
G01 X18.4925 Y-9.9868
G01 X18.4776 Y-9.9778
G01 X18.4680 Y-9.9727
G01 X18.4472 Y-9.9632
G01 X18.4230 Y-9.9549
G01 X18.4035 Y-9.9500
G01 X18.3955 Y-9.9485
G01 X18.3755 Y-9.9457
G01 X18.3527 Y-9.9444
G01 X18.1359 Y-9.9444
G01 X18.1359 Y-8.6780
G01 X18.3533 Y-8.4606
G01 X18.6500 Y-8.4606
G01 X18.6853 Y-8.4589
G01 X18.7203 Y-8.4537
G01 X18.7547 Y-8.4451
G01 X18.7880 Y-8.4332
G01 X18.8151 Y-8.4205
G01 X18.8224 Y-8.4167
G01 X18.8503 Y-8.3998
G01 X18.8788 Y-8.3787
G01 X18.9050 Y-8.3550
G01 X18.9252 Y-8.3329
G01 X18.9321 Y-8.3245
G01 X18.9513 Y-8.2981
G01 X18.9667 Y-8.2724
G01 X18.9705 Y-8.2651
G01 X18.9821 Y-8.2405
G01 X18.9851 Y-8.2329
G01 X18.9951 Y-8.2047
G01 X19.0025 Y-8.1756
G01 X19.0046 Y-8.1650
G01 X19.0089 Y-8.1353
G01 X19.0106 Y-8.1000
G01 X19.0106 Y-7.2000
G01 X19.0091 Y-7.1674
G01 X19.0046 Y-7.1350
G01 X19.0025 Y-7.1244
G01 X18.9951 Y-7.0953
G01 X18.9851 Y-7.0671
G01 X18.9821 Y-7.0595
G01 X18.9680 Y-7.0300
G01 X18.9498 Y-6.9997
G01 X18.9287 Y-6.9712
G01 X18.9109 Y-6.9513
G01 X18.9109 Y-5.2119
G01 X18.9316 Y-5.2018
G01 X19.0036 Y-5.1586
G01 X19.0103 Y-5.1540
G01 X19.0756 Y-5.1056
G01 X19.0818 Y-5.1004
G01 X19.1439 Y-5.0439
G01 X19.2039 Y-4.9777
G01 X19.2571 Y-4.9059
G01 X19.3031 Y-4.8293
G01 X19.3413 Y-4.7485
G01 X19.3714 Y-4.6643
G01 X19.3931 Y-4.5776
G01 X19.4062 Y-4.4893
G01 X19.4106 Y-4.4000
G01 X19.4062 Y-4.3107
G01 X19.3931 Y-4.2224
G01 X19.3714 Y-4.1357
G01 X19.3413 Y-4.0515
G01 X19.3055 Y-3.9756
G01 X19.3018 Y-3.9684
G01 X19.2600 Y-3.8987
G01 X19.2540 Y-3.8897
G01 X19.2039 Y-3.8223
G01 X19.1476 Y-3.7600
G01 X19.1400 Y-3.7524
G01 X19.0777 Y-3.6961
G01 X19.0059 Y-3.6429
G01 X18.9340 Y-3.5996
G01 X18.9244 Y-3.5945
G01 X18.8485 Y-3.5587
G01 X18.7695 Y-3.5303
G01 X18.7591 Y-3.5272
G01 X18.6776 Y-3.5069
G01 X18.5893 Y-3.4938
G01 X18.5000 Y-3.4894
G01 X18.4162 Y-3.4934
G01 X18.4054 Y-3.4944
G01 X18.3224 Y-3.5069
G01 X18.2409 Y-3.5272
G01 X18.2305 Y-3.5303
G01 X18.1540 Y-3.5577
G01 X18.1466 Y-3.5609
G01 X18.0707 Y-3.5969
G01 X17.9987 Y-3.6400
G01 X17.9919 Y-3.6444
G01 X17.9266 Y-3.6928
G01 X17.9202 Y-3.6978
G01 X17.8581 Y-3.7542
G01 X17.8260 Y-3.7891
G01 X16.8506 Y-3.7891
G01 X16.8506 Y-3.5973
G01 X16.8501 Y-3.5892
G01 X16.8490 Y-3.5811
G01 X16.8473 Y-3.5731
G01 X16.8450 Y-3.5653
G01 X16.8422 Y-3.5577
G01 X16.8388 Y-3.5503
G01 X16.8349 Y-3.5431
G01 X16.8304 Y-3.5363
G01 X16.8255 Y-3.5298
G01 X16.8201 Y-3.5237
G01 X16.8143 Y-3.5181
G01 X16.8080 Y-3.5128
G01 X16.8014 Y-3.5080
G01 X16.7945 Y-3.5038
G01 X16.7873 Y-3.5000
G01 X16.7798 Y-3.4968
G01 X16.7721 Y-3.4942
G01 X16.7642 Y-3.4921
G01 X16.7562 Y-3.4906
G01 X16.7481 Y-3.4897
G01 X16.7400 Y-3.4894
G01 X14.7373 Y-3.4894
G01 X14.7238 Y-3.4906
G01 X14.7158 Y-3.4921
G01 X14.7079 Y-3.4942
G01 X14.7002 Y-3.4968
G01 X14.6927 Y-3.5000
G01 X14.6808 Y-3.5066
G01 X14.6698 Y-3.5145
G01 X14.6637 Y-3.5199
G01 X14.6581 Y-3.5257
G01 X14.6496 Y-3.5363
G01 X14.6451 Y-3.5431
G01 X14.6412 Y-3.5503
G01 X14.6359 Y-3.5627
G01 X14.6321 Y-3.5758
G01 X14.6299 Y-3.5892
G01 X14.6294 Y-3.6000
G01 X14.6294 Y-5.6027
G01 X14.6299 Y-5.6108
G01 X14.6310 Y-5.6189
G01 X14.6327 Y-5.6269
G01 X14.6350 Y-5.6347
G01 X14.6400 Y-5.6473
G01 X14.6438 Y-5.6545
G01 X14.6480 Y-5.6614
G01 X14.6528 Y-5.6680
G01 X14.6581 Y-5.6743
G01 X14.6678 Y-5.6837
G01 X14.6786 Y-5.6920
G01 X14.6855 Y-5.6962
G01 X14.6927 Y-5.7000
G01 X14.7053 Y-5.7050
G01 X14.7158 Y-5.7079
G01 X14.7265 Y-5.7098
G01 X14.7400 Y-5.7106
G01 X16.7400 Y-5.7106
G01 X16.7535 Y-5.7098
G01 X16.7642 Y-5.7079
G01 X16.7721 Y-5.7058
G01 X16.7798 Y-5.7032
G01 X16.7873 Y-5.7000
G01 X16.7945 Y-5.6962
G01 X16.8014 Y-5.6920
G01 X16.8102 Y-5.6855
G01 X16.8163 Y-5.6801
G01 X16.8219 Y-5.6743
G01 X16.8272 Y-5.6680
G01 X16.8334 Y-5.6592
G01 X16.8375 Y-5.6521
G01 X16.8411 Y-5.6448
G01 X16.8441 Y-5.6373
G01 X16.8466 Y-5.6295
G01 X16.8485 Y-5.6216
G01 X16.8498 Y-5.6135
G01 X16.8506 Y-5.6000
G01 X16.8506 Y-5.0109
G01 X17.6891 Y-5.0109
G01 X17.6891 Y-6.9513
G01 X17.6713 Y-6.9712
G01 X17.6517 Y-6.9974
G01 X17.6473 Y-7.0042
G01 X17.6307 Y-7.0324
G01 X17.6168 Y-7.0620
G01 X17.6066 Y-7.0902
G01 X17.6035 Y-7.1006
G01 X17.5958 Y-7.1323
G01 X17.5911 Y-7.1647
G01 X17.5894 Y-7.1973
G01 X17.5894 Y-7.4967
G01 X17.0931 Y-7.9931
G01 X17.0564 Y-8.0334
G01 X17.0495 Y-8.0418
G01 X17.0202 Y-8.0812
G01 X17.0142 Y-8.0902
G01 X16.9863 Y-8.1370
G01 X16.9628 Y-8.1863
G01 X16.9596 Y-8.1938
G01 X16.9405 Y-8.2477
G01 X16.9259 Y-8.3058
G01 X16.9171 Y-8.3651
G01 X16.9142 Y-8.4223
G01 X16.9141 Y-9.9444
G01 X16.6973 Y-9.9444
G01 X16.6745 Y-9.9457
G01 X16.6545 Y-9.9485
G01 X16.6465 Y-9.9500
G01 X16.6244 Y-9.9556
G01 X16.6003 Y-9.9642
G01 X16.5772 Y-9.9752
G01 X16.5598 Y-9.9854
G01 X16.5508 Y-9.9914
G01 X16.5368 Y-10.0019
G01 X16.5306 Y-10.0071
G01 X16.5157 Y-10.0207
G01 X16.4986 Y-10.0397
G01 X16.4833 Y-10.0602
G01 X16.4728 Y-10.0774
G01 X16.4689 Y-10.0846
G01 X16.4592 Y-10.1053
G01 X16.4514 Y-10.1268
G01 X16.4492 Y-10.1346
G01 X16.4444 Y-10.1542
G01 X16.4410 Y-10.1768
G01 X16.4403 Y-10.1849
G01 X16.4394 Y-10.2050
G01 X16.4394 Y-10.5050
G01 X16.4404 Y-10.5278
G01 X16.4435 Y-10.5505
G01 X16.4450 Y-10.5585
G01 X16.4506 Y-10.5806
G01 X16.4573 Y-10.5997
G01 X16.4603 Y-10.6072
G01 X16.4702 Y-10.6278
G01 X16.4818 Y-10.6475
G01 X16.4864 Y-10.6542
G01 X16.4986 Y-10.6703
G01 X16.5120 Y-10.6853
G01 X16.5177 Y-10.6912
G01 X16.5347 Y-10.7064
G01 X16.5552 Y-10.7217
G01 X16.5724 Y-10.7322
G01 X16.5796 Y-10.7361
G01 X16.6003 Y-10.7458
G01 X16.6244 Y-10.7544
G01 X16.6492 Y-10.7606
G01 X16.6745 Y-10.7643
G01 X16.6946 Y-10.7655
G01 X17.0735 Y-10.7656
G01 X17.0950 Y-10.7888
G01 X17.1334 Y-10.8236
G01 X17.1396 Y-10.8289
G01 X17.1856 Y-10.8629
G01 X17.2323 Y-10.8910
G01 X17.2395 Y-10.8950
G01 X17.2912 Y-10.9194
G01 X17.3477 Y-10.9395
G01 X17.4058 Y-10.9541
G01 X17.4651 Y-10.9629
G01 X17.5250 Y-10.9659
G01 X17.5795 Y-10.9633
G01 X17.5903 Y-10.9622
G01 X17.6442 Y-10.9541
G01 X17.6971 Y-10.9410
G01 X17.7075 Y-10.9378
G01 X17.7562 Y-10.9204
G01 X17.7637 Y-10.9172
G01 X17.8130 Y-10.8937
G01 X17.8598 Y-10.8658
G01 X17.8666 Y-10.8614
G01 X17.9082 Y-10.8305
G01 X17.9146 Y-10.8254
G01 X17.9550 Y-10.7888
G01 X17.9765 Y-10.7656
G01 X18.3554 Y-10.7655
G01 X18.3782 Y-10.7640
G01 X18.4035 Y-10.7600
G01 X18.4282 Y-10.7536
G01 X18.4472 Y-10.7468
G01 X18.4557 Y-10.7431
G01 X18.1846 Y-11.0141
G01 X14.6780 Y-11.0141
G01 X13.7009 Y-10.0370
G01 X13.7009 Y-8.5606
G01 X13.9150 Y-8.5606
G01 X13.9430 Y-8.5592
G01 X13.9707 Y-8.5551
G01 X13.9979 Y-8.5483
G01 X14.0243 Y-8.5389
G01 X14.0472 Y-8.5281
G01 X14.0544 Y-8.5242
G01 X14.0737 Y-8.5125
G01 X14.0919 Y-8.4991
G01 X14.1003 Y-8.4922
G01 X14.1169 Y-8.4769
G01 X14.1322 Y-8.4603
G01 X14.1391 Y-8.4519
G01 X14.1525 Y-8.4337
G01 X14.1642 Y-8.4144
G01 X14.1693 Y-8.4048
G01 X14.1789 Y-8.3843
G01 X14.1866 Y-8.3631
G01 X14.1897 Y-8.3527
G01 X14.1951 Y-8.3307
G01 X14.1992 Y-8.3030
G01 X14.2006 Y-8.2750
G01 X14.2006 Y-7.2250
G01 X14.1996 Y-7.2024
G01 X14.1989 Y-7.1943
G01 X14.1951 Y-7.1693
G01 X14.1897 Y-7.1473
G01 X14.1866 Y-7.1369
G01 X14.1789 Y-7.1157
G01 X14.1693 Y-7.0952
G01 X14.1642 Y-7.0856
G01 X14.1525 Y-7.0663
G01 X14.1391 Y-7.0481
G01 X14.1322 Y-7.0397
G01 X14.1169 Y-7.0231
G01 X14.1003 Y-7.0078
G01 X14.0919 Y-7.0009
G01 X14.0737 Y-6.9875
G01 X14.0544 Y-6.9758
G01 X14.0448 Y-6.9707
G01 X14.0243 Y-6.9611
G01 X13.9979 Y-6.9517
G01 X13.9707 Y-6.9449
G01 X13.9430 Y-6.9408
G01 X13.9177 Y-6.9394
G01 X12.2623 Y-6.9394
G01 X12.2370 Y-6.9408
G01 X12.2093 Y-6.9449
G01 X12.1821 Y-6.9517
G01 X12.1582 Y-6.9601
G01 X12.1328 Y-6.9719
G01 X12.1109 Y-6.9846
G01 X12.1019 Y-6.9907
G01 X12.0859 Y-7.0025
G01 X12.0797 Y-7.0078
G01 X12.0612 Y-7.0250
G01 X12.0425 Y-7.0459
G01 X12.0275 Y-7.0663
G01 X12.0158 Y-7.0856
G01 X12.0119 Y-7.0928
G01 X12.0011 Y-7.1157
G01 X11.9917 Y-7.1421
G01 X11.9849 Y-7.1693
G01 X11.9814 Y-7.1916
G01 X11.9805 Y-7.1997
G01 X11.9794 Y-7.2250
G01 X11.9794 Y-8.2750
G01 X11.9804 Y-8.2976
G01 X11.9811 Y-8.3057
G01 X11.9849 Y-8.3307
G01 X11.9917 Y-8.3579
G01 X12.0011 Y-8.3843
G01 X12.0119 Y-8.4072
G01 X12.0261 Y-8.4314
G01 X12.0409 Y-8.4519
G01 X12.0460 Y-8.4583
G01 X12.0593 Y-8.4730
G01 X12.0670 Y-8.4807
G01 X12.0838 Y-8.4958
G01 X12.1063 Y-8.5125
G01 X12.1304 Y-8.5269
G01 X12.1557 Y-8.5389
G01 X12.1821 Y-8.5483
G01 X12.2093 Y-8.5551
G01 X12.2370 Y-8.5592
G01 X12.2596 Y-8.5605
G00 Z2.0000
G00 X14.3611 Y-5.1020
G01 F40.00
G01 Z-0.0601
G01 F100.00
G01 X14.3684 Y-5.0860
G01 X14.3738 Y-5.0721
G01 X14.4075 Y-4.9779
G01 X14.4115 Y-4.9655
G01 X14.4144 Y-4.9548
G01 X14.4383 Y-4.8596
G01 X14.4415 Y-4.8450
G01 X14.4580 Y-4.7351
G01 X14.4602 Y-4.7129
G01 X14.4651 Y-4.6130
G01 X14.4654 Y-4.5981
G01 X14.4603 Y-4.4890
G01 X14.4591 Y-4.4741
G01 X14.4434 Y-4.3660
G01 X14.4407 Y-4.3513
G01 X14.4144 Y-4.2452
G01 X14.4104 Y-4.2308
G01 X14.3738 Y-4.1279
G01 X14.3684 Y-4.1140
G01 X14.3169 Y-4.0052
G01 X14.3096 Y-3.9921
G01 X14.2532 Y-3.8985
G01 X14.2447 Y-3.8863
G01 X14.1794 Y-3.7987
G01 X14.1697 Y-3.7873
G01 X14.0961 Y-3.7066
G01 X14.0854 Y-3.6962
G01 X14.0042 Y-3.6230
G01 X13.9925 Y-3.6138
G01 X13.9046 Y-3.5489
G01 X13.8920 Y-3.5409
G01 X13.8156 Y-3.4951
G01 X13.8156 Y-3.3666
G01 X14.6136 Y-3.3666
G01 X14.5996 Y-3.3747
G01 X14.5856 Y-3.3841
G01 X14.5731 Y-3.3936
G01 X14.5603 Y-3.4046
G01 X14.5491 Y-3.4156
G01 X14.5378 Y-3.4281
G01 X14.5279 Y-3.4404
G01 X14.5182 Y-3.4541
G01 X14.5100 Y-3.4675
G01 X14.5021 Y-3.4824
G01 X14.4940 Y-3.5002
G01 X14.4886 Y-3.5149
G01 X14.4837 Y-3.5310
G01 X14.4800 Y-3.5464
G01 X14.4772 Y-3.5629
G01 X14.4754 Y-3.5786
G01 X14.4746 Y-3.6000
G01 X14.4746 Y-5.1374
G01 X14.4598 Y-5.1297
G01 X14.4479 Y-5.1241
G01 X14.4322 Y-5.1176
G01 X14.4197 Y-5.1134
G01 X14.4070 Y-5.1097
G01 X14.3915 Y-5.1062
G01 X14.3747 Y-5.1034
G01 X14.3611 Y-5.1020
G00 Z2.0000
G00 X14.1231 Y-3.5215
G01 F40.00
G01 Z-0.0601
G01 F100.00
G01 X14.3271 Y-3.5215
G01 X14.3246 Y-3.5365
G01 X14.3224 Y-3.5523
G01 X14.3207 Y-3.5710
G01 X14.3200 Y-3.5859
G01 X14.3197 Y-3.7276
G01 X14.3032 Y-3.7055
G01 X14.2900 Y-3.6897
G01 X14.2102 Y-3.6017
G01 X14.1915 Y-3.5834
G01 X14.1231 Y-3.5215
G00 Z2.0000
G00 X12.4665 Y-3.5167
G01 F40.00
G01 Z-0.0601
G01 F100.00
G01 X12.5483 Y-3.5167
G01 X12.5040 Y-3.5433
G01 X12.4931 Y-3.5504
G01 X12.4812 Y-3.5592
G01 X12.4785 Y-3.5495
G01 X12.4745 Y-3.5369
G01 X12.4665 Y-3.5167
G00 Z2.0000
G00 X18.2446 Y-3.3666
G01 F40.00
G01 Z-0.0601
G01 F100.00
G01 X18.2014 Y-3.3774
G01 X18.1863 Y-3.3818
G01 X18.1001 Y-3.4126
G01 X18.0804 Y-3.4209
G01 X18.0077 Y-3.4553
G01 X17.9937 Y-3.4626
G01 X17.9175 Y-3.5081
G01 X17.9065 Y-3.5152
G01 X17.8974 Y-3.5216
G01 X17.8256 Y-3.5752
G01 X17.8142 Y-3.5849
G01 X17.7597 Y-3.6343
G01 X17.0054 Y-3.6343
G01 X17.0054 Y-3.5981
G01 X17.0050 Y-3.5851
G01 X17.0032 Y-3.5656
G01 X17.0007 Y-3.5501
G01 X16.9963 Y-3.5310
G01 X16.9906 Y-3.5124
G01 X16.9834 Y-3.4942
G01 X16.9750 Y-3.4766
G01 X16.9653 Y-3.4596
G01 X16.9543 Y-3.4434
G01 X16.9422 Y-3.4281
G01 X16.9290 Y-3.4137
G01 X16.9148 Y-3.4003
G01 X16.8996 Y-3.3879
G01 X16.8836 Y-3.3768
G01 X16.8664 Y-3.3666
G01 X18.2446 Y-3.3666
G01 X18.9777 Y-3.4484
G01 X18.9154 Y-3.4190
G01 X18.8974 Y-3.4116
G01 X18.8137 Y-3.3818
G01 X18.7986 Y-3.3774
G01 X18.7554 Y-3.3666
G01 X19.0021 Y-3.3666
G01 X18.9967 Y-3.3784
G01 X18.9928 Y-3.3881
G01 X18.9865 Y-3.4069
G01 X18.9810 Y-3.4287
G01 X18.9777 Y-3.4484
G00 Z2.0000
G00 X20.7446 Y-3.3666
G01 F40.00
G01 Z-0.0601
G01 F100.00
G01 X20.7014 Y-3.3774
G01 X20.6863 Y-3.3818
G01 X20.6026 Y-3.4116
G01 X20.5821 Y-3.4201
G01 X20.5202 Y-3.4494
G01 X20.5165 Y-3.4251
G01 X20.5121 Y-3.4058
G01 X20.5063 Y-3.3869
G01 X20.4983 Y-3.3666
G01 X20.7446 Y-3.3666
G00 Z2.0000
G00 X21.8594 Y-3.7718
G01 F40.00
G01 Z-0.0601
G01 F100.00
G01 X21.8305 Y-3.7328
G01 X21.8206 Y-3.7206
G01 X21.7624 Y-3.6561
G01 X21.7501 Y-3.6434
G01 X21.6858 Y-3.5849
G01 X21.6744 Y-3.5752
G01 X21.5935 Y-3.5152
G01 X21.5809 Y-3.5071
G01 X21.5039 Y-3.4613
G01 X21.4906 Y-3.4545
G01 X21.4120 Y-3.4175
G01 X21.3956 Y-3.4110
G01 X21.3137 Y-3.3818
G01 X21.2986 Y-3.3774
G01 X21.2554 Y-3.3666
G01 X21.7940 Y-3.3666
G01 X21.8594 Y-3.4320
G01 X21.8594 Y-3.7718
G00 Z2.0000
G00 X22.3349 Y-1.8256
G01 F40.00
G01 Z-0.0601
G01 F100.00
G01 X22.3145 Y-1.8427
G01 X22.2961 Y-1.8595
G01 X22.2529 Y-1.8487
G01 X22.2314 Y-1.8439
G01 X22.2073 Y-1.8395
G01 X22.1625 Y-1.8329
G01 X22.1416 Y-1.8304
G01 X22.1199 Y-1.8286
G01 X22.0729 Y-1.8262
G01 X22.0504 Y-1.8257
G01 X13.4977 Y-1.8256
G01 X22.3349 Y-1.8256
G00 Z2.0000
G00 X18.9944 Y-5.3560
G01 F40.00
G01 Z-0.0601
G01 F100.00
G01 X18.9924 Y-5.3637
G01 X18.9910 Y-5.3714
G01 X18.9902 Y-5.3793
G01 X18.9899 Y-5.3872
G01 X18.9899 Y-6.8413
G01 X18.9907 Y-6.8607
G01 X18.9922 Y-6.8716
G01 X18.9957 Y-6.8850
G01 X19.0006 Y-6.8984
G01 X19.0022 Y-6.9096
G01 X19.0037 Y-6.9174
G01 X19.0058 Y-6.9250
G01 X19.0084 Y-6.9324
G01 X19.0174 Y-6.9527
G01 X19.0213 Y-6.9602
G01 X19.0274 Y-6.9695
G01 X19.0370 Y-6.9824
G01 X19.0859 Y-7.1057
G01 X19.0930 Y-7.1201
G01 X19.0986 Y-7.1292
G01 X19.1058 Y-7.1387
G01 X19.1124 Y-7.1496
G01 X19.1171 Y-7.1564
G01 X19.1224 Y-7.1629
G01 X19.1281 Y-7.1690
G01 X19.1385 Y-7.1781
G01 X19.1527 Y-7.1877
G01 X19.1608 Y-7.1961
G01 X19.1669 Y-7.2016
G01 X19.1734 Y-7.2067
G01 X19.1802 Y-7.2113
G01 X19.1874 Y-7.2154
G01 X19.1948 Y-7.2190
G01 X19.2081 Y-7.2237
G01 X19.2182 Y-7.2290
G01 X19.2310 Y-7.2339
G01 X19.2417 Y-7.2367
G01 X19.2498 Y-7.2381
G01 X19.2580 Y-7.2388
G01 X19.2724 Y-7.2391
G01 X19.2891 Y-7.2427
G01 X19.3028 Y-7.2440
G01 X19.3110 Y-7.2440
G01 X19.3192 Y-7.2434
G01 X19.3301 Y-7.2416
G01 X19.3384 Y-7.2394
G01 X19.3471 Y-7.2387
G01 X19.3552 Y-7.2375
G01 X19.3685 Y-7.2340
G01 X19.3787 Y-7.2301
G01 X19.3886 Y-7.2252
G01 X19.4008 Y-7.2176
G01 X19.4168 Y-7.2116
G01 X19.4290 Y-7.2053
G01 X19.4359 Y-7.2009
G01 X19.4446 Y-7.1941
G01 X19.4507 Y-7.1885
G01 X19.4565 Y-7.1822
G01 X19.4655 Y-7.1752
G01 X19.4753 Y-7.1656
G01 X19.4806 Y-7.1592
G01 X19.4869 Y-7.1502
G01 X19.4910 Y-7.1431
G01 X19.4972 Y-7.1301
G01 X19.5073 Y-7.1167
G01 X19.5114 Y-7.1100
G01 X19.5151 Y-7.1030
G01 X19.5182 Y-7.0957
G01 X19.5629 Y-6.9824
G01 X19.6360 Y-6.8860
G01 X19.7324 Y-6.8130
G01 X19.8458 Y-6.7682
G01 X19.9135 Y-6.7601
G01 X20.0755 Y-6.7601
G01 X20.0860 Y-6.7596
G01 X20.0990 Y-6.7576
G01 X20.1532 Y-6.7457
G01 X20.1638 Y-6.7426
G01 X20.1740 Y-6.7384
G01 X20.1861 Y-6.7318
G01 X20.1930 Y-6.7271
G01 X20.1994 Y-6.7219
G01 X20.2543 Y-6.6743
G01 X20.2620 Y-6.6665
G01 X20.2706 Y-6.6558
G01 X20.2777 Y-6.6440
G01 X20.2813 Y-6.6366
G01 X20.2843 Y-6.6289
G01 X20.3070 Y-6.5516
G01 X20.3093 Y-6.5386
G01 X20.3101 Y-6.5255
G01 X20.3101 Y-5.2072
G01 X20.3097 Y-5.1983
G01 X20.3063 Y-5.1663
G01 X20.3049 Y-5.1583
G01 X20.3030 Y-5.1504
G01 X20.3005 Y-5.1427
G01 X20.2974 Y-5.1351
G01 X20.2937 Y-5.1278
G01 X20.2590 Y-5.0642
G01 X20.2533 Y-5.0554
G01 X20.2456 Y-5.0458
G01 X20.1534 Y-4.9188
G01 X20.0826 Y-4.7800
G01 X20.0345 Y-4.6318
G01 X20.0101 Y-4.4779
G01 X20.0101 Y-4.3221
G01 X20.0345 Y-4.1682
G01 X20.0826 Y-4.0200
G01 X20.1534 Y-3.8812
G01 X20.2449 Y-3.7551
G01 X20.3114 Y-3.6886
G01 X20.3211 Y-3.6780
G01 X20.3292 Y-3.6670
G01 X20.3359 Y-3.6551
G01 X20.3661 Y-3.5891
G01 X20.3702 Y-3.5789
G01 X20.3732 Y-3.5683
G01 X20.3752 Y-3.5575
G01 X20.3760 Y-3.5493
G01 X20.3761 Y-3.5411
G01 X20.3754 Y-3.5301
G01 X20.3641 Y-3.4528
G01 X20.3615 Y-3.4422
G01 X20.3568 Y-3.4293
G01 X20.3532 Y-3.4219
G01 X20.3490 Y-3.4148
G01 X20.3443 Y-3.4080
G01 X20.3392 Y-3.4016
G01 X20.2897 Y-3.3447
G01 X20.2796 Y-3.3354
G01 X20.2685 Y-3.3274
G01 X20.2613 Y-3.3233
G01 X20.2539 Y-3.3197
G01 X20.2410 Y-3.3151
G01 X20.1714 Y-3.2947
G01 X20.1611 Y-3.2924
G01 X20.1481 Y-3.2910
G01 X19.3572 Y-3.2909
G01 X19.3390 Y-3.2916
G01 X19.3308 Y-3.2926
G01 X19.3228 Y-3.2942
G01 X19.3097 Y-3.2982
G01 X19.2417 Y-3.3236
G01 X19.2293 Y-3.3295
G01 X19.2200 Y-3.3353
G01 X19.2134 Y-3.3402
G01 X19.2072 Y-3.3456
G01 X19.1978 Y-3.3556
G01 X19.1525 Y-3.4159
G01 X19.1478 Y-3.4227
G01 X19.1411 Y-3.4347
G01 X19.1360 Y-3.4474
G01 X19.1325 Y-3.4607
G01 X19.1307 Y-3.4743
G01 X19.1257 Y-3.5440
G01 X19.1255 Y-3.5549
G01 X19.1263 Y-3.5659
G01 X19.1283 Y-3.5767
G01 X19.1313 Y-3.5873
G01 X19.1342 Y-3.5950
G01 X19.1390 Y-3.6049
G01 X19.1725 Y-3.6662
G01 X19.1765 Y-3.6730
G01 X19.1810 Y-3.6795
G01 X19.1859 Y-3.6856
G01 X19.1913 Y-3.6914
G01 X19.2551 Y-3.7551
G01 X19.3466 Y-3.8812
G01 X19.4174 Y-4.0200
G01 X19.4655 Y-4.1682
G01 X19.4899 Y-4.3221
G01 X19.4899 Y-4.4779
G01 X19.4655 Y-4.6318
G01 X19.4174 Y-4.7800
G01 X19.3466 Y-4.9188
G01 X19.2551 Y-5.0449
G01 X19.1449 Y-5.1551
G01 X19.0866 Y-5.1974
G01 X19.0786 Y-5.2038
G01 X19.0712 Y-5.2109
G01 X19.0398 Y-5.2442
G01 X19.0344 Y-5.2504
G01 X19.0294 Y-5.2570
G01 X19.0250 Y-5.2639
G01 X19.0199 Y-5.2736
G01 X19.0167 Y-5.2812
G01 X19.0141 Y-5.2890
G01 X18.9944 Y-5.3560
G00 Z2.0000
G00 X19.4346 Y-7.3746
G01 F40.00
G01 Z-0.0601
G01 F100.00
G01 X19.4346 Y-7.9252
G01 X19.4199 Y-7.9198
G01 X19.4073 Y-7.9160
G01 X19.3945 Y-7.9127
G01 X19.3816 Y-7.9101
G01 X19.3658 Y-7.9079
G01 X19.3462 Y-7.9064
G01 X19.3334 Y-7.9041
G01 X19.3203 Y-7.9024
G01 X19.3072 Y-7.9014
G01 X19.2940 Y-7.9011
G01 X19.2781 Y-7.9015
G01 X19.2611 Y-7.9030
G01 X19.2172 Y-7.9102
G01 X19.2043 Y-7.9129
G01 X19.1915 Y-7.9163
G01 X19.1790 Y-7.9203
G01 X19.1654 Y-7.9254
G01 X19.1654 Y-7.3748
G01 X19.1801 Y-7.3802
G01 X19.1927 Y-7.3840
G01 X19.2055 Y-7.3873
G01 X19.2184 Y-7.3899
G01 X19.2342 Y-7.3921
G01 X19.2538 Y-7.3936
G01 X19.2666 Y-7.3959
G01 X19.2797 Y-7.3976
G01 X19.2928 Y-7.3986
G01 X19.3060 Y-7.3989
G01 X19.3219 Y-7.3985
G01 X19.3389 Y-7.3970
G01 X19.3828 Y-7.3898
G01 X19.3957 Y-7.3871
G01 X19.4085 Y-7.3837
G01 X19.4210 Y-7.3797
G01 X19.4346 Y-7.3746
G00 Z2.0000
G00 X18.2194 Y-8.7768
G01 F40.00
G01 Z-0.0601
G01 F100.00
G01 X18.2174 Y-8.7844
G01 X18.2160 Y-8.7922
G01 X18.2152 Y-8.8001
G01 X18.2149 Y-8.8079
G01 X18.2149 Y-9.6342
G01 X18.2152 Y-9.6421
G01 X18.2160 Y-9.6500
G01 X18.2233 Y-9.6934
G01 X18.2257 Y-9.7042
G01 X18.2292 Y-9.7148
G01 X18.2337 Y-9.7250
G01 X18.2408 Y-9.7369
G01 X18.2830 Y-9.7961
G01 X18.2880 Y-9.8026
G01 X18.2935 Y-9.8087
G01 X18.2995 Y-9.8144
G01 X18.3058 Y-9.8197
G01 X18.3149 Y-9.8259
G01 X18.3245 Y-9.8312
G01 X18.3320 Y-9.8345
G01 X18.3671 Y-9.8485
G01 X18.3758 Y-9.8536
G01 X18.3856 Y-9.8582
G01 X18.3959 Y-9.8618
G01 X18.4045 Y-9.8640
G01 X18.5106 Y-9.9011
G01 X18.5931 Y-9.9619
G01 X18.6578 Y-10.0497
G01 X18.6628 Y-10.0559
G01 X18.6683 Y-10.0618
G01 X18.6782 Y-10.0706
G01 X18.7362 Y-10.1141
G01 X18.7430 Y-10.1188
G01 X18.7501 Y-10.1230
G01 X18.7600 Y-10.1277
G01 X18.7704 Y-10.1314
G01 X18.7783 Y-10.1335
G01 X18.7891 Y-10.1353
G01 X18.8670 Y-10.1410
G01 X18.8780 Y-10.1410
G01 X18.8890 Y-10.1399
G01 X18.8970 Y-10.1383
G01 X18.9050 Y-10.1362
G01 X18.9128 Y-10.1334
G01 X18.9203 Y-10.1301
G01 X18.9865 Y-10.0941
G01 X18.9933 Y-10.0901
G01 X18.9998 Y-10.0856
G01 X19.0059 Y-10.0806
G01 X19.0117 Y-10.0753
G01 X19.5414 Y-9.5456
G01 X19.5474 Y-9.5391
G01 X19.5676 Y-9.5140
G01 X19.5723 Y-9.5074
G01 X19.5778 Y-9.4980
G01 X19.5813 Y-9.4907
G01 X19.5851 Y-9.4805
G01 X19.6063 Y-9.4083
G01 X19.6090 Y-9.3955
G01 X19.6101 Y-9.3823
G01 X19.6101 Y-8.4587
G01 X19.6093 Y-8.4458
G01 X19.6077 Y-8.4356
G01 X19.5962 Y-8.3823
G01 X19.5942 Y-8.3748
G01 X19.5916 Y-8.3675
G01 X19.5826 Y-8.3473
G01 X19.5787 Y-8.3398
G01 X19.5726 Y-8.3305
G01 X19.5630 Y-8.3176
G01 X19.5172 Y-8.2016
G01 X19.5130 Y-8.1920
G01 X19.5069 Y-8.1798
G01 X19.5028 Y-8.1729
G01 X19.4954 Y-8.1628
G01 X19.4846 Y-8.1460
G01 X19.4777 Y-8.1372
G01 X19.4720 Y-8.1311
G01 X19.4615 Y-8.1220
G01 X19.4473 Y-8.1123
G01 X19.4372 Y-8.1020
G01 X19.4288 Y-8.0949
G01 X19.4198 Y-8.0887
G01 X19.4126 Y-8.0846
G01 X19.4027 Y-8.0800
G01 X19.3919 Y-8.0763
G01 X19.3842 Y-8.0722
G01 X19.3767 Y-8.0688
G01 X19.3690 Y-8.0661
G01 X19.3610 Y-8.0639
G01 X19.3529 Y-8.0623
G01 X19.3447 Y-8.0614
G01 X19.3276 Y-8.0609
G01 X19.3136 Y-8.0577
G01 X19.3054 Y-8.0565
G01 X19.2972 Y-8.0560
G01 X19.2890 Y-8.0560
G01 X19.2781 Y-8.0570
G01 X19.2700 Y-8.0584
G01 X19.2616 Y-8.0606
G01 X19.2475 Y-8.0620
G01 X19.2394 Y-8.0637
G01 X19.2315 Y-8.0660
G01 X19.2238 Y-8.0688
G01 X19.2163 Y-8.0722
G01 X19.2091 Y-8.0762
G01 X19.1992 Y-8.0824
G01 X19.1832 Y-8.0884
G01 X19.1710 Y-8.0947
G01 X19.1641 Y-8.0991
G01 X19.1575 Y-8.1041
G01 X19.1493 Y-8.1115
G01 X19.1435 Y-8.1178
G01 X19.1366 Y-8.1231
G01 X19.1304 Y-8.1285
G01 X19.1211 Y-8.1386
G01 X19.1146 Y-8.1475
G01 X19.1090 Y-8.1569
G01 X19.1028 Y-8.1699
G01 X19.0958 Y-8.1790
G01 X19.0913 Y-8.1855
G01 X19.0873 Y-8.1923
G01 X19.0838 Y-8.1994
G01 X19.0370 Y-8.3176
G01 X18.9640 Y-8.4140
G01 X18.8676 Y-8.4870
G01 X18.7542 Y-8.5318
G01 X18.6865 Y-8.5399
G01 X18.4770 Y-8.5401
G01 X18.4448 Y-8.5434
G01 X18.4367 Y-8.5445
G01 X18.4235 Y-8.5478
G01 X18.4109 Y-8.5526
G01 X18.4036 Y-8.5563
G01 X18.3423 Y-8.5897
G01 X18.3311 Y-8.5967
G01 X18.3248 Y-8.6015
G01 X18.3189 Y-8.6068
G01 X18.2836 Y-8.6421
G01 X18.2776 Y-8.6486
G01 X18.2542 Y-8.6780
G01 X18.2445 Y-8.6939
G01 X18.2395 Y-8.7038
G01 X18.2364 Y-8.7116
G01 X18.2339 Y-8.7196
G01 X18.2269 Y-8.7511
G01 X18.2194 Y-8.7768
G00 Z2.0000
G00 X20.9944 Y-8.4275
G01 F40.00
G01 Z-0.0601
G01 F100.00
G01 X20.9924 Y-8.4352
G01 X20.9910 Y-8.4430
G01 X20.9902 Y-8.4508
G01 X20.9899 Y-8.4587
G01 X20.9899 Y-9.8141
G01 X20.9906 Y-9.8263
G01 X20.9948 Y-9.8616
G01 X20.9981 Y-9.8748
G01 X21.0009 Y-9.8826
G01 X21.0043 Y-9.8901
G01 X21.0435 Y-9.9607
G01 X21.0497 Y-9.9698
G01 X21.0588 Y-9.9801
G01 X21.0690 Y-9.9892
G01 X21.0803 Y-9.9971
G01 X21.1515 Y-10.0353
G01 X21.1643 Y-10.0404
G01 X21.1775 Y-10.0439
G01 X21.1911 Y-10.0457
G01 X21.2049 Y-10.0459
G01 X21.2773 Y-10.0402
G01 X21.2882 Y-10.0388
G01 X21.2989 Y-10.0363
G01 X21.3093 Y-10.0328
G01 X21.3193 Y-10.0283
G01 X21.3310 Y-10.0213
G01 X21.3932 Y-9.9742
G01 X21.3992 Y-9.9690
G01 X21.4048 Y-9.9635
G01 X21.4894 Y-9.9011
G01 X21.5891 Y-9.8662
G01 X21.6009 Y-9.8651
G01 X21.7005 Y-9.8651
G01 X21.7136 Y-9.8643
G01 X21.7240 Y-9.8626
G01 X21.7809 Y-9.8501
G01 X21.7940 Y-9.8456
G01 X21.8015 Y-9.8422
G01 X21.8088 Y-9.8382
G01 X21.8157 Y-9.8337
G01 X21.8223 Y-9.8287
G01 X21.8793 Y-9.7793
G01 X21.8888 Y-9.7694
G01 X21.8971 Y-9.7585
G01 X21.9039 Y-9.7466
G01 X21.9093 Y-9.7339
G01 X21.9306 Y-9.6617
G01 X21.9326 Y-9.6540
G01 X21.9343 Y-9.6436
G01 X21.9351 Y-9.6305
G01 X21.9350 Y-7.5530
G01 X21.9346 Y-7.5414
G01 X21.9338 Y-7.5333
G01 X21.9324 Y-7.5252
G01 X21.9304 Y-7.5172
G01 X21.9278 Y-7.5094
G01 X21.9024 Y-7.4414
G01 X21.8965 Y-7.4290
G01 X21.8891 Y-7.4175
G01 X21.8822 Y-7.4089
G01 X21.8725 Y-7.3993
G01 X21.8660 Y-7.3941
G01 X21.8101 Y-7.3522
G01 X21.8033 Y-7.3475
G01 X21.7962 Y-7.3434
G01 X21.7863 Y-7.3386
G01 X21.7786 Y-7.3358
G01 X21.7707 Y-7.3335
G01 X21.7626 Y-7.3318
G01 X21.7517 Y-7.3304
G01 X21.6820 Y-7.3255
G01 X21.6711 Y-7.3252
G01 X21.6574 Y-7.3265
G01 X21.6466 Y-7.3287
G01 X21.6336 Y-7.3329
G01 X21.6236 Y-7.3374
G01 X21.5575 Y-7.3735
G01 X21.5487 Y-7.3792
G01 X21.5384 Y-7.3874
G01 X21.1586 Y-7.7671
G01 X21.1526 Y-7.7736
G01 X21.1292 Y-7.8030
G01 X21.1235 Y-7.8122
G01 X21.1187 Y-7.8220
G01 X21.1141 Y-7.8347
G01 X21.0944 Y-7.9018
G01 X21.0914 Y-7.9146
G01 X21.0902 Y-7.9250
G01 X21.0899 Y-7.9329
G01 X21.0899 Y-8.1365
G01 X21.0818 Y-8.2042
G01 X21.0370 Y-8.3177
G01 X21.0250 Y-8.3353
G01 X21.0211 Y-8.3425
G01 X21.0177 Y-8.3501
G01 X21.0141 Y-8.3605
G01 X20.9944 Y-8.4275
G00 Z2.0000
G00 X21.7322 Y-7.1738
G01 F40.00
G01 Z-0.0601
G01 F100.00
G01 X21.7362 Y-7.1597
G01 X21.7486 Y-7.1102
G01 X21.7513 Y-7.0975
G01 X21.7532 Y-7.0865
G01 X21.7607 Y-7.0361
G01 X21.7622 Y-7.0232
G01 X21.7656 Y-6.9546
G01 X21.7657 Y-5.1403
G01 X21.8224 Y-5.0774
G01 X21.8305 Y-5.0672
G01 X21.8594 Y-5.0282
G01 X21.8594 Y-7.2018
G01 X21.8440 Y-7.1950
G01 X21.8291 Y-7.1894
G01 X21.8165 Y-7.1855
G01 X21.8000 Y-7.1813
G01 X21.7870 Y-7.1789
G01 X21.7740 Y-7.1770
G01 X21.7322 Y-7.1738
G00 Z2.0000
G00 X23.2272 Y-10.9204
G01 F40.00
G01 Z-0.0601
G01 F100.00
G01 X23.2257 Y-10.9307
G01 X23.2243 Y-10.9438
G01 X23.2236 Y-10.9569
G01 X23.2236 Y-10.9701
G01 X23.2243 Y-10.9852
G01 X23.2302 Y-11.0596
G01 X21.7228 Y-11.0596
G01 X21.7243 Y-11.0493
G01 X21.7257 Y-11.0362
G01 X21.7264 Y-11.0231
G01 X21.7264 Y-11.0099
G01 X21.7257 Y-10.9948
G01 X21.7198 Y-10.9204
G01 X22.2318 Y-10.9204
G01 X22.2498 Y-10.9278
G01 X22.2945 Y-10.9435
G01 X22.3089 Y-10.9476
G01 X22.3530 Y-10.9584
G01 X22.3677 Y-10.9610
G01 X22.4128 Y-10.9675
G01 X22.4277 Y-10.9686
G01 X22.4731 Y-10.9706
G01 X22.4861 Y-10.9704
G01 X22.5223 Y-10.9686
G01 X22.5372 Y-10.9675
G01 X22.5823 Y-10.9610
G01 X22.5970 Y-10.9584
G01 X22.6411 Y-10.9476
G01 X22.6555 Y-10.9435
G01 X22.7002 Y-10.9278
G01 X22.7182 Y-10.9204
G01 X23.2272 Y-10.9204
G00 Z2.0000
G00 X23.2272 Y-12.1904
G01 F40.00
G01 Z-0.0601
G01 F100.00
G01 X23.2257 Y-12.2007
G01 X23.2243 Y-12.2138
G01 X23.2236 Y-12.2269
G01 X23.2236 Y-12.2401
G01 X23.2243 Y-12.2552
G01 X23.2302 Y-12.3296
G01 X21.7228 Y-12.3296
G01 X21.7243 Y-12.3193
G01 X21.7257 Y-12.3062
G01 X21.7264 Y-12.2931
G01 X21.7264 Y-12.2799
G01 X21.7257 Y-12.2648
G01 X21.7198 Y-12.1904
G01 X23.2272 Y-12.1904
G00 Z2.0000
G00 X23.2272 Y-13.4604
G01 F40.00
G01 Z-0.0601
G01 F100.00
G01 X23.2257 Y-13.4707
G01 X23.2243 Y-13.4838
G01 X23.2236 Y-13.4969
G01 X23.2236 Y-13.5101
G01 X23.2243 Y-13.5252
G01 X23.2302 Y-13.5996
G01 X21.7228 Y-13.5996
G01 X21.7243 Y-13.5893
G01 X21.7257 Y-13.5762
G01 X21.7264 Y-13.5631
G01 X21.7264 Y-13.5499
G01 X21.7257 Y-13.5348
G01 X21.7198 Y-13.4604
G01 X23.2272 Y-13.4604
G00 Z2.0000
G00 X21.3895 Y-14.0096
G01 F40.00
G01 Z-0.0601
G01 F100.00
G01 X21.3895 Y-14.3204
G01 X21.3907 Y-14.3405
G01 X21.3944 Y-14.3658
G01 X21.4006 Y-14.3906
G01 X21.4082 Y-14.4122
G01 X21.4114 Y-14.4197
G01 X21.4202 Y-14.4378
G01 X21.4318 Y-14.4575
G01 X21.4364 Y-14.4642
G01 X21.4486 Y-14.4803
G01 X21.4620 Y-14.4953
G01 X21.4677 Y-14.5012
G01 X21.4847 Y-14.5164
G01 X21.5030 Y-14.5301
G01 X21.5098 Y-14.5346
G01 X21.5272 Y-14.5448
G01 X21.5453 Y-14.5536
G01 X21.5528 Y-14.5568
G01 X21.5744 Y-14.5644
G01 X21.5939 Y-14.5694
G01 X21.6018 Y-14.5711
G01 X21.6245 Y-14.5743
G01 X21.6500 Y-14.5756
G01 X23.3000 Y-14.5756
G01 X23.3255 Y-14.5743
G01 X23.3508 Y-14.5706
G01 X23.3704 Y-14.5658
G01 X23.3808 Y-14.5627
G01 X23.3972 Y-14.5568
G01 X23.4047 Y-14.5536
G01 X23.4228 Y-14.5448
G01 X23.4448 Y-14.5317
G01 X23.4653 Y-14.5164
G01 X23.4803 Y-14.5030
G01 X23.4880 Y-14.4953
G01 X23.4997 Y-14.4824
G01 X23.5048 Y-14.4760
G01 X23.5167 Y-14.4598
G01 X23.5298 Y-14.4378
G01 X23.5408 Y-14.4147
G01 X23.5477 Y-14.3958
G01 X23.5508 Y-14.3854
G01 X23.5561 Y-14.3632
G01 X23.5593 Y-14.3405
G01 X23.5606 Y-14.3177
G01 X23.5606 Y-14.0123
G01 X23.5593 Y-13.9895
G01 X23.5561 Y-13.9668
G01 X23.5508 Y-13.9446
G01 X23.5477 Y-13.9342
G01 X23.5408 Y-13.9153
G01 X23.5323 Y-13.8970
G01 X23.5285 Y-13.8898
G01 X23.5167 Y-13.8702
G01 X23.5031 Y-13.8518
G01 X23.4979 Y-13.8456
G01 X23.4843 Y-13.8307
G01 X23.4674 Y-13.8153
G01 X23.4492 Y-13.8014
G01 X23.4425 Y-13.7968
G01 X23.4228 Y-13.7852
G01 X23.4047 Y-13.7764
G01 X23.3972 Y-13.7732
G01 X23.3756 Y-13.7656
G01 X23.3561 Y-13.7606
G01 X23.3482 Y-13.7589
G01 X23.3255 Y-13.7557
G01 X23.3000 Y-13.7544
G01 X21.6500 Y-13.7544
G01 X21.6299 Y-13.7553
G01 X21.6218 Y-13.7560
G01 X21.5992 Y-13.7594
G01 X21.5744 Y-13.7656
G01 X21.5503 Y-13.7742
G01 X21.5296 Y-13.7839
G01 X21.5075 Y-13.7968
G01 X21.4890 Y-13.8102
G01 X21.4826 Y-13.8153
G01 X21.4697 Y-13.8270
G01 X21.4620 Y-13.8347
G01 X21.4486 Y-13.8497
G01 X21.4333 Y-13.8702
G01 X21.4202 Y-13.8922
G01 X21.4092 Y-13.9153
G01 X21.4006 Y-13.9394
G01 X21.3944 Y-13.9642
G01 X21.3907 Y-13.9895
G01 X21.3895 Y-14.0096
G00 Z2.0000
G00 X21.3895 Y-12.7396
G01 F40.00
G01 Z-0.0601
G01 F100.00
G01 X21.3895 Y-13.0504
G01 X21.3907 Y-13.0705
G01 X21.3944 Y-13.0958
G01 X21.4006 Y-13.1206
G01 X21.4082 Y-13.1422
G01 X21.4114 Y-13.1497
G01 X21.4202 Y-13.1678
G01 X21.4318 Y-13.1875
G01 X21.4364 Y-13.1942
G01 X21.4486 Y-13.2103
G01 X21.4620 Y-13.2253
G01 X21.4677 Y-13.2312
G01 X21.4847 Y-13.2464
G01 X21.5030 Y-13.2601
G01 X21.5098 Y-13.2646
G01 X21.5272 Y-13.2748
G01 X21.5453 Y-13.2836
G01 X21.5528 Y-13.2868
G01 X21.5744 Y-13.2944
G01 X21.5939 Y-13.2994
G01 X21.6018 Y-13.3011
G01 X21.6245 Y-13.3043
G01 X21.6500 Y-13.3056
G01 X23.3000 Y-13.3056
G01 X23.3255 Y-13.3043
G01 X23.3508 Y-13.3006
G01 X23.3704 Y-13.2958
G01 X23.3808 Y-13.2927
G01 X23.3972 Y-13.2868
G01 X23.4047 Y-13.2836
G01 X23.4228 Y-13.2748
G01 X23.4448 Y-13.2617
G01 X23.4653 Y-13.2464
G01 X23.4803 Y-13.2330
G01 X23.4880 Y-13.2253
G01 X23.4997 Y-13.2124
G01 X23.5048 Y-13.2060
G01 X23.5167 Y-13.1898
G01 X23.5298 Y-13.1678
G01 X23.5408 Y-13.1447
G01 X23.5477 Y-13.1258
G01 X23.5508 Y-13.1154
G01 X23.5561 Y-13.0932
G01 X23.5593 Y-13.0705
G01 X23.5606 Y-13.0477
G01 X23.5606 Y-12.7423
G01 X23.5593 Y-12.7195
G01 X23.5561 Y-12.6968
G01 X23.5508 Y-12.6746
G01 X23.5477 Y-12.6642
G01 X23.5408 Y-12.6453
G01 X23.5323 Y-12.6270
G01 X23.5285 Y-12.6198
G01 X23.5167 Y-12.6002
G01 X23.5031 Y-12.5818
G01 X23.4979 Y-12.5756
G01 X23.4843 Y-12.5607
G01 X23.4674 Y-12.5453
G01 X23.4492 Y-12.5314
G01 X23.4425 Y-12.5268
G01 X23.4228 Y-12.5152
G01 X23.4047 Y-12.5064
G01 X23.3972 Y-12.5032
G01 X23.3756 Y-12.4956
G01 X23.3561 Y-12.4906
G01 X23.3482 Y-12.4889
G01 X23.3255 Y-12.4857
G01 X23.3000 Y-12.4844
G01 X21.6500 Y-12.4844
G01 X21.6299 Y-12.4853
G01 X21.6218 Y-12.4860
G01 X21.5992 Y-12.4894
G01 X21.5744 Y-12.4956
G01 X21.5503 Y-12.5042
G01 X21.5296 Y-12.5139
G01 X21.5075 Y-12.5268
G01 X21.4890 Y-12.5402
G01 X21.4826 Y-12.5453
G01 X21.4697 Y-12.5570
G01 X21.4620 Y-12.5647
G01 X21.4486 Y-12.5797
G01 X21.4333 Y-12.6002
G01 X21.4202 Y-12.6222
G01 X21.4092 Y-12.6453
G01 X21.4006 Y-12.6694
G01 X21.3944 Y-12.6942
G01 X21.3907 Y-12.7195
G01 X21.3895 Y-12.7396
G00 Z2.0000
G00 X21.3895 Y-11.4696
G01 F40.00
G01 Z-0.0601
G01 F100.00
G01 X21.3895 Y-11.7804
G01 X21.3907 Y-11.8005
G01 X21.3944 Y-11.8258
G01 X21.4006 Y-11.8506
G01 X21.4082 Y-11.8722
G01 X21.4114 Y-11.8797
G01 X21.4202 Y-11.8978
G01 X21.4318 Y-11.9175
G01 X21.4364 Y-11.9242
G01 X21.4486 Y-11.9403
G01 X21.4620 Y-11.9553
G01 X21.4677 Y-11.9612
G01 X21.4847 Y-11.9764
G01 X21.5030 Y-11.9901
G01 X21.5098 Y-11.9946
G01 X21.5272 Y-12.0048
G01 X21.5453 Y-12.0136
G01 X21.5528 Y-12.0168
G01 X21.5744 Y-12.0244
G01 X21.5939 Y-12.0294
G01 X21.6018 Y-12.0311
G01 X21.6245 Y-12.0343
G01 X21.6500 Y-12.0356
G01 X23.3000 Y-12.0356
G01 X23.3255 Y-12.0343
G01 X23.3508 Y-12.0306
G01 X23.3704 Y-12.0258
G01 X23.3808 Y-12.0227
G01 X23.3972 Y-12.0168
G01 X23.4047 Y-12.0136
G01 X23.4228 Y-12.0048
G01 X23.4448 Y-11.9917
G01 X23.4653 Y-11.9764
G01 X23.4803 Y-11.9630
G01 X23.4880 Y-11.9553
G01 X23.4997 Y-11.9424
G01 X23.5048 Y-11.9360
G01 X23.5167 Y-11.9198
G01 X23.5298 Y-11.8978
G01 X23.5408 Y-11.8747
G01 X23.5477 Y-11.8558
G01 X23.5508 Y-11.8454
G01 X23.5561 Y-11.8232
G01 X23.5593 Y-11.8005
G01 X23.5606 Y-11.7777
G01 X23.5606 Y-11.4723
G01 X23.5593 Y-11.4495
G01 X23.5561 Y-11.4268
G01 X23.5508 Y-11.4046
G01 X23.5477 Y-11.3942
G01 X23.5408 Y-11.3753
G01 X23.5323 Y-11.3570
G01 X23.5285 Y-11.3498
G01 X23.5167 Y-11.3302
G01 X23.5031 Y-11.3118
G01 X23.4979 Y-11.3056
G01 X23.4843 Y-11.2907
G01 X23.4674 Y-11.2753
G01 X23.4492 Y-11.2614
G01 X23.4425 Y-11.2568
G01 X23.4228 Y-11.2452
G01 X23.4047 Y-11.2364
G01 X23.3972 Y-11.2332
G01 X23.3756 Y-11.2256
G01 X23.3561 Y-11.2206
G01 X23.3482 Y-11.2189
G01 X23.3255 Y-11.2157
G01 X23.3000 Y-11.2144
G01 X21.6500 Y-11.2144
G01 X21.6299 Y-11.2153
G01 X21.6218 Y-11.2160
G01 X21.5992 Y-11.2194
G01 X21.5744 Y-11.2256
G01 X21.5503 Y-11.2342
G01 X21.5296 Y-11.2439
G01 X21.5075 Y-11.2568
G01 X21.4890 Y-11.2702
G01 X21.4826 Y-11.2753
G01 X21.4697 Y-11.2870
G01 X21.4620 Y-11.2947
G01 X21.4486 Y-11.3097
G01 X21.4333 Y-11.3302
G01 X21.4202 Y-11.3522
G01 X21.4092 Y-11.3753
G01 X21.4006 Y-11.3994
G01 X21.3944 Y-11.4242
G01 X21.3907 Y-11.4495
G01 X21.3895 Y-11.4696
G00 Z2.0000
M05
G00 Z2.0000
G00 Z15.00


